/* XPM */
static char *_7ff07ad6db64c9da8c8f6b28ba8e4aaqezHjniXcwarCRox[] = {
/* columns rows colors chars-per-pixel */
"32 32 226 2 ",
"   c #5B2A08",
".  c #5F310D",
"X  c #5D2E11",
"o  c #592C1C",
"O  c #4D3014",
"+  c #55331D",
"@  c #5C341B",
"#  c #5D391D",
"$  c #653314",
"%  c #653719",
"&  c #653A1E",
"*  c #6B3C1C",
"=  c #733D1B",
"-  c #562D29",
";  c #4E3721",
":  c #543622",
">  c #5A3724",
",  c #5F3924",
"<  c #543729",
"1  c #5A3C2B",
"2  c #652E25",
"3  c #623625",
"4  c #633C24",
"5  c #6A3D24",
"6  c #62362A",
"7  c #643B2B",
"8  c #683D2D",
"9  c #733B27",
"0  c #642434",
"q  c #683E31",
"w  c #54481D",
"e  c #6E401F",
"r  c #56452B",
"t  c #644226",
"y  c #6D4225",
"u  c #6E4821",
"i  c #65412B",
"p  c #6C422B",
"a  c #734324",
"s  c #7D4C27",
"d  c #73462B",
"f  c #79462B",
"g  c #764A2D",
"h  c #7B4D2C",
"j  c #7E502E",
"k  c #6A4234",
"l  c #6A4435",
"z  c #744937",
"x  c #7C4D35",
"c  c #7C4F3B",
"v  c #675836",
"b  c #7C5234",
"n  c #7A5239",
"m  c #4E792D",
"M  c #56792E",
"N  c #4E7931",
"B  c #527E32",
"V  c #7A4B41",
"C  c #7C5443",
"Z  c #757E47",
"A  c #757374",
"S  c #844E2D",
"D  c #8A4F2D",
"F  c #895627",
"G  c #84522D",
"H  c #89542C",
"J  c #834E35",
"K  c #845334",
"L  c #8A5533",
"P  c #865837",
"I  c #8C5A35",
"U  c #82553A",
"Y  c #8B573A",
"T  c #8C5A3B",
"R  c #975637",
"E  c #925C34",
"W  c #935D3B",
"Q  c #95642A",
"!  c #8C603D",
"~  c #996136",
"^  c #95623D",
"/  c #99633D",
"(  c #9D6A3C",
")  c #A0663E",
"_  c #A36C3D",
"`  c #AD793F",
"'  c #875B47",
"]  c #8B5B42",
"[  c #935D42",
"{  c #915845",
"}  c #9A5E43",
"|  c #8D6143",
" . c #86604A",
".. c #8E6249",
"X. c #956343",
"o. c #9B6442",
"O. c #9C6943",
"+. c #976749",
"@. c #9C6A4B",
"#. c #9B7449",
"$. c #996B54",
"%. c #907152",
"&. c #A36E42",
"*. c #A0674C",
"=. c #A36E4B",
"-. c #A77244",
";. c #AA7446",
":. c #A6724C",
">. c #AB754C",
",. c #AC794D",
"<. c #B27C4B",
"1. c #B9784A",
"2. c #A16C56",
"3. c #A47454",
"4. c #AD7653",
"5. c #AB7A51",
"6. c #A6755A",
"7. c #AD7C5B",
"8. c #B37D53",
"9. c #B57A54",
"0. c #B47D58",
"q. c #8D756F",
"w. c #867875",
"e. c #AC7B66",
"r. c #568234",
"t. c #5B8638",
"y. c #5B853A",
"u. c #5F9A3C",
"i. c #618C3E",
"p. c #639C3D",
"a. c #6D9F3C",
"s. c #59A635",
"d. c #64A639",
"f. c #72A83E",
"g. c #6AB03E",
"h. c #5F9A40",
"j. c #6A9442",
"k. c #659D42",
"l. c #75964A",
"z. c #739352",
"x. c #6BA344",
"c. c #6AAD43",
"v. c #6BA94A",
"b. c #78A64B",
"n. c #76AB4A",
"m. c #73AB4C",
"M. c #62B04D",
"N. c #74B241",
"B. c #7AB34D",
"V. c #72B84B",
"C. c #74BB4E",
"Z. c #77AE51",
"A. c #7BB253",
"S. c #7BAD66",
"D. c #7AC044",
"F. c #7CC44D",
"G. c #7EC254",
"H. c #859E58",
"J. c #B5824C",
"K. c #B8814B",
"L. c #AE825C",
"P. c #B48154",
"I. c #B98255",
"U. c #BD8C54",
"Y. c #B5825C",
"T. c #BC855C",
"R. c #B48A59",
"E. c #BD895D",
"W. c #86AF4F",
"Q. c #80B94E",
"!. c #8DB055",
"~. c #83BA53",
"^. c #85B856",
"/. c #82B65A",
"(. c #988274",
"). c #AD8563",
"_. c #A58169",
"`. c #BA8966",
"'. c #AE926B",
"]. c #BE9165",
"[. c #80B462",
"{. c #99B270",
"}. c #BABC7B",
"|. c #C38B5D",
" X c #C6955C",
".X c #C18762",
"XX c #C38E63",
"oX c #C38E69",
"OX c #C69666",
"+X c #CA9564",
"@X c #CD9B64",
"#X c #C5926A",
"$X c #CA956A",
"%X c #CD9A6C",
"&X c #D19E65",
"*X c #D39D6C",
"=X c #C49471",
"-X c #CC9673",
";X c #D39D74",
":X c #D49E77",
">X c #D4A26B",
",X c #D9A168",
"<X c #D6A273",
"1X c #D7A476",
"2X c #D5A37B",
"3X c #E0A36C",
"4X c #E2A97A",
"5X c #8AC859",
"6X c #8ACD5B",
"7X c #99C35A",
"8X c #9FD15E",
"9X c #A3C85F",
"0X c #9BCC64",
"qX c #99CA6F",
"wX c #A0C961",
"eX c #A0D168",
"rX c #7F7E86",
"tX c #877D87",
"yX c #8E8C8F",
"uX c #998685",
"iX c #99959C",
"pX c #BB9482",
"aX c #AE9D96",
"sX c #AAA09F",
"dX c #A39CA9",
"fX c #D5A581",
/* pixels */
"N y.m r.i.y.m r.r.m r.y.B r.r.y.j.y.N r.r.B y.i.y.B r.y.m B r.i.",
"m.x.k.p.v.p.x./.p.h.p.Z.A./.x.x.x.k.p.x.B.m.k.x.x.u.p.x.m./.x.p.",
"~.~.M.s.v s.f.b.p.c.^.Q.~.m.M.x.Z g.x.n.V.b.x.j.M d.d.B.^.C.g.j.",
"7X7Xd.z.- C.H.d.z.b.!.9X0Xd.H.N.- 5X^.W.a.[.W.z.r l.N.!.eXf.H.N.",
"6XwXeX6 r F.1 D.> }.7X5X6XG.2 F.@ B.g.0X~.; qXl.3 O 8X0X6X5X0 V.",
"w /.O x t 1 6 A.x 2 {.'.w c.7 6 > G.1 ; S.w @ 4 % n + F.9 C.6 9 ",
"q : A P :.[ I d K w.- a l 6 T I _ , +X/ v T E _ >.C tXt 4 z ^ R ",
"W T 4 Y 8.y 4 5 U 4 ] W | 4 p p 1.X.,.>.* 8 l T 0.U t W ] & 8 k ",
"E *XE.] ^ T *X&XI -X&X-XE <X2X[ X.dX^ S %X,X~ W @.^ @X*XX. X>XE ",
"d I.>.P I.W / 8.K 5.P.e.% I./ W T.8.@XOX,.o.^ :.E.Y <.4.4 8.W X.",
"Y.8.W K I.W a W L T T.Y.Y./ 5 o.8./ 8.E / 5 @.;.E.T ~ I.Y./ d [ ",
"^ W / @Xq y ^ X.+XE ^ W W ^ ^ t p [ L k X.o.& k * @XW W W / o.p ",
"~ W +.%X5 a W +.:X+.E E T 6.S * $ E H # $.L   & $ 2X@.E E 6.H $ ",
",X1X4 4.^ *X|.p 6.# %X,X2Xl 8.4X/ <X*XE z `.4XXX/ 3.p *X>Xk I.>X",
"8.4.K , <XE 8.tX: ] Y.8.).w.I.W %X8.>.D (.).L <.fX5 ^ 0.P.tXJ.X.",
"W [ U Y 5.<Xo.^ L K W U ^ W I >X,.,.E >.U W <XE.4.K Y T T W } OX",
"X %X@ b [ ,.>.G K # =XpX4 [ ,.,.K ] J T G :.,.=.T U # oXi W Y.>.",
"].K | x 5 P 5 :XG @.s Q  X@X# T 3 L E.& ].y ] g 5 T @.G #X+X4 Y ",
"=.c f X.K yXK 3.O.g h W O.:.K iXY 2.&.I.( W aXw.H @.c f :.=.K iX",
"( >X$XY ^ ..<X>XL %X*X:XE >X3X] @.sXW L ;X4X! X.@.L %X*X^ >X>XX.",
"f K.` { T.} O.P.H T.9.e.= P.^ [ 1.(.2X<X-.} R >.P.K <.<.9 J.^ +.",
"5.8.^ T U.o.x o.T =.8.R.>.>.U / K.:.|.-.=.U ! -.E.T ;.I.L.-.K O.",
".X`.L H oX3.$ T G K #XXXoX[ X 3.`.^ #X=.+.a @.7.7.L *.OX#XW X ).",
"W W ..|.p e W $.+XI o.{ [ Y ^ y 5 W H # $.W $ 5 $ OXT W [ { ~ 5 ",
"&X;Xp :.W ;X<.i #.# =X,X2Xr P.@XE %X%XG 7 5.:X|.I 3.* &X&Xv K.*X",
">.4.G i +X^ 8.w.; ] 0.1._.rX8.o.%X>.3.T w.).L >.fX4 G 4.,.tXL.W ",
"K L s J &.$XL [ K Y G T T T I %X,.>.K O.E { *XE.3.g U I W Y T E.",
"@ R.+ g I 3.;.T h < `.pXo U ;.:.L  .V u T 1.:.^ K b 3 `.> ] ,.4.",
"T.f o.g : H # #Xh @.f H +X|.& K , K I.o R.4 s a 4 c O.H E.|.3 j ",
"^ g h ..n uXn :.! b d s ^ ) n uXx $.2.5./ S (.q.x X.f C ( O.h uX",
"L OX].K ]  .OXOXs oX#X-XE $XOX' { dXK G fX*X| ' L K OX#XY $XOX .",
"X _ ~ x XXY I :.G 5.&.$.. ;.F W P.%.=XE.( I K 4.7.K _ -., _ G ^ "
};
