/* XPM */
static char *_230731beb3b46fec0c10f7123b9712eT3NnQq3qMtCLgCwz[] = {
/* columns rows colors chars-per-pixel */
"32 32 23 1 ",
"  c black",
". c #78250E",
"X c #7F270F",
"o c #8B2B10",
"O c #912D11",
"+ c #9A3012",
"@ c #A03113",
"# c #A73413",
"$ c #A83414",
"% c #B33715",
"& c #B73815",
"* c #BD3A16",
"= c #C23B16",
"- c #C13C17",
"; c #C43C17",
": c #C93E17",
"> c #CC4018",
", c #D44218",
"< c #DB441A",
"1 c #E5481C",
"2 c #AFAFAF",
"3 c #CECECE",
"4 c gray86",
/* pixels */
"1<,:=&%#1<,:=&%#1<,:=&%#1<,:=&%#",
"1<>-%$+O1<>-%$+O1<>-%$+O1<>-%$+O",
"1<>-%$+O1<>-%$+O1<>-%$+O1<>-%$+O",
"1<>-%$+O1<>-%$+O1<>-%$+O1<>-%$+O",
"1<>-%$+O1<>-%$+O1<>-%$+O1<>-%$+O",
"1<>-%$+O1<>-%$+O1<>-%$+O1<>-%$+O",
"1<>-%$+O1<>-%$+O1<>-%$+O1<>-%$+O",
"1<>-%$+O1<>-%$+O1<>-%$+O1<>-%$+O",
"1<>-%$+O1<>-%$+O1<>-%$+O1<>-%$+O",
"1<>-%$+O1<>-%$+O1<>-%$+O1<>-%$+O",
"44444434444444443444444334444443",
"44444433444444444344443333444443",
"3444      33  3344  33      4433",
"3344      33   334  33      4333",
"333333  3333    33  3333  333333",
"333333  3333     3  3333  333333",
"333333  3333  3     3333  333333",
"333333  3333  33    3333  333333",
"333222  3332  333   3333  222333",
"332222  2222  2333  3333  222233",
"22223322223322222333322333222222",
"22233332233332222233222232222222",
"=&$@OoX.=&$@OoX.=&$@OoX.=&$@OoX.",
"1<>-%$+O1<>-%$+O1<>-%$+O1<>-%$+O",
"1<>-%$+O1<>-%$+O1<>-%$+O1<>-%$+O",
"1<>-%$+O1<>-%$+O1<>-%$+O1<>-%$+O",
"1<>-%$+O1<>-%$+O1<>-%$+O1<>-%$+O",
"1<>-%$+O1<>-%$+O1<>-%$+O1<>-%$+O",
"1<>-%$+O1<>-%$+O1<>-%$+O1<>-%$+O",
"1<>-%$+O1<>-%$+O1<>-%$+O1<>-%$+O",
"1<>-%$+O1<>-%$+O1<>-%$+O1<>-%$+O",
">;*%$@+O>;*%$@+O>;*%$@+O>;*%$@+O"
};
