/* XPM */
static char *bb267fd51677437eccf4fc8922894f21doxrxIXbrp7iYj7e[] = {
/* columns rows colors chars-per-pixel */
"32 32 159 2 ",
"   c #020101",
".  c #0A0302",
"X  c #0D0908",
"o  c #140605",
"O  c #1D0401",
"+  c #110907",
"@  c #1D0804",
"#  c #1F0408",
"$  c #0F1B17",
"%  c #1C1314",
"&  c #141F17",
"*  c #1E1A17",
"=  c #1B1D1D",
"-  c #210502",
";  c #200903",
":  c #290A07",
">  c #22070C",
",  c #2A0B08",
"<  c #310E08",
"1  c #33100A",
"2  c #291F16",
"3  c #231C1B",
"4  c #2C1E1B",
"5  c #321F1B",
"6  c #3A1F1C",
"7  c #1C201F",
"8  c #2D2514",
"9  c #23231C",
"0  c #2D221C",
"q  c #2D291D",
"w  c #312914",
"e  c #33231D",
"r  c #3B221D",
"t  c #34291F",
"y  c #1F1F21",
"u  c #2D1E21",
"i  c #351F26",
"p  c #3B1D25",
"a  c #3D1F29",
"s  c #1E2320",
"d  c #222121",
"f  c #2F2223",
"g  c #342421",
"h  c #392422",
"j  c #312925",
"k  c #3A2922",
"l  c #35212C",
"z  c #382328",
"x  c #332B28",
"c  c #382828",
"v  c #373B3C",
"b  c #393A3C",
"n  c #481F1D",
"m  c #422714",
"M  c #4C2717",
"N  c #44251E",
"B  c #4A251D",
"V  c #522615",
"C  c #51251A",
"Z  c #491F20",
"A  c #462520",
"S  c #4C2422",
"D  c #422924",
"F  c #482A22",
"G  c #502725",
"H  c #423937",
"J  c #453C3A",
"K  c #493E3D",
"L  c #513E3E",
"P  c #4B403E",
"I  c #4D4443",
"U  c #DB260F",
"Y  c #DC2A0A",
"T  c #C22A1C",
"R  c #D62617",
"E  c #DD2611",
"W  c #DC2A13",
"Q  c #EB270F",
"!  c #E52A0D",
"~  c #FD2B06",
"^  c #F62D0F",
"/  c #FD2C0F",
"(  c #E42612",
")  c #EB2613",
"_  c #E32B13",
"`  c #EA2A13",
"'  c #E12B1A",
"]  c #E92B1F",
"[  c #FF2715",
"{  c #F52D14",
"}  c #FF2C16",
"|  c #FD2B14",
" . c #F72D19",
".. c #F72D19",
"X. c #FF281A",
"o. c #FF2A1A",
"O. c #FA2D1A",
"+. c #FF2E19",
"@. c #FF2C1A",
"#. c #FE2D19",
"$. c #F33012",
"%. c #F33012",
"&. c #FB3010",
"*. c #FF3019",
"=. c #E32620",
"-. c #E32620",
";. c #F6402A",
":. c #FB4530",
">. c #FF4934",
",. c #BFC9C1",
"<. c #CFC7C5",
"1. c #CFC7C5",
"2. c #CDC9C6",
"3. c #C5C9CA",
"4. c #CECACA",
"5. c #D0C6C4",
"6. c #D0C6C4",
"7. c #DCC7C2",
"8. c #D2C9C7",
"9. c #DDDFDC",
"0. c #E2CEC7",
"q. c #E3DFDC",
"w. c #E7E2DF",
"e. c #E4E0DD",
"r. c #E4E1DE",
"t. c #E9E1DF",
"y. c #DFDFE1",
"u. c #DDE1E2",
"i. c #DFE3E2",
"p. c #DEE1E2",
"a. c #E3E3E1",
"s. c #E0E1E3",
"d. c #E4E2E3",
"f. c #E6E2E1",
"g. c #E5E4E2",
"h. c #E3E1E4",
"j. c #E4E3E4",
"k. c #E8E6E7",
"l. c #ECE7E4",
"z. c #EFE7E5",
"x. c #EBE5E3",
"c. c #EDE8E5",
"v. c #EDE8E5",
"b. c #EFEBEA",
"n. c #FFE7E2",
"m. c #F0EBE8",
"M. c #F7FBFA",
"N. c #FBFBF9",
"B. c #FFFDFA",
"V. c #FFFBFD",
"C. c #FBFCFE",
"Z. c #FDFDFD",
"A. c #FFFFFD",
"S. c #FFFDFE",
"D. c #FCFFFF",
"F. c #FFFEFF",
"G. c #FEFFFF",
"H. c white",
"J. c #FEFEFD",
/* pixels */
"e e e 5 g e e e t e e e e e g g e 0 0 e e e e e q z r e z f e p ",
"5 e e g 0 e e g e e e 0 g g e 5 g g g g g g 0 0 0 u 0 8 g e w e ",
"g e e e 0 g 0 4 4 e g f g 0 e g g g g g g e 0 0 z l g t f g e 0 ",
"5 e g g P K P I K J J K g e r r N A S B B B B B m N M C f i h a ",
"k e 4 P 6.z.z.w.w.z.z.<.P 5 5 D W _ ` ` ` ` ` ) _ ] ' T V e 8 e ",
"e e g P t.B.A.A.A.A.A.f.P g r N ! { | | | | | } ~ | | ' V 0 9 j ",
"e e 0 K w.A.A.A.A.A.A.k.K 4 r F ! { | | ^ { { { } X.} =.M g e i ",
"t e 0 J 2.a.i.i.C.A.A.h.I 5 6 N `  .+.| Q _ ( ( Y U Y R V S B S ",
"t 0 g x * 9 = v a.A.M.g.K 0 e S _ { | ( 1 @ O @ - > o : U ` ! _ ",
"t 0 e 4 .     7 y.A.A.b.K 0 e S _ { +.( O . .         - E } { O.",
"e e g 4 .     d f.V.N.c.L 0 e B ` } } U @             O ( } | X.",
"5 0 g 4 o . . 3 4.x.g.8.L 0 0 G ` *.+.U k = = $ X     O ( | / | ",
"g g g g 4 4 3 j H K J K g e e n ` | | >.7.j.j.3.% .   O W | / { ",
"e 5 4 e g g g g 0 h f 0 h 0 e S _ { | >.n.A.V.a.=     O _ | / } ",
"g g e e e e e 4 e e 0 4 h e e S _ { } :.n.A.A.9.s     O _ | | } ",
"5 e e e e 5 k t e e g e 6 e e S ( | } ;.0.r.j.,.3     O W | | { ",
"e e e e e g e e k k 0 e 6 e t S ` | [ _ 5 9 = &       - E | | { ",
"e e g g 4 e e e 4 5 0 g 6 0 t S ` | +.E ;             - E | | } ",
"g e e e 0 g g 0 g g j g h 2 0 Z ( { +.E O   .         - E | / } ",
"5 e g e K J K H j 4 9 0 k e t S _ { | E @   .     .   - E | &.{ ",
"k e 0 P 8.x.x.4.3 . . + 4 0 0 B ` { } E @             - E | | | ",
"e e g K z.B.B.a.d     . 4 0 e S _ } +.E @             O E } | [ ",
"e e 0 J m.A.A.i.y     . 5 0 0 S _ { +.E -   .         - E | | O.",
"e e f P x.N.A.i.b = s = c 0 0 S _ { } ( < @ # @ - # @ , U ` ! _ ",
"e e 0 I q.A.A.C.h.i.a.4.J e r A `  .+.| Q _ ( ( Y U Y R V S B S ",
"t e 0 K x.A.A.C.A.A.A.j.K 5 6 N ! { | | ^ $.{ { } X.} =.M g e i ",
"5 e g K f.B.A.A.A.A.A.f.P e r A ! { | | | | | } ~ | | ' V 0 9 j ",
"g e 4 P 6.z.x.w.w.x.c.<.P 4 5 D W _ ` ` ` ` ` ) _ ] ' T V e 8 e ",
"5 g e e K J J P I K K K g g t 5 N A S B B B B B m N M C f i h a ",
"g e 4 e g g e 0 4 0 0 0 g e e g g g g g g e 0 0 z l g t f g e 0 ",
"5 e e e e e e e g e e 0 g g e 5 g g g g g g 0 0 0 u 0 8 g e w e ",
"e g e 5 k e e e e e e t 0 e g g e 0 0 e e e e e q z r e z f e p "
};
