/* XPM */
static char *_1494c93b18a4182ed754f123ace68f7aHJKNw2xLsn1AkzA[] = {
/* columns rows colors chars-per-pixel */
"32 32 205 2 ",
"   c #240B00",
".  c #260B00",
"X  c #250D00",
"o  c #260C00",
"O  c #270C00",
"+  c #270D00",
"@  c #270E00",
"#  c #290E00",
"$  c #2A0E00",
"%  c #2B0E00",
"&  c #2F0F00",
"*  c #320D00",
"=  c #330F00",
"-  c #370E00",
";  c #370F00",
":  c #331100",
">  c #351100",
",  c #351200",
"<  c #371200",
"1  c #381200",
"2  c #391200",
"3  c #381300",
"4  c #391300",
"5  c #3A1200",
"6  c #3B1200",
"7  c #3A1300",
"8  c #3B1300",
"9  c #3C1200",
"0  c #3C1300",
"q  c #3D1300",
"w  c #3F1300",
"e  c #391400",
"r  c #3B1400",
"t  c #3C1400",
"y  c #3D1400",
"u  c #3E1400",
"i  c #3F1400",
"p  c #3E1500",
"a  c #401400",
"s  c #411400",
"d  c #411500",
"f  c #431500",
"g  c #401700",
"h  c #411700",
"j  c #421700",
"k  c #431700",
"l  c #451500",
"z  c #451600",
"x  c #451700",
"c  c #461700",
"v  c #471700",
"b  c #481700",
"n  c #4D1700",
"m  c #4A1900",
"M  c #4B1900",
"N  c #4A1B00",
"B  c #4C1900",
"V  c #4D1900",
"C  c #4E1A00",
"Z  c #4E1B00",
"A  c #4E1C00",
"S  c #501900",
"D  c #501A00",
"F  c #531A00",
"G  c #541A00",
"H  c #551A00",
"J  c #541B00",
"K  c #551B00",
"L  c #561B00",
"P  c #571B00",
"I  c #501C00",
"U  c #531C00",
"Y  c #541C00",
"T  c #551C00",
"R  c #561C00",
"E  c #571C00",
"W  c #561D00",
"Q  c #571D00",
"!  c #581C00",
"~  c #581D00",
"^  c #591D00",
"/  c #5B1D00",
"(  c #591E00",
")  c #5B1E00",
"_  c #5C1C00",
"`  c #5D1C00",
"'  c #5C1D00",
"]  c #5D1D00",
"[  c #5E1C00",
"{  c #5E1D00",
"}  c #5D1E00",
"|  c #5E1E00",
" . c #5F1E00",
".. c #5E1F00",
"X. c #5F1F00",
"o. c #601D00",
"O. c #601E00",
"+. c #611E00",
"@. c #601F00",
"#. c #631F00",
"$. c #671F00",
"%. c #681F00",
"&. c #5C2000",
"*. c #5F2000",
"=. c #602000",
"-. c #602100",
";. c #632000",
":. c #632100",
">. c #642000",
",. c #652000",
"<. c #642100",
"1. c #672000",
"2. c #672100",
"3. c #682000",
"4. c #682100",
"5. c #682200",
"6. c #6B2300",
"7. c #6F2500",
"8. c #702500",
"9. c #702700",
"0. c #732600",
"q. c #732700",
"w. c #742700",
"e. c #762600",
"r. c #772600",
"t. c #772700",
"y. c #792500",
"u. c #792600",
"i. c #792700",
"p. c #702800",
"a. c #732800",
"s. c #792800",
"d. c #C71200",
"f. c #C61300",
"g. c #C71300",
"h. c #C81300",
"j. c #CA1200",
"k. c #CA1300",
"l. c #CD1300",
"z. c #CE1200",
"x. c #CE1300",
"c. c #C81400",
"v. c #C81500",
"b. c #CA1400",
"n. c #CA1500",
"m. c #C81600",
"M. c #CA1600",
"N. c #CB1600",
"B. c #CD1500",
"V. c #CE1400",
"C. c #CF1400",
"Z. c #CE1500",
"A. c #CF1500",
"S. c #CD1600",
"D. c #CE1600",
"F. c #CF1600",
"G. c #CE1700",
"H. c #CF1800",
"J. c #D01400",
"K. c #D01500",
"L. c #D01600",
"P. c #D11600",
"I. c #D01700",
"U. c #D11700",
"Y. c #D31600",
"T. c #D21700",
"R. c #D31700",
"E. c #D41700",
"W. c #D51700",
"Q. c #D01800",
"!. c #D11800",
"~. c #D21800",
"^. c #D31800",
"/. c #D41800",
"(. c #D51800",
"). c #D71800",
"_. c #FF4A0B",
"`. c #FF4E09",
"'. c #FF4C0B",
"]. c #FF4D0B",
"[. c #FF4E0B",
"{. c #FF490C",
"}. c #FF480D",
"|. c #FF490D",
" X c #FF4A0C",
".X c #FF4B0C",
"XX c #FF4B0D",
"oX c #FF4C0C",
"OX c #FF4D0C",
"+X c #FF4D0D",
"@X c #FF4E0C",
"#X c #FF4E0D",
"$X c #FF530B",
"%X c #FF500C",
"&X c #FF530C",
"*X c #FF530D",
"=X c #FF9100",
"-X c #FF9500",
";X c #FF9600",
":X c #FF9700",
">X c #FF9900",
",X c #FF9A00",
"<X c #FF9B00",
"1X c #FF9C00",
"2X c #FF9D00",
/* pixels */
"`.+.` ` ` ` ` $.+.<X;X`.K.! y.y.y.$.%.0 K.`.K.0 ` y.y.y.y.` 0 K.",
"K.=.` L L L ` ` 1.k.<Xk.K.w.y.! ! ` 1.5.5 %XS.! s.! ! ! y.w.5.5 ",
"K.~.=.` ` x L u 5 S.+XS.W w.! ` ` ` ` 1.=.S.W y.! ` ` ` ` ! 1.=.",
"5 K.` 1.` 5.u u ~.c.+XS.0 5.x L L L ` ` =.K.! 1.` ` L L L ` x 5.",
"+.<X+X5 u a u ~.c.<XXXS.e u 5.L L L ` ` =.K.! 1.` ` L L L ` 1.1.",
"+.<Xg.~.(.e ~.c.g.<X<Xc.(.0 5.` L L ` ` =.K.5 5.1.` ` L L ` ` ` ",
"n ;XXXS.N K.c.`.%Xg.1XK.e u 0 u u ` 1.1.+.%XK.5 5.1.1.` ` x ` 0 ",
"z.;X<Xg.k.<X<X+X, =.+.W (.S.S.~.u a 0 ! 5 %Xc.K.5 0 =.0 a x e ~.",
"<X;X;X;X;X;XXX@ 5.` ` 1.W %X%Xc.~.e (.K.~.c.%X`.c.c.+XS.e e K.c.",
"`.XXXXXX+XF 5 a 1.` ` ` ` ` S.%Xc.K.p.9.=.(.& XX<X<X<X+Xc.c.%X+X",
"+.  1X5.7.y.` 0 5.1.! 1.` ` &.+XS.p.! ! ! A XX1Xk.S.k.`.`.`.S.` ",
"L ~.S.9.w.1.1.` 0 ` 1.5.a 5 z.1XK.&.5.` W +X1Xz.p.9.w., `.`.&.L ",
"C (.W w.! ` 1.=.(.5 5 % % S.1Xk.5 (.% 1.I +Xz.&.1.1.w.s.5 K.C L ",
"K., ` 1.` ` ` 1.5 E.%X+X+X+X+XS.W ~.S.k.+XS.=.1.! 1.1.w.` 5 (.~.",
"`.`.5 5.` ` ` ` a @ S.c.S.S.S.W 1.` +X<X<X* 5.` ` ` 1.1.1.1.=.C ",
": +X5 u ` ` ` u 5 %XS.9.w.! ! ` 1.1.W k.;XXX5 a x ` ` ` ` ` 1.5.",
"K.+XS.5 1.1.5.5 S.+X` y.! ` L L ` 1.=.S.<X<XS.~.e x ` ` ` ` ` u ",
"S.XX<XK.(.5 5 S.+X`.+.! ` L L L ` ` 1.=.k.<X` ~.~.u x ` x x a e ",
"k.<X<Xu a (.K.+X<XF 1.` L L L L ` x ` u S.<X; N K.% 0 0 0 0 5 K.",
";X;XW 1.L L b XX;X` 1.` L L L L x x a e c.;X<X+X+X+X+X+XXX<X<X;X",
"<X<X+XC L ; <X;X;X` 1.` L x P b x a u K.+X<XF W S.S.S.c.1XXXXXXX",
"K.c.%XS.S.%XXXXX;X<X5 u ` x x a u e ~.c.+XC w.w.9.9.=.~.S.c.S.S.",
"+.H.S.K.p.9.9.@ XX;XS.5 0 u 0 5 ~.S.c.%XI w.y.! ! ! ` =.&.K.=.=.",
"+.E.W w.1.! ! ` ; <XXX<X+Xc.%X%Xc.%X`.@ 1.y.! ` L ` ` ` 1.=.0 ` ",
"` ! y.y.a ` ` ` W XX<XXXc.K.W W ! , +XI s.! ` ` L L L x ` =.E.! ",
"` ` 5.! 5.` ` ` +.<XXXS.p.9.w.w.w.+.`.`.u a x ` L L L L ` 1.K.u ",
"5 ! 5 5.1.` ` u , +Xc.9.w.y.! ! ! 1.I %Xc.~.a x L L L L ` 5 +X, ",
"`.1X+X@ 5 0 0 5 %Xc.K.w.! ` ` L ` 1.5.; 1Xk.~.a ` ` ` u 0 ; <X+X",
"K.c.`.+X+X+X%Xc.S.~.=.` ` L L L ` ` x a XX<Xc.a u u u u ` +X+X! ",
"L % K.W W 5 , %X@ u 0 u ` ` ` 1.5.x a ! * <XXXc.~.~.~.K.+X<X` L ",
"C (.K.w.w.1.+.`.+X  (.e 0 0 u a 0 e (.S.<X=X<X+XK.e u 5 S.+XN 1.",
"`.` +.$.$.$.$.` <X1XS.K.$XK.K.K.K.E.5 K._.<X_.S.5 ` ` ` W `.K.K."
};
