/* XPM */
static char *_78cbc81a8c9447f99b1bb0647047123FLrdNyf1jfmhCXbu[] = {
/* columns rows colors chars-per-pixel */
"32 32 128 2 ",
"   c #1D1D1D",
".  c gray9",
"X  c gray8",

"o  c gray10",
"O  c #282828",
"+  c #222222",
"@  c gray12",
"#  c gray13",
"$  c #181818",
"%  c #272727",
"&  c #1E1E1E",
"*  c gray11",
"=  c gray16",
"-  c #2A2A2A",
";  c gray14",
":  c #202020",
">  c #161616",
",  c #191919",
"<  c #252525",
"1  c #313131",
"2  c gray15",
"3  c gray17",
"4  c gray19",
"5  c #353535",
"6  c gray20",
"7  c #232324",
"8  c #232323",
"9  c #151515",
"0  c #111111",
"q  c #343434",
"w  c #242525",
"e  c #2F2F2F",
"r  c gray18",
"t  c #2D2D2D",
"y  c #484848",
"u  c gray23",
"i  c #3A3A3A",
"p  c #3C3C3C",
"a  c gray24",
"s  c #3E3E3E",
"d  c #2E2E2F",
"f  c #313132",
"g  c #393939",
"h  c gray22",
"j  c #373737",
"k  c #303031",
"l  c #2C2C2C",
"z  c #141415",
"x  c #131313",
"c  c #1B1B1B",
"v  c #1C1C1D",
"b  c #181819",
"n  c #1E1E1F",
"m  c gray6",
"M  c gray4",
"N  c #0B0B0B",
"B  c #090909",
"V  c #0B0C0C",
"C  c gray7",
"Z  c #121211",
"A  c #101010",
"S  c gray5",
"D  c #0C0C0C",
"F  c #151414",
"G  c #111112",
"H  c #0E0E0E",
"J  c #121313",
"K  c #191A1A",
"L  c #1C1C1B",
"P  c #262627",
"I  c gray21",
"U  c #323232",
"Y  c #232424",
"T  c #1B1B1A",
"R  c #1E1F1F",
"E  c #2D2E2E",
"W  c #333334",
"Q  c #2F3030",
"!  c #464646",
"~  c #252526",
"^  c #252626",
"/  c #2C2D2D",
"(  c #29292A",
")  c #2C2C2D",
"_  c #2E2F2F",
"`  c #1B1B1C",
"'  c #131414",
"]  c #1A1B1B",
"[  c #1B1C1C",
"{  c #202021",
"}  c #212222",
"|  c #262727",
" . c #101111",
".. c #141515",
"X. c #1A1A1B",
"o. c #111110",
"O. c #1F2020",
"+. c #141313",
"@. c #151516",
"#. c #151616",
"$. c #171718",
"%. c #161717",
"&. c #1D1D1E",
"*. c #222323",
"=. c #242425",
"-. c #202121",
";. c #161615",
":. c #171818",
">. c #181919",
",. c #303131",
"<. c gray26",
"1. c #3D3E3E",
"2. c #3E3F3F",
"3. c #3F3F3F",
"4. c #1D1E1E",
"5. c #19191A",
"6. c #0F0F10",
"7. c #2A2A2B",
"8. c #1F1E1F",
"9. c #282829",
"0. c #222223",
"q. c #262726",
"w. c #494949",
"e. c #434343",
"r. c gray25",
"t. c gray27",
"y. c #302F30",
"u. c white",
/* pixels */
"  . . . X o O + @ # @ + @ $ %   &   * $ = - = = ; $ : * * @ * > ",
"; , > , > < 1 2 = O ; 3 2 2 4 :   @ : # 5 6 6 5 6 ; < ; 7 ; 8 @ ",
"; 9 > . 0 ; q & < : & @ 8 w 4 o * * , : q 4 4 e r % ; : : @ @ * ",
"t 8 + < + 4 y u u i p a s 5 p 4 d 1 1 f i g h h j k 4 l 4 e 4 e ",
"9 z x 9 > 0 c 8 # # + @ < # c : & v + c . , $ , b 0 n : @ @ & o ",
"m M N M M B V x 0 0 x m . X m m 0 C , Z C X m X C A & o 9 9 $ > ",
"C S S D N M m . 9 9 9 C * F 0 C 0 G @ 0 C C m m C 0 # $ > > > X ",
"X H m A m m J > 9 z 9 x @   $ K , * 8 L c o c o   , O 8 @ # : 8 ",
"&   * & & o K 2 < < < * 7 P ; w 8 : = - 2 % 2 = O : + 8 # + +   ",
"% 8 8 8 8 @ 8 I 6 6 j r t + *   & + U 2 % = # - < + + , 9 9 . 9 ",
"O + # : @ * Y 6 e e e 3 e & * * T R j @ ; 8 & @ 8 8 < $ > > > X ",
"U O - t 3 3 E u h I h W i e = l 3 Q ! g j 5 I I i 6 r + @ # : 8 ",
"- % O O 2 % < 2 ; ~ ; Y 8 ^ E 3 / O ( ) _ r Q 4 t % * c c & * , ",
"# 9 x 9 X , ` 9 . > x $ 9 ' n 9 C X X J $ . . . > A 0 A m m H D ",
"% $ , , > : ; $ c $ . $ o ] 2 $ , , . [ @ * * * c K X 0 C 0 0 A ",
"% # : + 8 { ; ; 8 8 8 + P } | ; # + < # c * c c c . [ o   * c , ",
"H D N S S B S > X X >  .K > 0 x x ..X.X C X A X C S @ c $ , , 9 ",
"0 S S D D M A > X 9 9 C [ X 0 C C X v o.X X A x x X # $ > > $ 9 ",
"x D D S D N 0 . 9 9 9 x O.. x +.C . } X 9 X x C > x 2 c , o o o ",
". ' 9 > @.> #.$.%.%.. 9 &.R # Y Y *.=.w =.8 8 8 } & ; < + < ; 8 ",
"o 9 C x 0 C x H H X x x x S O l ~ 2 8 ^ % : $ o x C C m X 0 D N ",
"& x x 9 A x X X X > 9 9 . 0 r % ; = # < 2 O : ] 0 X X A x x X H ",
": . C X 0 A x C 9 > 9 X 9 A 5 1 2 = < 8 O O -.: 9 ;.X x C > X m ",
"& 8 + : # } + # X.$ $ :.>.' ,.<.1.p a 2.3.3.| 4.: { O.{ # # & m ",
"@ , , , . 5.  , . . #., ..C   $ $ $ . X , , $ $ X 6.A H m A H N ",
"; . > , . & * . c $ . c $ c + $ > $ $ ,   c *   c 9 x x C C 0 m ",
"< 9 . . x : # > o 9 9 > . o 8 > . . 9 o   c o o , . C A 0 A A H ",
"t 8 8 ~ 2 2 = 2 < < < 2 % 8 7.=.; < % *.@ 8.@ & & * X.o * c * , ",
"; # : 8 8 o & 4 t t e 7 9.0.@ + : : r % + < # < 8 o @ c , , , X ",
"= 8 ; 8 8 : < I U 6 5 r r # * & & ; U ; = = + - % q.; o > . , > ",
"- : : : @ * < q e e e 3 4   * * , # g # ; + @ & ; + < . > > 9 X ",
"h e U q 6 6 6 s u i p I a j 6 I I h w.e.<.r.e.e.t.p y.O < % O O "
};
