/* XPM */
static char *_db29537197944e6d040c033ba294564RVhoix2KFEmXOozM[] = {
/* columns rows colors chars-per-pixel */
"32 32 136 2 ",
"   c #433A33",
".  c #483F38",
"X  c #4C433C",
"o  c #544B45",
"O  c #564F49",
"+  c #584F48",
"@  c #5A5047",
"#  c #57524E",
"$  c #5D544C",
"%  c #5B5650",
"&  c #60554E",
"*  c #605751",
"=  c #645B53",
"-  c #695E56",
";  c #655E58",
":  c #685F58",
">  c #6A6057",
",  c #67605A",
"<  c #6C635C",
"1  c #71665E",
"2  c #72685F",
"3  c #6F6A66",
"4  c #706760",
"5  c #746B63",
"6  c #7A6F65",
"7  c #756E68",
"8  c #7A7067",
"9  c #77706A",
"0  c #7D736B",
"q  c #7E7771",
"w  c #81766E",
"e  c #82786F",
"r  c #827771",
"t  c #847B73",
"y  c #897E75",
"u  c #857E78",
"i  c #897F78",
"p  c #8B8077",
"a  c #87807A",
"s  c #8D837C",
"d  c #91877E",
"f  c #92887F",
"g  c #8D8680",
"h  c #958B83",
"j  c #998E85",
"k  c #988F88",
"l  c #9A9087",
"z  c #9D938B",
"x  c #A2968D",
"c  c #A5988E",
"v  c #A89A8F",
"b  c #A09790",
"n  c #A59B92",
"m  c #AA9D93",
"M  c #ACA097",
"N  c #ADA39A",
"B  c #B2A397",
"V  c #B2A59C",
"C  c #B5A89F",
"Z  c #BBAB9E",
"A  c #B0A7A0",
"S  c #B5AAA2",
"D  c #BBAEA5",
"F  c #B9AFA6",
"G  c #B9AEA5",
"H  c #BDAFA4",
"J  c #BCAFA6",
"K  c #BBADA3",
"L  c #BAB0A6",
"P  c #BAB0A7",
"I  c #BFB1A4",
"U  c #BEB0A5",
"Y  c #BFB1A6",
"T  c #BDB0A6",
"R  c #BBB1A8",
"E  c #BEB1A8",
"W  c #BFB1A8",
"Q  c #BCB2A8",
"!  c #BCB2A9",
"~  c #BFB2A9",
"^  c #BDB3AA",
"/  c #BFB5AC",
"(  c #BEB2A9",
")  c #C1B1A2",
"_  c #C0B0A3",
"`  c #C2B0A2",
"'  c #C1B1A4",
"]  c #C0B2A5",
"[  c #C2B2A5",
"{  c #C1B0A6",
"}  c #C1B3A6",
"|  c #C0B2A7",
" . c #C3B3A6",
".. c #C4B2A4",
"X. c #C2B4A7",
"o. c #C4B4A7",
"O. c #C2B2A5",
"+. c #C1B3A8",
"@. c #C0B3AA",
"#. c #C1B3AA",
"$. c #C0B3AB",
"%. c #C1B5A9",
"&. c #C1B4AB",
"*. c #C3B5AA",
"=. c #C5B5A8",
"-. c #C5B4AA",
";. c #C4B6AB",
":. c #C2B5AC",
">. c #C2B5AD",
",. c #C0B6AC",
"<. c #C0B6AD",
"1. c #C1B7AE",
"2. c #C5B7AC",
"3. c #C7B6AC",
"4. c #C4B7AE",
"5. c #C2B5AB",
"6. c #C2B8AE",
"7. c #C5B8AF",
"8. c #C7B9AE",
"9. c #C7BBAF",
"0. c #C4B8AF",
"q. c #C3B9B0",
"w. c #C4BAB1",
"e. c #C6BCB2",
"r. c #C6BBB5",
"t. c #C6BDB6",
"y. c #C5B9B0",
"u. c #C9BBB0",
"i. c #CABDB4",
"p. c #CCBFB6",
"a. c #CABEB5",
"s. c #CAC0B6",
"d. c #CEC1B8",
"f. c #CDC3BA",
"g. c #CEC1B8",
"h. c #D1C3B8",
/* pixels */
"H [ G 1.z 8 ~ 4.N m r 5 z R n Y K &.P 1.S 5 j V N k 0 5 G B m Z ",
"[ K H S l & r s y p 5 1 P V H Y X.K 1.C R s $ 1 > > o z S M &.H ",
"H Y &.N 1 1 < = 0 s @ 1 ~ V H H [ [ ~ G n - p b z z * s S S Y H ",
"_ H x 8 @ S S C H / x 2 V ;.H _ Z 4.C m 5 5 r.P 7.e.S - S 1.K &.",
"B n t @ a P m N B K d.t w u.K H [ K N t & V V N K K s.w w 6.~ C ",
"N j 0 : V m c V Y H ~ C 1 b i.&.n N n 5 y ~ c @.[ @.S S $ z G N ",
"s u < r S x B Z o.H K q.y @ j 8 8 l u 5 V C Y Z H [ &.q.s ; z z ",
"# , X 0 w.n Z ..Z [ [ N 8 # q a 3 % o r V C [ _ [ K G G S o * * ",
"d N z 1 n G H [ H H C z - x 7.H C m N t n ;.Y Z [ H V V c & j z ",
"S S d.f 5 G 4.K Y M V r & C m c C @.1.s e H K 7.K B V j 5 h 1.V ",
"C ~ ~ G 5 y p.S S m k * 5 P m ;.[ Y &.m w j S S S b h 5 w @.m m ",
"[ Y C ~ z > h ~ N b 8 o S G 7.Z _ Z [ &.l 0 z N s r 0 8 N N c Y ",
"Z ;.;.G M $ X 0 8 > X 8 t.G Z [ Z [ K ~ S 0 . < 5 < X $ R V K Y ",
"[ V G N 5 w M s t b n < N 1.Y H H @.Y N b * > N N S m 6 x 1.K H ",
"H Y V r 5 N S B H h.a.r y ~ H I @.V N b a $ m G C B d.x 6 B &.K ",
"H M z 1 e G c S o.B K 1.2 z &.[ K V m j 5 0 / n B @.K 4.f d Y X.",
"b s 7 = m V B H Z [ &.S k 4 h z z h s 5 5 ~ M M _ H K 1.V 0 z S ",
"4 $ X > 1.m Y @.o.K S S z < X o o + O   b S m C [ K @.1.C r $ < ",
"z N x 0 V K Y K [ Y V M y * z h f z h ; h B B &.Z @.H m x w l l ",
"S @.1.d d 1.&.K H B m s $ d P C &.4.P h 5 Y @.K H Y C V e > R V ",
"Y K H S y h 7.Y V m f * 5 R N S @.H G N y z Y H H C m z & f S m ",
"C &.~ ~ j 2 x S N S 0 > N n K [ Z H @.q.l < S 7.G V j 5 < S C C ",
"@.&.G S N 5 > h a i @ s ~ C Z H _ Y H / d X y f s t 8 < N S C ;.",
"K Y C l 0 < ; 9 a 0 o k S V H [ _ Y H m s o 4 l r s t : A ~ K [ ",
"@.K d 0 $ y Y K G 1.c 0 N 1.Y H Y Y n m 5 o R P G @.&.j 0 1.@.Z ",
"C x y * * P V c C ~ K d 0 m 1.H &.m m a   y ~ m m V 1.H 6 p w.Y ",
"S n 5 < S S n v C Y w.m 5 r S q.N N h * < / m m Z [ H &.c y ~ @.",
"h r ; g R n c C &.H ~ C z $ < y t j t ; m C n V [ H H 1.V t k m ",
"5 ; $ r A N m V Y Y ~ S b o 5 i 1 r r 5 N m K [ _ [ ~ ~ C w - w ",
"~ G l < k N m [ K Y H n 0 0 ~ R S 4.G s s S K Y Y C ~ m 5 e C S ",
"m K p.l - M V H ;.K x y 5 m Y m [ &.a.N ; s @.@.~ ~ N w 0 N ~ N ",
"H o.C 1.y y ;.Y G B s 5 y Y m V _ Z K 6.8 = P Y S N f ; l 1.n m "
};
