/* XPM */
static char *a47a5dc0880b4165f3498eecd6835542dcR0H4A0dAgfTl9o[] = {
/* columns rows colors chars-per-pixel */
"32 32 52 1 ",
"  c #0A0606",
". c #140D0D",
"X c #180F0F",
"o c #1B1212",
"O c #221616",
"+ c #251A1A",
"@ c #2B1C1C",
"# c #311F1F",
"$ c #2D2121",
"% c #342222",
"& c #3A2626",
"* c #372828",
"= c #3C2929",
"- c #442C2C",
"; c #492F2F",
": c #463030",
"> c #4C3232",
", c #543636",
"< c #563838",
"1 c #5D3C3C",
"2 c #5E3C3C",
"3 c #5F3C3C",
"4 c #613D3D",
"5 c #653F3F",
"6 c #634040",
"7 c #664141",
"8 c #674545",
"9 c #694343",
"0 c #6B4444",
"q c #6C4545",
"w c #6F4848",
"e c #704747",
"r c #714848",
"t c #744A4A",
"y c #774C4C",
"u c #7B4F4F",
"i c #7C4F4F",
"p c #785050",
"a c #7F5151",
"s c #805252",
"d c #835454",
"f c #845454",
"g c #885656",
"h c #875858",
"j c #8A5959",
"k c #8F5B5B",
"l c #8F5C5C",
"z c #925D5D",
"x c #955F5F",
"c c #996262",
"v c #9E6666",
"b c #A66A6A",
/* pixels */
"%@@++@oo@OOoX@OOOOoO#@@@++++o@#o",
"f74449-;t37,-t3447><e4444447;7q-",
"s43334->r<4>-t3434><03343334:77-",
"d<<334-,q<3>:e<3<4:37<<<<<<3;94-",
"cirq0r,<k9q<,zerrr<0kttrrr0e,uu;",
"&=&%%%+$>-=&@:----%@==-=%%&%+@%o",
"y<<<<<%0<<<<<,<>-5<3;:4<>>4<<<<-",
"f44434-r4444447<<q34<<03<3q3437>",
"s<<<<<-q<<<<<34<<0<3,393,37<<<3;",
"vtrreq:ktrreqqq7qg9q3rfq4rfqqqe<",
">>;:--+><,>>>::-*3>:==<-=%<>---%",
"<-&-@->----%<;;;-&,--%:---=-=-& ",
"f979>q97774<r47443r75<r47777557X",
"s334-9433<<<q<33<<q33,q3333<333X",
"l947>u955543a47547a45<u44445447X",
"t9<3=0y7073:pr086>y73:uw00464<<.",
"&%%%%%+-&=&&&$--==$==%%&%+=%%%%o",
"f77557-r45549:0947<q54444;r475q-",
"a33333-r33334-0734,q33333:q3334-",
"f3<333:t33334-r433<r<3<3<>r<3<4-",
"xiutqq:jarqqr>psqq<hapyrq,kuuty;",
"O@@@+@o+$$$$@++$@++$%$$@+o@@@+O.",
"93<<<<<;,4<<<<<,,:4<,<,<%3<>,,<@",
"t934444<4934444433q34437-774439%",
"t4<<<<3>74<3<333<3q<33<3-03<<<4%",
"kaqeqqq3usqeqqqq90kqqq0e:dr0q9r&",
"-<>:::-%=4,,>>:-:&<<>:-:@,3,,>:O",
"-#%%%%%%%o=%%#@@O-%%%%%%@&%%%%%@",
"k77774794>t57757>r7779773q77979<",
"s3433333<;q33333>q343333<034334,",
"k<<33333<>r<333<>r<33<3<3y<<3<4,",
"bfsaauutr,cfaytu<xfsautt7zfayry4"
};
