/* XPM */
static char *_87234798dba459ce7eebc6f572060975qWgFGo2Uq1Hl6ty[] = {
/* columns rows colors chars-per-pixel */
"32 32 98 2 ",
"   c #0C1C0C",
".  c #102510",
"X  c #122912",
"o  c #122B12",
"O  c #142D14",
"+  c #153015",
"@  c #173517",
"#  c #1B311B",
"$  c #183718",
"%  c #193919",
"&  c #193A19",
"*  c #1A3B1A",
"=  c #1A3C1A",
"-  c #1B3F1B",
";  c gray13",
":  c #2E332E",
">  c gray20",
",  c #303530",
"<  c #373737",
"1  c gray22",
"2  c gray24",
"3  c #1C411C",
"4  c #1F471F",
"5  c #1F481F",
"6  c #204920",
"7  c #204A20",
"8  c #214B21",
"9  c #214C21",
"0  c #224D22",
"q  c #2E422E",
"w  c #294D29",
"e  c #255525",
"r  c #2E572E",
"t  c #285C28",
"y  c #374737",
"u  c #335433",
"i  c #3A5D3A",
"p  c #2B622B",
"a  c #2B632B",
"s  c #2D662D",
"d  c #306430",
"f  c #336F33",
"g  c #386938",
"h  c #386E38",
"j  c #347134",
"k  c #405A40",
"l  c gray32",
"z  c gray33",
"x  c #515F51",
"c  c gray36",
"v  c #416941",
"b  c #436B43",
"n  c #4F634F",
"m  c #4C734C",
"M  c #4D7B4D",
"N  c #546E54",
"B  c #546F54",
"V  c #5E725E",
"C  c #666B66",
"Z  c DimGray",
"A  c #6D6D6D",
"S  c #6D746D",
"D  c #737773",
"F  c gray46",
"G  c #797E79",
"H  c gray49",
"J  c gray50",
"K  c #3A843A",
"L  c #3C893C",
"P  c #3D8A3D",
"I  c #458445",
"U  c #5D845D",
"Y  c #7D837D",
"T  c #7E867E",
"R  c #799F79",
"E  c #818181",
"W  c gray51",
"Q  c #838383",
"!  c gray52",
"~  c #888888",
"^  c #8E8E8E",
"/  c #809480",
"(  c #909090",
")  c #929292",
"_  c #939393",
"`  c #959595",
"'  c #909C90",
"]  c #9A9C9A",
"[  c #A4A4A4",
"{  c #A7AAA7",
"}  c gray66",
"|  c #AAAAAA",
" . c #AFAFAF",
".. c #B1B1B1",
"X. c #B6B6B6",
"o. c #B9B9B9",
"O. c gray75",
"+. c gray77",
/* pixels */
"} } p p 7 7 % % + + ; ; +.+.4 4 c c     4 4 o.o.P P p p e e ....",
"} } p p 7 7 % % + + ; ; +.+.4 4 c c     4 4 o.o.P P p p e e ....",
"o.o.j j ^ ^ w w z z ' ' U U P P 4 4 A A [ [ } } h h O O  . .Z Z ",
"o.o.j j ^ ^ w w z z ' ' U U P P 4 4 A A [ [ } } h h O O  . .Z Z ",
"J J d d ! ! : : 5 5 m m } } s s > > % % Q Q J J C C , , { { ` ` ",
"J J d d ! ! : : 5 5 m m } } s s > > % % Q Q J J C C , , { { ` ` ",
") ) D D X X 3 3 R R 9 9 T T J J 1 1 4 4 4 4 c c x x l l ! ! Q Q ",
") ) D D X X 3 3 R R 9 9 T T J J 1 1 4 4 4 4 c c x x l l ! ! Q Q ",
"$ $ q q ) ) V V / / Q Q G G 2 2 4 4 I I Y Y t t @ @ y y i i J J ",
"$ $ q q ) ) V V / / Q Q G G 2 2 4 4 I I Y Y t t @ @ y y i i J J ",
"9 9 X.X.) ) k k v v ~ ~ J J X X K K O.O.S S M M N N ~ ~ - - 1 1 ",
"9 9 X.X.) ) k k v v ~ ~ J J X X K K O.O.S S M M N N ~ ~ - - 1 1 ",
"4 4 n n v v u u r r # # 1 1 7 7 9 9 f f ] ] g g F F J J N N 4 4 ",
"4 4 n n v v u u r r # # 1 1 7 7 9 9 f f ] ] g g F F J J N N 4 4 ",
"P P J J . . 3 3 K K ....4 4 - - 7 7 % % < < ~ ~ J J 1 1 9 9 4 4 ",
"P P J J . . 3 3 K K ....4 4 - - 7 7 % % < < ~ ~ J J 1 1 9 9 4 4 ",
"c c     4 4 o.o.P P p p e e ....} } p p 7 7 % % + + ; ; +.+.4 4 ",
"c c     4 4 o.o.P P p p e e ....} } p p 7 7 % % + + ; ; +.+.4 4 ",
"4 4 A A [ [ } } h h O O  . .Z Z o.o.j j ^ ^ w w z z ' ' U U P P ",
"4 4 A A [ [ } } h h O O  . .Z Z o.o.j j ^ ^ w w z z ' ' U U P P ",
"> > % % Q Q J J C C , , { { ` ` J J d d ! ! : : 5 5 m m } } s s ",
"> > % % Q Q J J C C , , { { ` ` J J d d ! ! : : 5 5 m m } } s s ",
"1 1 4 4 4 4 c c x x l l ! ! Q Q ) ) D D X X 3 3 R R 9 9 T T J J ",
"1 1 4 4 4 4 c c x x l l ! ! Q Q ) ) D D X X 3 3 R R 9 9 T T J J ",
"4 4 I I Y Y t t @ @ y y i i J J $ $ q q ) ) V V / / Q Q G G 2 2 ",
"4 4 I I Y Y t t @ @ y y i i J J $ $ q q ) ) V V / / Q Q G G 2 2 ",
"K K O.O.S S M M N N ~ ~ - - 1 1 9 9 X.X.) ) k k v v ~ ~ J J X X ",
"K K O.O.S S M M N N ~ ~ - - 1 1 9 9 X.X.) ) k k v v ~ ~ J J X X ",
"9 9 f f ] ] g g F F J J N N 4 4 4 4 n n v v u u r r # # 1 1 7 7 ",
"9 9 f f ] ] g g F F J J N N 4 4 4 4 n n v v u u r r # # 1 1 7 7 ",
"7 7 % % < < ~ ~ J J 1 1 9 9 4 4 P P J J . . 3 3 K K ....4 4 - - ",
"7 7 % % < < ~ ~ J J 1 1 9 9 4 4 P P J J . . 3 3 K K ....4 4 - - "
};
