/* XPM */
static char *c76918e1318646fbe2f538febbc3e29ftbHfa12YHIBYG5qv[] = {
/* columns rows colors chars-per-pixel */
"32 32 73 1 ",
"  c #392F26",
". c #3B3127",
"X c #3F352C",
"o c #42382F",
"O c #463B32",
"+ c #493E34",
"@ c #4C4137",
"# c #4E4339",
"$ c #51463B",
"% c #54493E",
"& c #564B40",
"* c #594E43",
"= c #5D5146",
"- c #5F5348",
"; c #605347",
": c #62554A",
"> c #66594D",
", c #695B4F",
"< c #675C50",
"1 c #6A5D51",
"2 c #6D6154",
"3 c #716456",
"4 c #736659",
"5 c #76695B",
"6 c #796B5E",
"7 c #7C6E61",
"8 c #7E7163",
"9 c #827365",
"0 c #847569",
"q c #87786A",
"w c #8B7C6D",
"e c #8E7F71",
"r c #8F8072",
"t c #948474",
"y c #998876",
"u c #978878",
"i c #9B8B7A",
"p c #9C8C7D",
"a c #A08F7D",
"s c #A1907F",
"d c #A39280",
"f c #A49381",
"g c #A69582",
"h c #A69584",
"j c #A89683",
"k c #A89786",
"l c #A99887",
"z c #AC9A87",
"x c #AE9C87",
"c c #AB9B8A",
"v c #AD9B89",
"b c #AE9C89",
"n c #AF9E8B",
"m c #B29F8A",
"M c #B09F8C",
"N c #B2A08D",
"B c #B2A08E",
"V c #B4A18C",
"C c #B4A28D",
"Z c #B6A48F",
"A c #B8A58F",
"S c #B2A193",
"D c #B5A391",
"F c #B9A691",
"G c #BCA994",
"H c #BFAC97",
"J c #BEAB99",
"K c #BEAC98",
"L c #C2AF9A",
"P c #C5B19C",
"I c #C8B49D",
"U c #C6B3A1",
"Y c #CAB6A0",
/* pixels */
"fi59004iu7:3,35%7iuy2;wtq4899e5y",
"gmCwlFw86w62p98%0dgCGuwit2CAZJvw",
"<664t0>yu&4wbs:.$*<9ui<0uw48wrq$",
"zw>hKk8u0ww$**=,5w>161uGCb:&#%#w",
"ta4yaw0y9kl<9uw*0zBSDl7985pK5wu,",
"<5o&<o*334<=*74::=<9rw8cp6Cp7ij=",
"bu%>4<S074554w4:60-+->aCl66:+<23",
"62=$=uYLB2p9yuw<mYLbp$2qq>:uq749",
"r4%9;9lppuYs$>:owxlbC9:=5=3GGGb>",
"Pd@2=2ut9:ifqSF6,5wre:7lHz;5wq67",
"uy:hD-<55#1w7jC1<::<-%DZfy=o4%q5",
"--@yGt+:w0=2:yu,2>5=>6tw5:%wcu9+",
"=&,9ps>5aw6<%qw<10kl3o+><,*kbBg#",
"PD*=85>wglBy+25*,lgl8#pKM9+*<:&%",
"uba2$$7-4905>:*3><7<>yPACl::iw9:",
":8yp;wUr$72=0<#>%6p><2084=Owbzl5",
"3=<>49blu51DLGb=>gcw-+63#@9>=>-#",
"h$3u>&442>=yuuy>3yphv9:rdSwo3d:0",
"Ip3mk3*&@5%O%<>+%<%:2=5Flfi=vP>6",
"gz:<pm,wBvy6%=w44p,-+3=&=*<8Bw%4",
"07<%-6=6yidf69L>wGBbq290he12w2t5",
"$O*:o45O#@&9=wu349<:#9Cgpy<X&#:O",
"O6lSf52bBt,4*<-:69$#7&&47#&56ut:",
":st41*6Zgklu+O=>2MG9>o:ypw,*9ww>",
".+*@ww21<22-*hJ3lCmb7ObLFB1%4-:,",
"uue2qgw# <=$bFi:w7<:-*2w8*>vFDw9",
"GBbbp>2qyw:=pq-3%O$6<6w8$+9w65%3",
"4>--:$vGzfq4u&2>6MCGgwCZttLw&=0=",
"4#8=o>256-#>9=7>5t042$2856wis4$:",
"6:<5w6o$0%tJGz<@>*>qu3$$:727=#>6",
"Bf:9Dvt4&,Msut5$wDCzuw$wMDBp=<FF",
":*3=><<:$=3<4-#4,2::96$*35<O>>=>"
};
