/* XPM */
static char *d418d9c30ebc4abbf4fa03b4b1d83eb5oxyjVKEvDlsTwHVi[] = {
/* columns rows colors chars-per-pixel */
"32 32 210 2 ",
"   c #020202",
".  c #0B0201",
"X  c #030A01",
"o  c #0B0B01",
"O  c #02020A",
"+  c #0B020B",
"@  c #0F0E0A",
"#  c #140201",
"$  c #1C0102",
"%  c #140D02",
"&  c #180A00",
"*  c #1E010C",
"=  c #120D0A",
"-  c #1B0909",
";  c #15010A",
":  c #051200",
">  c #0D1300",
",  c #0A1809",
"<  c #111201",
"1  c #1D1201",
"2  c #161906",
"3  c #1B1A02",
"4  c #1B1D08",
"5  c #000110",
"6  c #1F0A13",
"7  c #240203",
"8  c #2B0202",
"9  c #200804",
"0  c #2E0807",
"q  c #23020A",
"w  c #2B0109",
"e  c #2B080C",
"r  c #340101",
"t  c #3B0101",
"y  c #35030A",
"u  c #3D010A",
"i  c #3D0B02",
"p  c #221402",
"a  c #281204",
"s  c #261B00",
"d  c #331201",
"f  c #2B0412",
"g  c #2E0B11",
"h  c #340613",
"j  c #1F2302",
"k  c #262207",
"l  c #292907",
"z  c #29240A",
"x  c #332401",
"c  c #322800",
"v  c #362907",
"b  c #2D3209",
"n  c #430101",
"m  c #4C0101",
"M  c #410009",
"N  c #4F000C",
"B  c #530201",
"V  c #5B0101",
"C  c #5A0900",
"Z  c #52000B",
"A  c #5C0209",
"S  c #4B0213",
"D  c #4A0D15",
"F  c #540212",
"G  c #640101",
"H  c #6B0001",
"J  c #62040A",
"K  c #6E010C",
"L  c #750100",
"P  c #7D0201",
"I  c #463200",
"U  c #403905",
"Y  c #4B3B00",
"T  c #413609",
"R  c #493F0C",
"E  c #553C00",
"W  c #583F05",
"Q  c #444000",
"!  c #5A4401",
"~  c #574F00",
"^  c #5E440C",
"/  c #5A5803",
"(  c #674F00",
")  c #6F4E09",
"_  c #674203",
"`  c #665100",
"'  c #6E5000",
"]  c #755301",
"[  c #715800",
"{  c #7B5F00",
"}  c #7A520C",
"|  c #71550C",
" . c #795718",
".. c #840201",
"X. c #8C0101",
"o. c #850A01",
"O. c #8E0800",
"+. c #8C010B",
"@. c #880B09",
"#. c #930201",
"$. c #9B0101",
"%. c #940B02",
"&. c #93020A",
"*. c #9D030A",
"=. c #9D0B0E",
"-. c #A40101",
";. c #AA0201",
":. c #A70B00",
">. c #A5010B",
",. c #AD010D",
"<. c #AB0809",
"1. c #B40202",
"2. c #BB0102",
"3. c #B2000B",
"4. c #BA000B",
"5. c #B00A0C",
"6. c #AB0010",
"7. c #A50811",
"8. c #B40212",
"9. c #B80312",
"0. c #C40201",
"q. c #CD0202",
"w. c #C90800",
"e. c #CA0109",
"r. c #D30102",
"t. c #DC0201",
"y. c #D20900",
"u. c #DB0D00",
"i. c #D3020C",
"p. c #DB020C",
"a. c #CD0512",
"s. c #D10010",
"d. c #E40102",
"f. c #EA0000",
"g. c #EC0100",
"h. c #EC0000",
"j. c #EF0000",
"k. c #EC0200",
"l. c #EF0002",
"z. c #EA0205",
"x. c #EF0006",
"c. c #EA0603",
"v. c #E50800",
"b. c #E60109",
"n. c #E4010B",
"m. c #E9010E",
"M. c #EC0409",
"N. c #F00001",
"B. c #F20005",
"V. c #F6000A",
"C. c #F9000E",
"Z. c #E90011",
"A. c #8B5002",
"S. c #9A5507",
"D. c #806106",
"F. c #876C00",
"G. c #8D6D02",
"H. c #856309",
"J. c #9A6108",
"K. c #9E6C0B",
"L. c #887500",
"P. c #9A7302",
"I. c #957B00",
"U. c #9C7C03",
"Y. c #9E790F",
"T. c #8E6A1C",
"R. c #A46F01",
"E. c #AE6D07",
"W. c #A27200",
"Q. c #A37B02",
"!. c #AA7308",
"~. c #B27E00",
"^. c #B0750F",
"/. c #BA7B0A",
"(. c #B97810",
"). c #9F8100",
"_. c #AD8100",
"`. c #AE8900",
"'. c #A98209",
"]. c #B48400",
"[. c #BB8301",
"{. c #B68F02",
"}. c #BB8E00",
"|. c #B08208",
" X c #B9870C",
".X c #BD8E0A",
"XX c #AB9001",
"oX c #BC9102",
"OX c #BE9709",
"+X c #B88F11",
"@X c #C48400",
"#X c #C48C01",
"$X c #CB8C02",
"%X c #C68D08",
"&X c #CC8D0C",
"*X c #C88607",
"=X c #C49201",
"-X c #CB9203",
";X c #C99B00",
":X c #C2940A",
">X c #D59500",
",X c #DD9601",
"<X c #D09807",
"1X c #CA8913",
"2X c #CC9D1B",
"3X c #D0A202",
"4X c #DEA600",
"5X c #DDA60B",
"6X c #CDA215",
"7X c #E4A206",
/* pixels */
"O O O         O                                 +     .     .   ",
"  . r r m V B B m B B B B B B B B B B B B B B B B V V m n 8 .   ",
"  t 4.2.i.r.e.q.d.d.f.f.l.l.l.f.l.l.l.l.l.l.l.l.y.d.d.t.p.9.Z   ",
"  8 4.;.0.0.t.t.d.d.f.l.l.l.N.N.l.l.l.l.l.l.l.l.B.x.d.r.r.0.V   ",
"+ r ;.1.r.e.x.t.t.t.d.z.z.z.z.f.z.z.z.z.z.z.z.z.f.V.m.r.q.1.B   ",
"  r ;.0.3.&.q.t.d.d.d.f.f.l.l.l.f.f.f.f.f.f.f.f.d.d.1.:.r.2.n O ",
"  r ;.;.m 8 ..p.t.t.d.z.d.d.d.d.d.d.d.d.d.d.d.d.M.-.t n 2.0.B . ",
"O 8 ;.,.8   7 X.t.t.d.d.d.d.d.d.d.d.d.d.d.d.d.d.*.t   $ 7.1.m   ",
"  t -.-.f o d + o.r.C.t.d.f.t.d.N.t.c.d.r.V.d.;.* s 4 $ -.4.B   ",
"O 8 $.;.7 b T.x ; ;.r.t.z.d.m.d.b.z.t.b.n.t.1.q a L.Y 7 -.-.m + ",
"  0 -.;.$ c $XW.d q &.d.t.Z.d.p.p.t.z.d.c.,.r 1 !.4XE q -.-.F   ",
"  8 >.-.6 l @X2XU.z # %.c.d.t.t.r.f.d.v.-.$ j I.5X<XR & -.,.S   ",
"+ 8 >.-.$ x $X-X3XE.v * X.r.r.t.q.t.t.#.$ k !.7X4X>X! # -.;.n O ",
"  r *.-.7 s Q.'.~.}.J.1 $ *.p.n.M.i.,.r : D.#X@X+X`.U # <.;.n   ",
"  t X.O.8   p < , 3 < o O t 2.r.r.0.n O o : 2 2 1 p   # $.$.Z   ",
"  r *.$.G m B B G B G V V %.0.d.t.q.$.V G K B G B G J G -.=.n O ",
"  r X.>.1.0.5.0.0.q.s.q.r.u.q.d.t.r.d.p.4.w.r.p.t.a.r.q.8.#.m O ",
"  e #.-.$.$.#.1.0.q.d.0.,.3.;.1.1.-.3.;.w.d.t.q.0.>.-.;.;.$.m   ",
"O 8 $.o.8 # # 8 $.0.;.r ; # . o . X . # r -.r.1.r # . 9 ..-.M   ",
"X 8 $.V O T ^ - u 3.J o W [ } ] ) ] ' _ @ F 2.V o ^ W   V ;.n   ",
"  y $.V X H.].` X Z # Y $X;X6X;XOX3X>X$X/ . B O ! -X].> m $.t   ",
"  * P V # ] _.`.I   3 P.,X&X.X>X,X=X-X>X'.v   z (.=XQ.< A -.u O ",
". g ..B #  .|.[.S.s } #X;X-X#X%X#X=X=X:X*XK.p A.%X-X^.% n $.i   ",
"  7 ..B   ] ]./.XXG./.%XOX#X%X( E  X#XoX>X%XF.oX=X;X!.o D -.n O ",
"  8 X.V . | _.(.{.[.#X{.=X*X_ o O Y ].-X#X&X-X=X$X1XY.> Z $.n   ",
"  $ ..B . ! G.K.G.P.R.R.U.~ & w n $ Q G.W.Q.U.P.Q.W.{ > B #.y   ",
"X 7 P B O = > o 9 % % % > . t >.8.m . < p > X - : = 1   F X.u   ",
"  7 P L Z Z m N S n C B n G #.-.;.O.G B A V B A B V V V ..$.u   ",
"O * K P P X.#.$.o.$.$.$.*.-.$.@.&.#.$.=.*.-.;.$.,.6.-.#.$...y   ",
". 8 V H L L L L ..+.+...O.X...X.$.#...X.X.X.&.#.X.X.X.X...H r . ",
"5 O - 7 q 7 7 0 r 8 8 8 8 8 h y 8 g w r n 8 8 r r 8 8 8 8 9 .   ",
"        O       +     O + .     O     + O     .     X O O     O "
};
