/* XPM */
static char *_ca55325739c458fe9020e1a23fa9b30MSzhRFXHaNUyrb9T[] = {
/* columns rows colors chars-per-pixel */
"320 320 256 2 ",
"   c #080F11",
".  c #111D23",
"X  c #1B2728",
"o  c #192933",
"O  c #232D29",
"+  c #2B352D",
"@  c #27332C",
"#  c #242E32",
"$  c #2A3533",
"%  c #2E3932",
"&  c #2D3A3B",
"*  c #283335",
"=  c #323C34",
"-  c #333D3B",
";  c #383D38",
":  c #30382F",
">  c #1A241E",
",  c #35413C",
"<  c #3A443C",
"1  c #374338",
"2  c #304339",
"3  c #4C5C36",
"4  c #1C394C",
"5  c #1E3D52",
"6  c #1D3B59",
"7  c #102757",
"8  c #253C4A",
"9  c #223E53",
"0  c #283E55",
"q  c #333D44",
"w  c #092974",
"e  c #021E77",
"r  c #29434B",
"t  c #354343",
"y  c #3A4543",
"u  c #3D4944",
"i  c #39494B",
"p  c #254254",
"a  c #2A4555",
"s  c #2D4956",
"d  c #254459",
"f  c #2A465A",
"g  c #2D4A5B",
"h  c #274859",
"j  c #324C5C",
"k  c #354A57",
"l  c #34515E",
"z  c #3B525B",
"x  c #355255",
"c  c #2D4C61",
"v  c #334D61",
"b  c #384D63",
"n  c #345263",
"m  c #3B5464",
"M  c #3C5B6B",
"N  c #3A5768",
"B  c #3D5D71",
"V  c #2B526C",
"C  c #3D6273",
"Z  c #214454",
"A  c #424D4B",
"S  c #424C45",
"D  c #47534C",
"F  c #495655",
"G  c #525C59",
"H  c #444E54",
"J  c #58635C",
"K  c #4C6854",
"L  c #435C6B",
"P  c #4A5D6C",
"I  c #445765",
"U  c #455E72",
"Y  c #525C65",
"T  c #48626D",
"R  c #586567",
"E  c #436374",
"W  c #44667A",
"Q  c #46697D",
"!  c #4A6B7C",
"~  c #4B6575",
"^  c #556977",
"/  c #57727C",
"(  c #4E7278",
")  c #677578",
"_  c #67706E",
"`  c #657158",
"'  c #748978",
"]  c #6F8460",
"[  c #B2B36D",
"{  c #A0A55C",
"}  c #C6B962",
"|  c #D1CD71",
" . c #F1E874",
".. c #DDD45F",
"X. c #BFB842",
"o. c #011C89",
"O. c #011E92",
"+. c #04248A",
"@. c #022697",
"#. c #0C348E",
"$. c #0536A9",
"%. c #0734AB",
"&. c #0859B8",
"*. c #114FB3",
"=. c #1365B7",
"-. c #2E6AB8",
";. c #23539D",
":. c #4B6D82",
">. c #466980",
",. c #4D7286",
"<. c #537383",
"1. c #5C7A85",
"2. c #597888",
"3. c #56778E",
"4. c #647A87",
"5. c #717D89",
"6. c #477EAD",
"7. c #497FAE",
"8. c #4673AB",
"9. c #4E76B6",
"0. c #5770A3",
"q. c #0F55C8",
"w. c #2756CB",
"e. c #1766C8",
"r. c #1468CF",
"t. c #276AC8",
"y. c #3776C9",
"u. c #2976D8",
"i. c #3878D7",
"p. c #2D6ECD",
"a. c #3178E4",
"s. c #1B6CE3",
"d. c #457CD7",
"f. c #497ACA",
"g. c #4A7BE3",
"h. c #103AC0",
"j. c #5C8398",
"k. c #5A868F",
"l. c #66838B",
"z. c #678798",
"x. c #758A96",
"c. c #758F90",
"v. c #4980AF",
"b. c #4A85AE",
"n. c #5588AB",
"m. c #4C84B3",
"M. c #4E8AB6",
"N. c #5186B5",
"B. c #5286B3",
"V. c #5188B7",
"C. c #5289B6",
"Z. c #548CB9",
"A. c #598FBC",
"S. c #5687B8",
"D. c #5691BC",
"F. c #5C93BD",
"G. c #5B95B7",
"H. c #5794AE",
"J. c #678BA4",
"K. c #7697A6",
"L. c #6195BD",
"P. c #639ABD",
"I. c #6798B7",
"U. c #6B92B1",
"Y. c #69A2BB",
"T. c #79A4B5",
"R. c #7BA09A",
"E. c #3983DF",
"W. c #4A87C8",
"Q. c #5789C7",
"!. c #5C94C4",
"~. c #4983D8",
"^. c #5789DA",
"/. c #5894D5",
"(. c #6196C1",
"). c #649BC2",
"_. c #699EC4",
"`. c #689ACA",
"'. c #6895D8",
"]. c #7799D8",
"[. c #6B90CC",
"{. c #6CA2C5",
"}. c #6DA4C9",
"|. c #6AA5C5",
" X c #73A5C6",
".X c #7BABC6",
"XX c #73A6C9",
"oX c #76A9CA",
"OX c #7BACCC",
"+X c #78A8C7",
"@X c #7EB1CD",
"#X c #7EB1C7",
"$X c #7BABD3",
"%X c #7FB0D0",
"&X c #68A3D8",
"*X c #598CE3",
"=X c #4C89E7",
"-X c #6B96E4",
";X c #74A5E5",
":X c #8A9494",
">X c #92A891",
",X c #ACB590",
"<X c #899AA8",
"1X c #9AB3BC",
"2X c #90A8B3",
"3X c #A8B8BB",
"4X c #ACB3AE",
"5X c #A19EA1",
"6X c #B8C3B3",
"7X c #B8C493",
"8X c #CFCF92",
"9X c #F6ED8C",
"0X c #CECFB0",
"qX c #EBE6AD",
"wX c #E6DB97",
"eX c #859DD0",
"rX c #81AECC",
"tX c #84A9C6",
"yX c #84B3CD",
"uX c #8AB6CD",
"iX c #8DB9CE",
"pX c #82B2C4",
"aX c #93BBCE",
"sX c #9BBECE",
"dX c #97B6C8",
"fX c #86A9D6",
"gX c #84B3D0",
"hX c #8AB6D0",
"jX c #8DB9D1",
"kX c #93BBD2",
"lX c #9ABED2",
"zX c #99B3D6",
"xX c #96AAD1",
"cX c #ABBDC4",
"vX c #A7BBC7",
"bX c #AAB9CF",
"nX c #8CA9E4",
"mX c #A3B2E6",
"MX c #9EC1CE",
"NX c #9CC1D2",
"BX c #97C0D4",
"VX c #ACC1C6",
"CX c #A4C3CD",
"ZX c #ACC5CC",
"AX c #A9C6CA",
"SX c #B0C4CA",
"DX c #B4C4C8",
"FX c #A3C4D1",
"GX c #A9C6D0",
"HX c #ADC9D2",
"JX c #B4CAD4",
"KX c #BAD2DA",
"LX c #B4C9EC",
"PX c #DDE2DD",
"IX c #C1BCAB",
"UX c #827E6E",
/* pixels */
"(.A.B.7.7.m.N.N.m.m.m.m.m.m.m.m.m.m.m.m.m.m.m.m.m.m.m.m.m.m.m.m.v.v.m.m.m.m.m.v.7.7.7.7.v.m.m.m.7.v.v.v.7.7.7.v.v.v.v.v.7.7.7.v.v.v.v.v.v.v.v.v.v.v.v.v.7.7.7.v.7.7.7.7.7.7.7.7.7.7.7.7.7.7.7.7.v.v.v.v.v.v.v.v.7.7.7.7.7.7.7.7.7.7.7.7.6.6.6.6.6.6.6.6.7.7.7.7.6.6.6.6.6.6.6.6.6.6.6.6.6.6.6.6.6.7.7.7.7.v.v.v.7.7.7.7.7.7.7.7.7.7.7.7.7.7.7.7.7.7.7.7.7.7.7.7.v.v.7.7.7.7.7.7.7.7.7.7.7.7.7.7.v.v.v.v.v.v.v.v.v.v.v.v.v.7.7.7.7.7.7.7.7.7.7.7.7.7.7.7.7.7.7.7.7.7.7.7.7.7.7.7.7.7.7.7.7.7.7.7.7.7.7.7.7.6.6.6.6.6.7.7.7.6.6.6.6.6.6.6.6.6.6.6.6.6.6.6.7.7.7.7.7.6.6.6.6.6.7.7.6.6.6.6.6.6.7.6.6.6.6.6.6.6.6.6.6.6.7.7.6.6.6.6.6.6.6.6.6.6.7.6.6.6.6.6.6.6.6.6.",
"m.7.7.7.7.m.m.7.m.m.m.m.m.m.m.m.m.m.m.m.m.m.m.m.m.m.m.m.m.m.m.m.v.v.m.v.m.m.m.m.7.7.7.7.v.m.m.m.7.v.v.v.7.7.v.v.v.v.v.v.7.7.7.v.v.v.v.v.v.v.v.v.v.v.v.v.7.v.v.v.7.7.7.7.7.7.7.7.7.7.7.7.7.7.7.7.v.v.v.v.v.v.v.v.7.7.7.7.7.7.7.7.7.7.7.7.6.6.6.6.6.6.6.6.7.7.7.7.7.7.7.7.7.7.7.7.7.7.7.7.7.7.7.7.7.7.7.7.7.v.v.v.7.7.7.7.7.7.6.7.7.7.7.7.7.7.7.7.7.7.7.7.7.7.7.7.v.v.7.7.7.7.7.7.7.7.7.7.7.7.7.7.v.v.v.v.v.v.v.v.v.v.v.v.v.7.7.7.7.7.7.7.7.7.7.7.7.7.7.7.7.7.7.7.7.7.7.7.7.7.7.7.7.7.7.7.7.7.7.7.7.7.7.7.7.7.6.6.6.6.7.7.6.6.6.6.6.6.6.6.6.6.7.7.6.6.6.6.7.7.7.7.7.7.6.6.6.6.7.7.6.6.6.6.6.6.7.7.6.6.6.6.7.7.6.6.6.6.7.7.6.6.6.6.6.6.6.6.6.6.7.7.6.6.6.6.7.7.6.6.",
"6.6.6.7.m.m.m.m.m.m.m.m.m.m.m.m.m.m.m.m.m.m.m.m.m.m.m.m.m.m.m.m.v.v.v.v.v.v.v.v.7.7.7.7.v.m.m.m.v.v.v.v.v.v.v.v.v.v.v.v.7.7.7.v.v.v.7.7.v.v.v.v.v.v.v.v.v.v.v.v.7.7.7.7.7.7.7.7.7.7.7.7.7.7.7.7.v.v.v.v.v.v.v.v.7.7.7.7.7.7.7.7.6.6.6.6.6.6.6.6.6.6.6.6.6.6.6.6.7.7.7.7.7.7.7.7.7.7.7.7.7.7.7.7.6.7.7.7.7.v.v.7.7.7.7.7.6.6.6.6.7.7.7.7.7.7.7.7.7.7.7.7.7.7.7.7.v.v.7.7.7.7.7.7.7.7.7.7.7.7.7.7.v.v.v.v.v.v.v.v.v.v.v.v.v.7.7.7.7.7.7.7.7.7.7.7.7.7.7.7.7.7.7.7.7.7.7.7.7.7.7.7.7.7.7.7.7.7.7.7.7.7.7.7.7.7.7.7.6.6.6.7.6.6.6.6.7.7.7.7.6.7.7.7.7.7.6.6.7.7.7.7.6.6.6.6.6.6.7.7.7.7.7.7.6.6.7.7.7.6.6.6.7.7.7.7.6.6.6.7.6.6.6.6.7.7.7.7.6.6.7.7.7.6.6.6.7.7.7.7.",
"7.7.7.7.7.m.m.B.m.m.m.m.m.m.m.m.m.m.m.m.m.m.m.m.m.m.m.m.m.m.m.m.m.m.m.m.m.m.m.m.7.7.7.7.v.m.m.m.v.v.v.v.v.v.v.v.v.v.v.v.7.7.7.v.v.v.7.7.v.v.v.v.v.v.v.v.v.v.v.v.7.7.7.7.7.7.7.7.7.7.7.7.7.7.7.7.v.v.v.v.v.v.v.v.7.7.7.7.7.7.7.7.7.7.7.7.6.6.6.6.7.7.6.6.7.7.7.7.7.7.7.7.7.7.7.7.7.7.7.7.7.7.7.7.7.7.7.7.v.v.v.7.7.7.7.7.7.7.7.7.v.v.v.v.v.v.v.v.v.v.v.v.v.v.v.v.v.v.7.7.7.7.7.7.7.7.7.7.7.7.7.7.v.v.v.v.v.v.v.v.v.v.v.v.v.7.7.7.7.7.7.7.7.7.7.7.7.7.7.7.7.7.7.7.7.7.7.7.7.7.7.7.7.7.7.7.7.7.7.7.6.7.7.7.7.7.7.7.6.6.6.6.6.6.6.6.7.7.7.7.6.6.7.7.7.7.7.7.7.7.7.7.6.6.6.6.6.6.6.7.7.7.7.7.6.6.7.7.7.6.6.6.7.7.7.7.6.6.6.7.7.6.6.6.7.7.7.7.6.6.7.7.7.6.6.6.7.7.7.7.",
"m.7.7.6.6.7.7.m.m.m.m.m.m.m.m.m.m.m.m.m.m.m.m.m.m.m.m.m.m.m.m.m.m.m.m.m.m.m.m.m.7.7.7.7.v.v.v.v.m.m.v.v.v.v.m.m.v.v.v.v.m.m.m.m.v.v.v.v.m.m.v.v.m.m.v.v.v.v.m.m.7.7.7.7.7.7.7.7.7.7.7.7.7.7.7.7.v.v.v.v.v.v.v.v.7.7.7.7.7.7.7.7.7.7.7.7.7.7.7.7.7.7.7.7.7.7.7.7.7.7.7.7.7.7.7.7.7.7.7.7.7.7.7.7.7.7.7.v.v.v.7.7.7.7.7.7.7.7.7.7.v.v.v.v.v.v.v.v.v.v.v.v.v.v.v.v.v.v.v.7.7.7.7.7.7.7.7.7.7.7.7.7.v.v.v.v.v.v.v.v.v.v.v.v.v.7.7.7.7.7.7.7.7.7.7.7.7.7.7.7.7.7.7.7.7.7.7.7.7.7.7.7.7.7.7.7.7.7.7.7.6.6.7.7.7.7.6.6.7.7.7.7.7.7.7.7.7.7.7.7.7.7.7.7.7.7.7.7.7.7.7.7.7.7.7.7.6.6.6.6.7.7.7.7.7.7.7.7.7.7.6.6.7.7.7.7.7.7.7.7.7.7.7.7.7.7.7.7.7.7.7.7.7.7.6.6.7.7.7.7.",
"7.7.7.7.7.7.7.7.m.m.m.m.v.v.v.v.m.m.m.m.m.m.m.m.m.m.m.m.m.m.m.m.m.m.m.m.m.m.m.m.v.m.v.v.m.v.v.v.m.m.v.v.v.v.m.m.m.v.v.v.m.m.m.m.v.v.v.v.m.v.v.v.m.m.v.m.v.v.m.m.v.v.v.v.v.v.v.v.v.v.v.v.v.v.v.v.v.v.v.v.v.v.v.v.7.7.7.7.7.7.7.7.v.v.v.v.v.v.v.v.7.v.v.v.v.v.v.v.7.7.7.7.7.7.7.7.7.7.7.7.7.7.7.7.7.7.v.v.v.v.7.7.7.7.7.7.7.7.7.7.v.v.v.v.v.v.v.v.v.v.v.v.v.v.v.v.v.v.v.v.7.7.7.7.7.7.7.7.7.7.7.7.v.v.v.v.v.v.v.v.v.v.v.v.v.7.7.7.7.7.7.7.7.7.7.7.7.7.7.7.7.7.7.7.7.7.7.7.7.7.7.7.7.7.7.7.7.7.7.7.7.7.7.7.7.7.7.7.7.7.7.7.7.7.7.7.7.7.7.7.7.7.7.7.7.7.7.7.7.7.7.7.7.7.7.7.7.7.7.7.7.7.7.7.7.7.7.7.7.7.7.7.7.7.7.7.7.7.7.7.7.7.7.7.7.7.7.7.7.7.7.7.7.7.7.7.7.7.7.7.",
"7.7.m.m.m.m.m.m.v.v.m.m.m.v.v.v.m.m.m.m.m.m.m.m.m.m.m.m.m.m.m.m.m.m.m.m.m.m.m.m.m.m.m.m.m.m.v.v.m.m.m.m.v.v.v.m.m.m.v.v.m.m.m.m.m.v.m.m.m.m.v.v.m.m.m.m.v.v.v.m.v.v.v.v.v.v.v.v.v.v.v.v.v.v.v.v.v.v.v.v.v.v.v.v.v.v.v.v.v.v.v.v.7.7.7.7.7.7.7.7.7.7.7.7.7.7.7.7.7.v.v.v.v.v.v.v.v.v.v.v.v.v.7.7.7.v.v.v.v.v.7.7.7.7.7.7.7.7.7.7.v.v.v.v.v.v.v.v.v.v.v.v.v.v.v.v.v.v.v.v.v.7.7.7.7.7.7.7.7.7.7.7.v.v.v.v.v.v.v.v.v.v.v.v.v.7.7.7.7.7.7.7.7.7.7.7.7.7.7.7.7.7.7.7.7.7.7.7.7.7.7.7.7.7.7.7.7.7.7.7.7.7.7.7.7.7.7.7.7.7.7.7.7.7.7.7.7.7.7.7.7.7.7.7.7.7.7.7.7.7.7.7.7.7.7.7.7.7.7.7.7.7.7.7.7.7.7.7.7.7.7.7.7.7.7.7.7.7.7.7.7.7.7.7.7.7.7.7.7.7.7.7.7.7.7.7.7.7.7.7.",
"7.7.7.7.7.v.m.m.v.v.m.m.m.v.v.v.m.m.m.m.m.m.m.m.m.m.m.m.m.m.m.m.m.m.m.m.m.m.m.m.m.m.m.m.m.m.v.v.m.m.m.m.v.v.m.m.m.m.v.v.v.m.m.m.m.m.m.m.m.m.v.v.m.m.m.m.v.v.v.m.v.v.v.v.v.v.v.v.v.v.v.v.v.v.v.v.v.v.v.v.v.v.v.v.v.v.v.v.v.v.v.v.7.7.7.7.7.7.7.7.7.7.7.7.7.7.7.7.v.v.m.m.m.m.m.m.m.m.m.m.m.m.v.v.v.v.v.v.v.v.7.7.7.7.7.7.7.7.7.7.v.v.v.v.v.v.v.v.v.v.v.v.v.v.v.v.v.v.v.v.v.7.7.7.7.7.7.7.7.7.7.7.v.v.v.v.v.v.v.v.v.v.v.v.v.7.7.7.7.7.7.7.7.7.7.7.7.7.7.7.7.7.7.7.7.7.7.7.7.7.7.7.7.7.7.7.7.7.7.7.7.7.7.7.7.7.7.7.7.7.7.7.7.7.7.7.7.7.7.7.7.7.7.7.7.7.7.7.7.7.7.7.7.7.7.7.7.7.7.7.7.7.7.7.7.7.7.7.7.7.7.7.7.7.7.7.7.7.7.7.7.7.7.7.7.7.7.7.7.7.7.7.7.7.7.7.7.7.7.7.",
"m.m.m.m.m.m.m.m.m.m.m.m.m.m.m.m.m.m.m.m.m.m.m.m.m.m.m.m.m.m.m.m.m.m.m.m.m.m.m.m.m.m.m.m.m.m.m.m.m.m.m.m.m.m.m.m.m.m.m.m.m.m.m.m.v.v.v.m.m.m.v.v.v.m.m.m.v.v.v.v.v.v.v.v.7.7.7.7.v.v.v.v.7.7.7.7.m.m.m.m.v.v.v.v.v.v.v.v.v.v.v.v.v.v.v.v.v.v.v.v.v.v.v.v.v.v.v.v.m.m.m.m.m.m.m.m.m.v.v.v.v.v.v.v.v.v.v.v.m.m.m.m.v.v.v.v.v.v.v.v.v.v.v.v.v.v.v.v.v.v.v.v.v.v.7.7.v.v.v.v.v.v.v.v.v.v.v.v.7.7.7.7.7.7.7.7.7.7.7.7.7.7.7.7.7.7.7.7.7.7.7.7.7.7.7.7.7.7.7.7.7.7.7.7.7.7.7.7.7.7.7.7.7.7.7.7.7.7.7.7.7.7.7.7.7.7.7.7.7.7.7.7.7.7.7.7.7.7.7.7.7.7.7.7.v.v.v.v.v.v.7.7.7.7.7.7.7.7.7.7.7.7.7.7.7.7.7.7.7.7.7.7.7.7.7.7.7.7.7.7.7.7.7.7.7.7.7.7.7.7.7.7.7.7.7.7.7.7.7.7.",
"m.m.m.m.m.m.m.m.m.m.m.m.m.m.m.m.m.m.m.m.m.m.m.m.m.m.m.m.m.m.m.m.m.m.m.m.m.m.m.m.m.m.m.m.m.m.m.m.m.m.m.m.m.m.m.m.m.m.m.m.m.m.m.m.v.v.v.v.m.m.v.m.v.m.m.m.v.v.v.v.v.v.v.v.7.7.7.7.v.v.v.v.7.7.7.7.v.m.m.m.v.v.v.v.v.v.v.v.v.v.v.v.v.v.v.v.v.v.v.v.v.v.v.v.v.v.v.v.m.m.m.m.m.m.m.m.m.m.v.v.v.m.v.v.v.v.v.v.m.m.m.v.v.v.v.v.v.v.v.v.v.v.v.v.v.v.v.v.v.v.v.v.v.v.7.7.v.v.v.v.v.v.v.v.v.v.v.v.7.7.7.7.7.7.v.v.m.v.v.v.7.7.7.7.7.7.7.7.7.7.7.7.7.7.7.7.7.7.7.7.7.7.7.7.7.7.7.7.7.7.7.7.7.7.7.7.7.7.7.7.7.7.7.7.7.7.7.7.7.7.7.7.7.7.7.7.7.7.7.7.7.7.7.7.v.v.v.v.v.v.7.7.7.7.7.7.7.7.7.7.7.7.7.7.7.7.7.7.7.7.7.7.7.7.7.7.7.7.7.7.7.7.7.7.7.7.7.7.7.7.7.7.7.7.7.7.7.7.7.7.",
"m.m.m.m.m.m.m.m.m.m.m.m.m.m.m.m.m.m.m.m.m.m.m.m.m.m.m.m.m.m.m.m.m.m.m.m.m.m.m.m.m.m.m.m.m.m.m.m.m.m.m.m.m.m.m.m.m.m.m.m.m.m.m.m.v.v.v.v.m.m.m.m.v.v.m.m.m.m.v.v.m.m.m.m.v.v.m.m.m.m.m.m.v.v.m.m.v.v.m.m.v.m.v.v.v.v.v.v.v.v.v.v.v.v.7.7.v.v.v.v.v.v.v.v.7.v.v.v.v.v.m.m.m.m.v.v.v.v.v.v.m.m.m.m.v.v.m.v.m.m.v.v.v.v.v.v.v.v.v.v.v.v.7.7.v.v.v.v.v.v.v.v.v.v.7.7.v.v.v.v.v.v.7.7.v.v.v.v.v.v.7.7.7.7.m.m.m.m.7.m.7.7.7.7.7.7.7.7.7.7.7.7.7.7.7.7.7.7.7.7.7.7.7.7.7.7.7.7.7.7.7.7.7.7.7.7.7.7.7.7.7.7.7.7.7.7.7.7.7.7.7.7.7.7.7.7.v.v.7.7.v.v.v.v.v.v.v.v.v.v.7.7.v.v.v.v.7.7.v.v.7.7.7.7.7.7.7.7.7.7.7.7.7.7.7.7.7.7.7.7.7.7.7.7.7.7.7.7.7.7.7.7.7.7.7.7.7.7.7.7.",
"m.m.m.m.m.m.m.m.m.m.m.m.m.m.m.m.m.m.m.m.m.m.m.m.m.m.m.m.m.m.m.m.m.m.m.m.m.m.m.m.m.m.m.m.m.m.m.m.m.m.m.m.m.m.m.m.m.m.m.m.m.m.m.m.m.m.m.m.m.m.m.m.m.m.m.m.m.m.m.m.m.m.m.m.v.v.v.m.m.m.m.m.v.v.v.m.m.m.m.m.m.m.m.m.m.m.m.m.m.m.m.m.v.7.7.7.v.v.v.v.v.v.v.v.v.v.v.v.v.m.m.m.m.v.v.v.v.v.v.v.m.m.m.m.v.v.m.m.m.m.v.v.v.v.v.v.v.v.v.v.7.7.7.7.v.v.v.v.v.v.v.v.v.v.7.7.v.v.v.v.v.v.v.7.v.v.v.v.v.v.7.7.7.7.m.m.m.m.7.7.7.7.7.7.7.7.7.7.7.7.7.7.7.7.7.7.7.7.7.7.7.7.7.7.7.7.7.7.7.7.7.7.7.7.7.7.7.7.7.7.7.7.7.7.7.7.7.7.7.7.7.7.7.7.7.7.v.7.7.7.v.v.v.v.v.v.v.v.v.v.7.7.v.v.v.v.7.7.7.v.7.7.7.7.7.7.7.7.7.7.7.7.7.7.7.7.7.7.7.7.7.7.7.7.7.7.7.7.7.7.7.7.7.7.7.7.7.7.7.7.",
"m.m.m.m.m.m.m.m.m.m.m.m.m.m.7.m.m.m.m.m.m.m.m.m.m.m.m.m.m.m.m.m.m.m.m.m.m.m.m.m.m.m.m.m.m.m.m.m.m.m.m.m.m.m.m.m.m.m.m.m.m.m.m.m.m.m.m.m.m.m.m.m.m.m.m.m.m.m.m.m.m.m.v.v.v.v.m.m.m.m.v.v.v.v.m.m.m.m.m.m.m.m.m.m.v.v.v.v.m.m.m.m.v.v.v.v.m.v.v.v.m.m.m.m.v.v.m.m.v.v.m.m.m.m.v.v.m.m.v.v.v.v.m.m.m.m.m.m.v.v.v.v.m.v.v.v.m.m.m.m.v.v.v.v.v.v.v.v.m.m.m.m.m.v.v.v.v.v.m.m.m.m.v.v.m.m.v.v.v.v.m.m.7.m.m.m.7.7.7.7.7.7.7.7.m.m.m.m.7.7.7.7.7.7.7.7.7.7.7.7.7.7.7.7.m.m.v.v.v.v.m.m.m.m.v.v.v.v.m.m.7.7.7.7.7.7.7.7.7.7.7.7.7.7.7.7.m.v.v.v.v.v.v.v.m.m.m.m.m.v.v.v.m.m.v.v.v.v.m.m.m.m.v.v.v.v.m.m.m.m.m.m.v.v.m.m.m.m.v.v.m.m.m.m.v.v.m.m.m.m.v.v.m.m.m.m.v.m.m.m.",
"m.m.m.m.m.m.m.m.m.m.m.m.m.m.m.m.m.m.m.m.m.m.m.m.m.m.m.m.m.m.m.m.m.m.m.m.m.m.m.m.m.m.m.m.m.m.m.m.m.m.m.m.m.m.m.m.m.m.m.m.m.m.m.m.m.m.m.m.m.m.m.m.m.m.m.m.m.m.m.m.m.m.v.v.v.v.m.m.m.m.v.v.v.v.m.m.m.m.m.m.m.m.m.m.m.m.m.m.m.m.m.m.v.v.v.v.m.v.v.v.m.m.m.m.v.v.m.m.v.v.m.m.m.m.v.v.m.m.m.m.v.v.m.m.m.m.m.m.v.v.v.v.m.v.v.v.m.m.m.m.v.m.v.v.m.v.v.v.m.m.m.m.m.m.v.v.v.v.m.m.m.m.v.v.m.m.v.m.v.v.m.m.7.m.m.m.7.m.7.7.7.7.7.7.m.m.m.m.v.v.7.7.v.v.v.v.7.7.7.7.7.7.7.7.m.m.m.m.v.v.m.m.m.m.m.m.v.v.m.m.7.7.7.7.7.7.7.7.7.v.v.v.v.v.v.v.m.m.v.v.v.v.v.v.m.m.m.m.m.m.v.v.m.m.m.m.v.v.m.m.m.m.m.m.v.v.m.m.m.m.m.m.v.v.m.m.m.m.m.v.m.m.m.m.v.v.m.m.m.m.v.v.m.m.m.m.v.v.m.m.",
"m.m.m.m.m.m.m.m.m.m.m.m.B.m.m.m.m.m.m.m.m.m.m.m.m.m.m.m.m.m.m.m.m.m.m.m.m.m.m.m.m.m.m.m.m.m.m.m.m.m.m.m.m.m.m.m.m.m.m.m.m.m.m.m.m.m.m.m.m.m.m.m.m.m.m.m.m.m.m.m.m.m.m.m.m.m.m.m.m.m.m.m.m.m.m.m.m.m.m.m.m.m.m.m.m.m.m.m.m.m.m.m.m.m.m.m.m.m.v.v.v.v.m.m.v.v.v.v.v.v.v.m.m.m.v.v.m.m.m.m.v.v.v.m.v.m.m.m.m.m.m.m.m.m.v.v.v.v.m.m.m.m.m.m.m.m.v.v.v.m.m.m.m.m.m.m.v.v.m.m.m.v.v.v.m.m.m.m.v.v.7.m.m.m.m.m.m.m.m.m.m.m.m.m.m.m.m.m.v.v.v.v.v.v.v.v.v.v.v.v.7.7.7.7.m.m.m.m.m.v.m.m.m.m.m.m.m.v.m.m.7.7.7.7.7.7.7.7.v.v.v.v.v.v.v.v.m.m.m.m.m.m.m.m.v.m.m.m.m.m.m.m.m.m.m.m.m.m.m.m.m.m.m.m.m.v.m.m.v.m.m.m.v.v.m.m.m.m.v.v.v.v.m.m.m.v.m.m.m.m.v.v.v.m.m.m.v.v.v.v.",
"m.m.m.m.m.m.m.m.m.m.m.m.m.m.m.m.m.m.m.m.m.m.m.m.m.m.m.m.m.m.m.m.m.m.m.m.m.m.m.m.m.m.m.m.m.m.m.m.m.m.m.m.m.m.m.m.m.m.m.m.m.m.m.m.m.m.m.m.m.m.m.m.m.m.m.m.m.m.m.m.m.m.m.m.m.m.m.m.m.m.m.m.m.m.m.m.m.m.m.m.m.m.m.m.m.m.m.m.m.m.m.m.m.m.m.m.m.m.v.v.v.m.m.m.v.v.v.v.v.v.v.m.m.m.v.v.m.m.m.m.v.v.v.v.v.m.m.m.m.m.m.m.m.m.v.v.v.m.m.m.m.m.m.m.m.m.v.v.v.m.m.m.m.m.m.m.v.v.m.m.m.m.v.v.m.m.m.m.v.7.7.m.m.m.m.m.m.m.m.m.m.m.m.m.m.m.m.m.m.m.m.m.m.m.m.m.m.m.m.m.v.v.v.v.v.v.v.v.v.v.v.v.v.v.v.v.v.v.v.v.7.7.7.7.7.7.7.7.m.m.m.m.m.m.m.m.m.m.m.m.m.m.m.m.v.m.m.m.m.m.m.m.m.m.m.m.m.m.m.m.v.v.v.v.v.v.v.v.7.v.v.v.7.v.v.v.v.v.7.7.7.v.v.v.v.v.v.v.v.v.7.7.7.v.v.v.7.7.7.7.",
"m.m.m.m.m.m.m.m.m.m.m.m.m.m.B.m.m.m.m.m.m.m.m.m.m.m.m.m.m.m.m.m.m.m.m.m.m.m.m.m.m.m.m.m.m.m.m.m.m.m.m.m.m.m.m.m.m.m.m.m.m.m.m.m.m.m.m.m.m.m.m.m.m.m.m.m.m.m.m.m.m.m.m.m.m.m.m.m.m.m.m.m.m.m.m.m.m.m.m.m.m.m.m.m.m.m.m.m.m.m.m.m.m.m.m.m.m.m.m.m.m.m.m.m.m.m.m.m.m.m.m.m.m.m.m.m.m.m.m.m.m.m.m.m.m.m.m.m.v.v.m.m.m.m.7.v.m.m.m.m.v.v.v.m.m.m.v.v.v.v.v.v.v.v.v.m.m.m.m.m.v.v.v.v.m.m.m.m.m.7.7.m.m.m.m.m.m.m.m.m.m.m.m.m.m.m.m.m.m.m.m.m.m.m.m.m.m.m.m.m.m.m.m.m.m.m.m.m.m.m.m.m.m.m.m.m.m.m.m.m.7.7.v.v.7.7.7.7.v.v.v.v.v.7.7.7.v.v.v.m.m.m.v.v.v.v.v.v.v.v.v.m.m.m.m.m.m.m.m.m.m.m.m.m.m.m.m.m.m.m.m.m.m.m.m.m.m.m.m.m.m.m.m.m.m.m.m.m.m.m.m.m.m.m.m.m.m.m.m.m.",
"m.m.m.m.m.m.m.m.m.m.m.m.m.m.m.m.m.m.m.m.m.m.m.m.m.m.m.m.m.m.m.m.m.m.m.m.m.m.m.m.m.m.m.m.m.m.m.m.m.m.m.m.m.m.m.m.m.m.m.m.m.m.m.m.m.m.m.m.m.m.m.m.m.m.m.m.m.m.m.m.m.m.m.m.m.m.m.m.m.m.m.m.m.m.m.m.m.m.m.m.m.m.m.m.m.m.m.m.m.m.m.m.m.m.m.m.m.m.m.m.m.m.m.m.m.m.m.m.m.m.m.m.m.m.m.m.m.m.m.m.m.m.m.m.m.m.m.m.m.v.m.m.m.m.7.v.m.m.m.m.v.v.v.m.m.m.v.v.v.v.v.v.v.v.v.m.v.m.m.m.v.v.v.v.m.m.m.m.7.7.7.m.m.m.m.m.m.m.m.m.m.m.m.m.m.m.m.m.m.m.m.m.m.m.m.m.m.m.m.m.m.m.m.m.m.m.m.m.m.m.m.m.m.m.m.m.m.m.m.m.7.7.v.v.7.7.7.7.v.v.v.v.v.7.v.v.v.v.v.m.m.m.v.v.v.v.v.v.v.v.v.m.m.m.m.m.m.m.m.m.m.m.m.m.m.m.m.m.m.m.m.m.m.m.m.m.m.m.m.m.m.m.m.m.m.m.m.m.m.m.m.m.m.m.m.m.m.m.m.m.",
"m.m.m.m.m.m.m.m.m.m.m.m.m.m.m.m.m.m.m.m.m.m.m.m.m.m.m.m.m.m.m.m.m.m.m.m.m.m.m.m.m.m.m.m.m.m.m.m.m.m.m.m.m.m.m.m.m.m.m.m.m.m.m.m.m.m.m.m.m.m.m.m.m.m.m.m.m.m.m.m.m.m.m.m.m.m.m.m.m.m.m.m.m.m.m.m.m.m.m.m.m.m.m.m.m.m.m.m.m.m.m.m.m.m.m.m.m.m.m.m.m.m.m.m.m.m.m.m.m.m.m.m.m.m.m.m.m.m.m.m.m.m.m.m.m.m.m.m.m.v.v.v.m.m.m.v.m.m.m.m.v.v.v.v.m.m.m.m.m.m.m.m.v.v.v.v.v.v.m.m.v.m.v.v.m.m.m.m.m.m.7.m.m.m.m.m.m.m.m.m.m.m.m.m.m.m.m.m.m.m.m.m.m.m.m.m.m.m.m.m.m.m.m.m.m.m.m.m.m.m.m.m.m.m.m.m.m.m.m.m.m.m.m.m.v.v.m.m.m.m.m.m.m.m.v.v.v.v.v.v.m.m.m.m.m.m.m.m.v.v.v.v.m.m.m.m.m.m.m.m.m.m.m.m.m.m.m.m.m.m.m.m.m.m.m.m.m.m.m.m.m.m.m.m.m.m.m.m.m.m.m.m.m.m.m.m.m.m.m.m.",
"m.m.m.m.N.N.N.N.N.N.N.N.N.N.N.N.m.m.m.m.m.m.m.m.m.m.m.m.m.m.m.m.m.m.m.m.m.m.m.m.m.m.m.m.m.m.m.m.m.m.m.m.m.m.m.m.m.m.m.m.m.m.m.m.m.m.m.m.m.m.m.m.m.m.m.m.m.m.m.m.m.m.m.m.m.m.m.m.m.m.m.m.m.m.m.m.m.m.m.m.m.m.m.m.m.m.m.m.m.m.m.m.m.m.m.m.m.m.m.m.m.m.m.m.m.m.m.m.m.m.m.m.m.m.m.m.m.m.m.m.m.m.m.m.m.m.m.m.m.m.m.v.m.m.v.v.m.m.m.m.m.m.m.m.m.m.m.m.m.m.m.m.m.m.m.m.m.m.m.m.m.m.m.m.m.m.m.m.m.m.7.m.m.m.m.m.m.m.m.m.m.m.m.m.m.m.m.m.m.m.m.m.m.m.m.m.m.m.m.m.m.m.m.m.m.m.m.m.m.m.m.m.m.m.m.m.m.m.m.m.m.m.m.m.v.v.v.m.m.m.m.m.m.m.v.v.m.m.m.m.m.m.m.m.m.m.m.m.m.m.m.m.m.m.m.m.m.m.m.m.m.m.m.m.m.m.m.m.m.m.m.m.m.m.m.m.m.m.m.m.m.m.m.m.m.m.m.m.m.m.m.m.m.m.m.m.m.m.m.m.",
"N.N.N.N.N.N.N.m.m.m.N.N.N.N.N.N.m.m.m.m.m.m.m.m.m.m.m.m.m.m.m.m.m.m.m.m.m.m.m.m.m.m.m.m.m.m.m.m.m.m.m.m.m.m.m.m.m.m.m.m.m.m.m.m.m.m.m.m.m.m.m.m.m.m.m.m.m.m.m.m.m.m.m.m.m.m.m.m.m.m.m.m.m.m.m.m.m.m.m.m.m.m.m.m.m.m.m.m.m.m.m.m.m.m.m.m.m.m.m.m.m.m.m.m.m.m.m.m.m.m.m.m.m.m.m.m.m.m.m.m.m.m.m.m.m.m.m.m.m.m.m.m.m.m.m.m.m.m.m.m.m.m.m.m.m.m.m.m.m.m.m.m.m.m.m.m.m.m.m.m.m.m.m.m.m.m.m.m.m.m.m.m.m.m.m.m.m.m.m.m.m.m.m.m.m.m.m.m.m.m.m.m.m.m.m.m.m.m.m.m.m.m.m.m.m.m.m.m.m.m.m.m.m.m.m.m.m.m.m.m.m.m.v.v.v.v.m.m.v.v.m.m.m.m.v.v.m.m.m.m.m.m.m.m.m.m.m.m.m.m.m.m.m.m.m.m.m.m.m.m.m.m.m.m.m.m.m.m.m.m.m.m.m.m.m.m.m.m.m.m.m.m.m.m.m.m.m.m.m.m.m.m.m.m.m.m.m.m.m.m.",
"N.N.N.N.N.N.m.m.m.m.N.N.N.N.N.N.m.m.m.m.m.m.m.m.m.m.m.m.m.m.m.m.m.m.m.m.m.m.m.m.m.m.m.m.m.m.m.m.m.m.m.m.m.m.m.m.m.m.m.m.m.m.m.m.m.m.m.m.m.m.m.m.m.m.m.m.m.m.m.m.m.m.m.m.m.m.m.m.m.m.m.m.m.m.m.m.m.m.m.m.m.m.m.m.m.m.m.m.m.m.m.m.m.m.m.m.m.m.m.m.m.m.m.m.m.m.m.m.m.m.m.m.m.m.m.m.m.m.m.m.m.m.m.m.m.m.m.m.m.m.m.m.m.m.m.m.m.m.m.m.m.m.m.m.m.m.m.m.m.m.m.m.m.m.m.m.m.m.m.m.m.m.m.m.m.m.m.m.m.m.m.m.m.m.m.m.m.m.m.m.m.m.m.m.m.m.m.m.m.m.m.m.m.m.m.m.m.m.m.m.m.m.m.m.m.m.m.m.m.m.m.m.m.m.m.m.m.m.m.m.m.m.v.v.v.v.m.m.v.v.v.m.m.m.v.v.m.m.m.m.m.m.m.m.m.m.m.m.m.m.m.m.m.m.m.m.m.m.m.m.m.m.m.m.m.m.m.m.m.m.m.m.m.m.m.m.m.m.m.m.m.m.m.m.m.m.m.m.m.m.m.m.m.m.m.m.m.m.m.m.",
"N.N.m.N.m.m.m.m.m.m.m.m.N.N.N.m.m.m.m.m.m.m.m.m.m.m.m.m.m.m.m.m.m.m.m.m.m.m.m.m.m.m.m.m.m.m.m.m.m.m.m.m.m.m.m.m.m.m.m.m.m.m.m.m.m.m.m.m.m.m.m.m.m.m.m.m.m.m.m.m.m.m.m.m.m.m.m.m.m.m.m.m.m.m.m.m.m.m.m.m.m.m.m.m.m.m.m.m.m.m.m.m.m.m.m.m.m.m.m.m.m.m.m.m.m.m.m.m.m.m.m.m.m.m.m.m.m.m.m.m.m.m.m.m.m.m.m.m.m.m.m.m.m.m.m.m.m.m.m.m.m.m.m.m.m.m.m.m.m.m.m.m.m.m.m.m.m.m.m.m.m.m.m.m.m.m.m.m.m.m.m.m.m.m.m.m.m.m.m.m.m.m.m.m.m.m.m.m.m.m.m.m.m.m.m.m.m.m.m.m.m.m.m.m.m.m.m.m.m.m.m.m.m.m.m.m.m.m.m.m.m.m.m.m.m.m.m.m.m.m.m.m.m.m.m.m.m.m.m.m.m.m.m.m.m.m.m.m.m.m.m.m.m.m.m.m.m.m.m.m.m.m.m.m.m.m.m.m.m.m.m.m.m.m.m.m.m.m.m.m.m.m.m.m.m.m.m.m.m.m.m.m.m.m.m.m.m.m.m.m.",
"m.N.m.m.m.m.m.m.m.m.m.m.m.m.N.m.m.m.m.m.m.m.m.m.m.m.m.m.m.m.m.m.m.m.m.m.m.m.m.m.m.m.m.m.m.m.m.m.m.m.m.m.m.m.m.m.m.m.m.m.m.m.m.m.m.m.m.m.m.m.m.m.m.m.m.m.m.m.m.m.m.m.m.m.m.m.m.m.m.m.m.m.m.m.m.m.m.m.m.m.m.m.m.m.m.m.m.m.m.m.m.m.m.m.m.m.m.m.m.m.m.m.m.m.m.m.m.m.m.m.m.m.m.m.m.m.m.m.m.m.m.m.m.m.m.m.m.m.m.m.m.m.m.m.m.m.m.m.m.m.m.m.m.m.m.m.m.m.m.m.m.m.m.m.m.m.m.m.m.m.m.m.m.m.m.m.m.m.m.m.m.m.m.m.m.m.m.m.m.m.m.m.m.m.m.m.m.m.m.m.m.m.m.m.m.m.m.m.m.m.m.m.m.m.m.m.m.m.m.m.m.m.m.m.m.m.m.m.m.m.m.m.m.m.m.m.m.m.m.m.m.m.m.m.m.m.m.m.m.m.m.m.m.m.m.m.m.m.m.m.m.m.m.m.m.m.m.m.m.m.m.m.m.m.m.m.m.m.m.m.m.m.m.m.m.m.m.m.m.m.m.m.m.m.m.m.m.m.m.m.m.m.m.m.m.m.m.m.m.m.",
"m.m.m.m.m.m.m.N.N.N.N.N.m.m.m.m.m.m.m.m.m.m.m.m.m.m.m.m.m.m.m.m.m.m.m.m.m.m.m.m.m.m.m.m.m.m.m.m.m.m.m.m.m.m.m.m.m.m.m.m.m.m.m.m.m.m.m.m.m.m.m.m.m.m.m.m.m.m.m.m.m.m.m.m.m.m.m.m.m.m.m.m.m.m.m.m.m.m.m.m.m.m.m.m.m.m.m.m.m.m.m.m.m.m.m.m.m.m.m.m.m.m.m.m.m.m.m.m.m.m.m.m.m.m.m.m.m.m.m.m.m.m.m.m.m.m.m.m.m.m.m.m.m.m.m.m.m.m.m.m.m.m.m.m.m.m.m.m.m.m.m.m.m.m.m.m.m.m.m.m.m.m.m.m.m.m.m.m.m.m.m.m.m.m.m.m.m.m.m.m.m.m.m.m.m.m.m.m.m.m.m.m.m.m.m.m.m.m.m.m.m.m.m.m.m.m.m.m.m.m.m.m.m.m.m.m.m.m.m.m.m.m.m.m.m.m.m.m.m.m.m.m.m.m.m.m.m.m.m.m.m.m.m.m.m.m.m.m.m.m.m.m.m.m.m.m.m.m.m.m.m.m.m.m.m.m.m.m.m.m.m.m.m.m.m.m.m.m.m.m.m.m.m.m.m.m.m.m.m.m.m.m.m.m.m.m.m.m.m.m.",
"m.m.m.m.m.m.m.N.N.N.N.N.m.m.m.m.m.m.m.m.m.m.m.m.m.m.m.m.m.m.m.m.m.m.m.m.m.m.m.m.m.m.m.m.m.m.m.m.m.m.m.m.m.m.m.m.m.m.m.m.m.m.m.m.m.m.m.m.m.m.m.m.m.m.m.m.m.m.m.m.m.m.m.m.m.m.m.m.m.m.m.m.m.m.m.m.m.m.m.m.m.m.m.m.m.m.m.m.m.m.m.m.m.m.m.m.m.m.m.m.m.m.m.m.m.m.m.m.m.m.m.m.m.m.m.m.m.m.m.m.m.m.m.m.m.m.m.m.m.m.m.m.m.m.m.m.m.m.m.m.m.m.m.m.m.m.m.m.m.m.m.m.m.m.m.m.m.m.m.m.m.m.m.m.m.m.m.m.m.m.m.m.m.m.m.m.m.m.m.m.m.m.m.m.m.m.m.m.m.m.m.m.m.m.m.m.m.m.m.m.m.m.m.m.m.m.m.m.m.m.m.m.m.m.m.m.m.m.m.m.m.m.m.m.m.m.m.m.m.m.m.m.m.m.m.m.m.m.m.m.m.m.m.m.m.m.m.m.m.m.m.m.m.m.m.m.m.m.m.m.m.m.m.m.m.m.m.m.m.m.m.m.m.m.m.m.m.m.m.m.m.m.m.m.m.m.m.m.m.m.m.m.m.m.m.m.m.m.m.m.",
"N.N.m.m.m.m.m.m.m.m.N.N.m.m.m.m.m.m.m.m.m.m.m.m.m.m.m.m.m.m.m.m.m.m.m.m.m.m.m.m.m.m.m.m.m.m.m.m.m.m.m.m.m.m.m.m.m.m.m.m.m.m.m.m.m.m.m.m.m.m.m.m.m.m.m.m.m.m.m.m.m.m.m.m.m.m.m.m.m.m.m.m.m.m.m.m.m.m.m.m.m.m.m.m.m.m.m.m.m.m.m.m.m.m.m.m.m.m.m.m.m.m.m.m.m.m.m.m.m.m.m.m.m.m.m.m.m.m.m.m.m.m.m.m.m.m.m.m.m.m.m.m.m.m.m.m.m.m.m.m.m.m.m.m.m.m.m.m.m.m.m.m.m.m.m.m.m.m.m.m.m.m.m.m.m.m.m.m.m.m.m.m.m.m.m.m.m.m.m.m.m.m.m.m.m.m.m.m.m.m.m.m.m.m.m.m.m.m.m.m.m.m.m.m.m.m.m.m.m.m.m.m.m.m.m.m.m.m.m.m.B.B.m.m.m.m.m.m.m.m.m.m.m.m.m.m.m.m.m.m.m.m.m.m.m.m.m.m.m.m.m.m.m.m.m.m.m.m.m.m.m.m.m.m.m.m.m.m.m.m.m.m.m.m.m.m.m.m.m.m.m.m.m.m.m.m.m.m.m.m.m.m.m.m.m.m.m.m.m.m.",
"N.m.m.m.m.m.m.m.N.N.N.N.N.N.N.N.V.V.V.V.m.m.V.V.V.V.V.V.m.m.m.V.m.m.m.m.m.m.m.m.m.m.m.m.m.m.m.m.m.m.m.m.m.m.m.m.m.m.m.m.m.m.m.m.m.m.m.m.m.m.m.m.m.m.m.m.m.m.m.m.m.m.m.m.m.m.m.m.m.m.m.m.m.m.m.m.m.m.m.m.m.m.m.m.m.m.m.m.m.m.m.m.m.m.m.m.m.m.m.m.m.m.m.m.m.m.m.m.m.m.m.m.m.m.m.m.m.m.m.m.m.m.m.m.m.m.m.m.m.m.m.m.m.m.m.m.m.m.m.m.m.m.m.m.m.m.m.m.m.m.m.m.m.m.m.m.m.m.m.m.m.m.m.m.m.m.m.m.m.m.m.m.N.m.m.m.N.N.N.N.N.N.N.N.m.m.m.m.N.m.m.m.m.m.N.N.N.N.N.N.m.m.m.m.m.m.m.m.N.N.N.N.N.m.m.m.m.m.m.m.m.m.m.m.m.m.m.m.m.m.m.m.m.m.m.m.m.m.m.m.m.m.m.m.m.m.m.m.m.m.m.m.m.m.m.m.m.m.m.m.m.m.m.m.m.m.m.m.N.m.m.m.m.m.N.N.N.N.N.N.m.m.m.m.N.m.m.m.m.m.N.N.N.N.N.N.m.m.m.m.",
"N.N.N.N.N.N.N.N.N.N.N.N.N.N.N.N.V.V.m.m.m.m.V.V.V.V.m.m.m.m.V.V.m.m.m.m.m.m.m.m.m.m.m.m.m.m.m.m.m.m.m.m.m.m.m.m.m.m.m.m.m.m.m.m.m.m.m.m.m.m.m.m.m.m.m.m.m.m.m.m.m.m.m.m.m.m.m.m.m.m.m.m.m.m.m.m.m.m.m.m.m.m.m.m.m.m.m.m.m.m.m.m.m.m.m.m.m.m.m.m.m.m.m.m.m.m.m.m.m.m.m.m.m.m.m.m.m.m.m.m.m.m.m.m.m.m.m.m.m.m.m.m.m.m.m.m.m.m.m.m.m.m.m.m.m.m.m.m.m.m.m.m.m.m.m.m.m.m.m.m.m.m.m.m.N.N.m.m.m.m.m.m.N.N.m.m.m.m.N.N.N.N.m.m.m.m.N.m.N.N.m.m.m.m.N.N.N.N.m.m.m.m.m.m.N.N.N.N.N.N.N.N.m.m.m.m.m.m.m.m.m.m.m.m.m.m.m.m.m.m.m.m.m.m.m.m.m.m.m.m.m.m.m.m.m.m.m.m.m.m.m.m.m.m.m.m.m.m.m.m.m.m.m.m.m.m.m.m.N.N.m.m.m.m.N.N.N.N.m.m.m.m.N.m.N.N.m.m.m.m.N.N.N.N.m.m.m.m.N.m.",
"N.N.N.N.N.N.N.N.N.N.N.N.N.N.N.N.V.V.m.m.m.m.V.V.V.V.m.m.m.m.V.V.m.m.m.m.m.m.m.m.m.m.m.m.m.m.m.m.m.m.m.m.m.m.m.m.m.m.m.m.m.m.m.m.m.m.m.m.m.m.m.m.m.m.m.m.m.m.m.m.m.m.m.m.m.m.m.m.m.m.m.m.m.m.m.m.m.m.m.m.m.m.m.m.m.m.m.m.m.m.m.m.m.m.m.m.m.m.m.m.m.m.m.m.m.m.m.m.m.m.m.m.m.m.m.m.m.m.m.m.m.m.m.m.m.m.m.m.m.m.m.m.m.m.m.m.m.m.m.m.m.m.m.m.m.m.m.m.m.m.m.m.m.m.m.m.m.m.m.m.m.m.B.m.N.N.m.m.m.m.m.m.N.N.m.m.m.m.N.N.N.N.m.m.N.m.N.N.N.N.m.m.m.m.N.N.N.N.m.m.N.m.N.N.m.N.N.m.N.N.m.m.m.m.m.m.m.m.m.m.m.m.m.m.m.m.m.m.m.m.m.m.m.m.m.m.m.m.m.m.m.m.m.m.m.m.m.m.m.m.m.m.m.m.m.m.m.m.m.m.m.m.m.m.m.m.m.m.N.N.m.m.m.m.N.N.N.N.m.m.N.m.N.N.N.N.m.m.m.m.N.N.N.N.m.m.N.m.N.N.",
"N.N.N.N.N.N.N.N.N.N.N.N.N.N.N.N.V.V.V.m.m.V.V.V.V.V.m.m.m.V.V.V.m.m.m.m.m.m.m.m.m.m.m.m.m.m.m.m.m.m.m.m.m.m.m.m.m.m.m.m.m.m.m.m.m.m.m.m.m.m.m.m.m.m.m.m.m.m.m.m.m.m.m.m.m.m.m.m.m.m.m.m.m.m.m.m.m.m.m.m.m.m.m.m.m.m.m.m.m.m.m.m.m.m.m.m.m.m.m.m.m.m.m.m.m.m.m.m.m.m.m.m.m.m.m.m.m.m.m.m.m.m.m.m.m.m.m.m.m.m.m.m.m.m.m.m.m.m.m.m.m.m.m.m.m.m.m.m.m.m.m.m.m.m.m.m.m.B.B.B.B.B.B.B.N.N.m.m.m.m.m.m.N.N.N.m.m.m.m.N.m.m.m.m.N.N.N.N.N.N.N.m.m.m.N.N.N.m.m.m.N.N.N.N.m.m.m.m.m.m.m.m.N.m.N.N.m.m.m.m.N.N.m.m.m.m.m.m.m.m.m.m.m.m.m.m.m.m.m.m.m.m.m.m.m.m.m.m.m.m.m.m.m.m.m.m.m.m.m.m.m.m.m.m.m.m.m.m.N.N.N.m.m.m.N.N.N.m.m.m.N.N.N.N.N.N.N.m.m.m.N.N.N.m.m.m.N.N.N.N.",
"N.N.N.N.N.N.N.N.N.N.N.N.N.N.N.N.V.V.m.m.m.V.V.V.V.V.m.m.V.V.V.V.m.m.m.m.m.m.m.m.m.m.m.m.m.m.m.m.m.m.m.m.m.m.m.m.m.m.m.m.m.m.m.m.m.m.m.m.m.m.m.m.m.m.m.m.m.m.m.m.m.m.m.m.m.m.m.m.m.m.m.m.m.m.m.m.m.m.m.m.m.m.m.m.m.m.m.m.m.m.m.m.m.m.m.m.m.m.m.m.m.m.m.m.m.m.m.m.m.m.m.m.m.m.m.m.m.m.m.m.m.m.m.m.m.m.m.m.m.m.m.m.m.m.m.m.m.m.m.m.m.m.m.m.m.m.m.m.m.m.m.m.m.m.m.m.m.m.B.B.B.B.B.B.N.N.m.m.m.m.m.m.m.m.B.B.m.m.m.B.m.m.B.m.B.B.N.N.m.m.m.m.m.m.B.B.m.m.m.m.B.B.B.B.N.N.N.N.N.N.m.m.N.B.B.B.m.m.m.m.B.B.B.N.N.N.N.V.V.V.N.N.N.m.m.m.m.m.m.m.m.m.m.m.m.m.m.m.m.m.m.m.m.m.m.m.m.m.m.m.m.m.m.m.m.m.m.m.N.N.N.m.m.m.N.N.m.m.m.m.N.N.N.N.N.B.N.m.m.m.N.N.m.m.m.m.N.N.N.N.",
"N.N.N.N.N.N.N.N.V.V.V.V.V.V.V.V.V.V.V.V.V.V.V.V.V.V.V.V.V.V.V.V.V.V.m.m.m.m.m.m.V.V.V.V.V.V.m.m.m.V.V.V.V.V.V.V.V.V.m.m.m.m.V.V.V.V.V.V.V.V.m.m.m.V.V.V.V.V.V.V.m.m.m.m.m.m.m.m.m.m.m.m.m.m.m.m.m.m.m.m.m.m.m.m.m.m.m.m.m.m.m.m.m.m.m.m.m.m.m.m.m.m.m.m.m.m.m.m.m.m.m.m.m.m.m.m.m.m.m.m.m.m.m.m.m.m.m.m.m.m.m.m.m.m.m.m.m.m.m.m.V.V.m.m.m.m.m.m.m.m.N.N.N.N.N.N.N.m.N.N.N.N.m.m.m.m.m.m.m.m.m.m.b.b.b.b.b.b.n.n.n.B.B.B.B.B.N.N.m.V.m.m.m.m.B.B.B.B.b.n.b.b.b.B.N.S.N.S.N.N.N.N.N.B.m.m.m.m.m.M.b.b.b.b.m.m.N.N.N.N.N.S.S.S.N.N.m.m.m.m.m.m.m.m.m.m.m.m.m.m.B.m.m.m.N.N.N.N.N.N.m.m.m.N.N.N.m.m.m.m.m.m.m.m.m.m.m.m.m.m.m.m.m.m.m.m.B.B.m.m.m.m.B.B.N.N.m.m.m.m.",
"N.N.N.N.N.N.N.N.V.V.V.V.V.V.V.V.V.V.V.V.V.V.V.V.V.V.V.V.V.V.V.V.V.V.V.V.m.m.m.m.V.V.V.V.V.V.m.m.V.V.V.V.m.m.V.V.V.V.m.m.m.m.V.V.V.V.V.V.V.V.m.m.V.V.V.V.m.m.V.V.m.m.m.m.m.m.m.m.m.m.m.m.m.m.m.m.m.m.m.m.m.m.m.m.m.m.m.m.m.m.m.m.m.m.m.m.m.m.m.m.m.m.m.m.m.m.m.m.m.m.m.m.m.m.m.m.m.m.m.m.m.m.m.m.m.m.m.m.m.m.m.m.m.m.m.m.m.m.m.m.V.V.m.m.m.m.m.m.m.m.N.N.N.N.N.N.m.m.m.m.N.N.m.m.m.m.N.N.m.m.m.m.m.b.b.b.m.m.B.n.B.B.B.B.N.N.N.B.m.m.m.m.N.N.B.B.B.B.n.n.n.M.M.B.N.S.S.S.N.N.N.B.B.B.m.m.m.m.M.M.b.b.b.b.m.m.N.N.N.N.S.S.S.S.N.N.m.m.m.m.m.m.m.m.m.m.m.m.N.B.B.B.m.m.m.m.N.N.N.N.m.m.m.m.N.N.m.m.m.m.m.m.m.m.m.m.m.m.m.m.m.m.m.m.m.B.B.B.m.m.m.m.m.B.N.N.m.m.m.m.",
"N.N.N.N.N.N.N.N.V.V.V.V.V.V.V.V.V.V.V.V.V.V.V.V.V.V.V.V.V.V.V.V.V.V.V.V.V.V.m.m.m.V.m.m.m.m.m.m.V.V.V.V.m.m.m.m.V.m.m.m.V.V.V.V.m.V.m.m.m.m.m.m.V.V.V.V.m.m.m.m.m.m.m.m.m.m.m.m.m.m.m.m.m.m.m.m.m.m.m.m.m.m.m.m.m.m.m.m.m.m.m.m.m.m.m.m.m.m.m.m.m.m.m.m.m.m.m.m.m.m.m.m.m.m.m.m.m.m.m.m.m.m.m.m.m.m.m.m.m.m.m.m.m.m.m.m.m.m.m.m.V.V.m.m.m.m.m.m.m.m.m.N.m.m.N.N.m.m.m.m.N.N.m.m.N.N.N.N.N.N.N.N.V.V.N.N.N.N.N.N.N.N.N.N.N.N.N.N.N.N.C.B.C.S.S.B.B.B.N.N.N.V.N.N.B.B.B.C.B.B.B.M.V.V.N.N.N.N.N.N.m.m.m.m.N.N.N.N.N.N.N.N.B.B.B.m.m.m.m.m.V.V.V.V.N.N.m.m.N.N.N.N.m.m.m.m.m.m.N.N.m.m.m.m.N.N.N.m.m.m.m.m.m.m.m.m.m.m.m.m.m.m.m.m.m.m.B.B.m.m.m.m.m.m.N.N.m.m.m.m.",
"V.V.V.V.V.V.V.V.V.V.V.V.V.V.V.V.V.V.V.V.V.V.V.V.V.V.V.V.V.V.V.V.V.V.V.V.V.V.V.m.m.m.m.m.m.m.m.m.m.V.V.V.m.m.m.m.V.V.m.m.V.V.V.V.m.m.m.m.m.m.m.m.m.V.V.V.m.m.m.m.V.V.m.m.V.V.V.V.m.m.m.m.V.V.V.V.V.V.V.V.m.m.V.V.m.m.m.m.m.m.m.m.V.V.V.V.V.m.V.V.V.V.V.V.m.m.V.V.V.V.V.V.m.m.V.V.V.V.V.V.V.V.V.V.m.m.m.m.V.V.V.V.V.V.V.V.m.m.m.V.V.V.m.m.m.m.m.m.m.m.m.m.m.m.N.N.m.m.m.m.N.N.m.m.N.N.N.N.N.N.N.N.V.N.N.N.N.N.V.V.N.N.V.V.V.V.V.N.C.B.B.B.B.B.B.B.B.B.C.C.N.V.V.V.b.b.b.b.M.M.C.V.V.N.N.N.N.N.N.N.V.V.V.V.V.N.N.N.N.N.B.B.B.b.b.m.m.m.N.m.V.V.V.V.N.m.m.m.N.N.N.N.m.m.m.m.m.m.m.m.m.m.m.m.N.N.N.N.m.m.m.m.m.m.m.m.m.m.m.m.m.m.m.m.B.B.B.B.N.N.N.N.N.N.N.N.N.N.N.N.",
"V.V.V.V.V.V.V.V.Z.Z.Z.Z.V.V.V.Z.V.V.V.V.V.V.V.V.V.V.V.V.V.V.V.V.m.m.m.m.V.V.V.V.m.m.m.m.m.m.m.m.m.m.m.V.m.m.m.m.m.m.m.m.V.m.m.m.m.m.m.m.m.m.m.V.m.m.m.V.m.m.m.m.V.V.V.m.V.V.V.V.V.m.m.m.m.m.m.m.V.V.V.V.V.V.V.V.V.V.V.V.m.m.m.V.V.V.V.V.V.V.V.V.V.V.V.V.V.V.V.V.V.V.m.m.m.m.V.V.V.V.V.V.V.V.V.V.m.m.m.m.m.m.m.m.V.V.m.m.m.m.V.V.V.V.m.m.m.m.m.m.N.N.N.N.N.N.N.N.N.N.N.N.N.N.N.N.N.N.N.N.N.N.N.V.V.S.S.S.V.V.V.V.V.V.V.V.V.V.V.N.n.n.n.n.n.n.n.n.n.n.B.C.S.V.V.V.n.n.n.M.M.M.V.V.V.V.C.N.N.B.B.C.S.S.V.V.V.N.N.B.B.B.C.C.M.M.m.M.N.N.N.N.N.N.N.N.V.V.V.V.V.N.V.V.N.N.N.N.N.N.N.N.N.N.N.N.N.N.N.N.N.N.N.N.N.N.N.N.N.N.N.N.N.N.N.N.B.B.B.B.N.N.N.N.N.N.N.N.N.N.N.N.",
"V.V.V.V.Z.Z.Z.Z.Z.Z.Z.Z.V.V.V.V.V.V.V.V.V.V.V.V.V.V.V.V.V.V.V.V.V.V.V.V.V.V.V.V.V.V.V.V.V.V.V.V.V.V.V.V.V.V.V.V.V.V.V.V.V.V.V.V.V.V.V.V.V.V.V.V.V.V.V.V.V.V.V.V.V.V.V.m.V.V.V.V.V.V.m.m.m.m.m.m.V.V.V.V.V.V.V.V.V.V.V.V.V.V.V.V.V.V.V.V.V.V.V.V.V.V.V.V.V.V.V.V.V.V.m.m.m.m.V.V.V.V.V.m.V.V.V.V.V.V.m.m.m.m.m.m.V.V.m.m.m.m.V.V.V.V.m.m.m.m.m.m.N.N.N.N.N.N.N.N.N.N.N.N.N.N.N.N.N.N.N.N.N.N.N.N.V.V.S.V.N.N.V.V.V.V.V.M.V.V.V.V.n.n.n.n.n.n.n.n.n.n.n.C.S.S.V.V.M.n.M.M.V.V.V.Z.Z.Z.V.N.B.B.B.B.C.S.S.N.N.V.V.C.C.C.V.V.V.V.m.m.N.N.N.N.N.N.N.N.N.V.N.V.N.V.V.V.N.N.N.N.N.N.N.N.N.N.N.N.N.N.N.N.N.N.N.N.N.N.N.N.N.N.N.N.N.N.N.N.B.B.B.B.N.N.N.N.N.N.N.N.N.N.N.N.",
"S.S.V.V.S.S.V.V.V.V.V.V.V.V.V.V.V.V.V.V.V.V.V.V.V.V.V.V.V.V.V.V.V.V.V.V.V.V.V.V.V.V.V.V.V.V.V.V.V.V.V.V.V.V.V.V.V.V.V.V.V.V.V.V.V.V.V.V.V.V.V.V.V.V.V.V.V.V.V.V.V.V.m.m.m.m.V.m.V.V.V.V.m.V.m.m.m.m.V.V.V.V.m.m.m.m.V.m.m.m.m.m.m.m.V.V.m.m.m.m.m.m.V.V.V.V.m.m.V.V.V.m.m.V.V.V.V.V.m.m.m.m.m.m.V.V.V.V.m.V.m.m.V.V.m.m.m.V.V.V.V.V.V.V.m.m.m.V.N.N.N.N.N.N.N.N.N.N.N.N.N.N.N.N.V.V.V.V.V.V.V.V.B.B.C.C.V.V.V.V.V.V.V.M.V.V.V.V.M.M.M.b.b.n.n.n.n.n.n.C.S.G.G.Z.V.V.V.Z.Z.Q.Q.Q.Q.S.Z.C.V.C.n.C.S.C.N.N.C.C.C.C.V.V.V.V.V.V.V.V.V.N.C.N.N.N.N.N.N.N.N.N.m.m.m.V.N.N.N.N.N.N.N.N.N.N.N.N.N.N.B.N.V.V.V.V.N.N.N.N.V.V.V.V.N.N.N.N.B.B.B.B.N.N.N.N.N.N.N.N.N.N.N.N.",
"S.S.S.V.V.V.V.V.V.V.V.V.V.V.V.V.V.V.V.V.V.V.V.V.V.V.V.V.V.V.V.V.V.V.V.V.V.V.V.V.V.V.V.V.V.V.V.V.V.V.V.V.V.V.V.V.V.V.V.V.V.V.V.V.V.V.V.V.V.V.V.V.V.V.V.V.V.V.V.V.V.V.m.m.m.m.m.m.V.V.V.V.V.V.m.m.m.m.m.V.V.m.m.m.m.m.m.m.m.m.m.m.m.m.m.V.m.m.m.m.m.m.m.V.V.m.m.m.V.V.m.m.m.V.V.V.V.V.m.m.m.m.m.m.V.V.V.V.V.V.m.m.V.V.m.m.V.V.V.V.V.V.V.V.V.m.V.V.N.N.N.N.N.N.N.N.N.N.N.N.N.N.N.N.V.V.V.V.V.V.V.V.C.n.C.C.C.M.M.M.M.V.M.V.M.M.C.M.V.V.V.M.n.n.n.n.n.n.n.n.U.U.U.S.S.S.S.S.S.S.Q.Q.Q.S.S.S.N.N.C.B.S.V.V.V.V.C.C.C.V.V.V.Z.V.V.W.W.S.C.C.C.N.B.B.B.B.B.B.B.m.m.m.m.N.N.N.N.N.N.N.N.N.N.N.N.N.N.B.B.V.V.V.V.V.V.V.V.V.V.V.V.V.V.V.V.B.B.B.B.N.N.N.N.N.N.N.N.N.N.N.N.",
"S.S.V.V.V.S.S.V.V.V.V.V.V.V.S.S.V.V.V.V.V.V.V.V.V.V.V.V.V.V.V.V.m.m.m.m.m.m.m.m.m.m.m.V.m.V.V.V.V.V.V.V.V.V.V.V.V.V.V.V.V.V.V.V.V.V.V.V.V.V.V.V.V.V.V.V.V.V.V.V.V.V.V.V.V.V.V.V.V.V.V.V.V.V.V.V.V.V.V.V.V.V.V.V.V.V.V.V.V.V.V.V.m.m.V.V.V.V.V.V.m.m.m.m.V.V.V.V.V.V.V.V.V.V.V.V.V.V.V.V.V.V.V.V.V.V.V.V.V.V.V.V.V.V.V.V.V.V.V.V.V.V.V.V.V.V.V.V.V.V.V.V.V.V.N.N.V.V.V.S.V.V.V.V.V.V.S.S.V.V.V.V.C.n.b.n.M.M.M.M.M.M.M.M.n.n.n.C.m.N.V.Z.S.S.U.U.0.J.J.J.U.K.U.0.0.0.0.U.U.S.S.[.S.S.Q.Q.!.Q.Z.Q.V.M.Q.Z.m.M.A.Z.Z.V.Z.Z.Q.Q.Q.Q.S.C.C.N.C.B.C.n.n.n.C.M.M.M.V.V.V.V.V.V.V.V.V.V.S.S.S.S.V.V.V.V.V.V.V.V.V.V.V.V.V.V.V.V.V.V.V.V.V.V.V.V.S.S.S.S.S.S.Z.Z.Z.V.V.Z.",
"V.S.V.V.V.V.S.V.V.V.V.V.V.V.S.S.V.V.V.V.V.V.V.V.V.V.V.V.V.V.V.V.m.m.m.m.m.m.m.m.m.m.m.V.V.V.V.V.V.V.V.V.V.V.V.V.V.V.V.V.V.V.V.V.V.V.V.V.V.V.V.V.V.V.V.V.V.V.V.V.V.V.V.V.V.V.V.V.V.V.V.V.V.V.V.V.V.V.V.V.V.V.V.V.V.V.V.V.V.V.V.V.m.m.V.V.V.V.m.V.m.m.m.V.V.V.V.V.V.V.V.V.V.V.V.V.V.V.V.V.V.V.V.V.V.V.V.V.V.V.V.V.V.V.V.V.V.V.V.V.V.V.V.V.V.V.V.V.V.V.V.V.V.V.N.N.V.V.V.V.V.V.V.V.V.S.S.V.V.V.V.V.M.M.M.C.Z.M.M.M.v.M.Z.G.G.L.U.n.U.J.n.n.z.z.z.x.2X<X<X3XKXPXKXvXbXbX2XK.J.U.U.U.[.[.Q.Q.Q.Q.W.9.W.W.Q.Q.Q.Z.V.6.Z.V.S.Z.Q.Q.Q.Q.S.S.N.N.B.B.n.n.n.n.b.b.M.M.M.M.V.V.V.V.V.V.V.V.V.V.V.V.V.V.V.V.V.V.V.V.V.V.V.V.V.V.V.V.V.V.S.S.V.V.V.V.S.S.S.S.S.S.Z.Z.V.V.V.V.",
"V.V.V.V.V.S.V.V.V.V.V.V.V.S.S.S.V.V.V.V.V.V.V.V.V.V.V.V.V.V.V.V.V.m.m.V.m.m.V.V.m.V.V.V.V.V.V.V.V.V.V.V.V.V.V.V.V.V.V.V.V.V.V.V.V.V.V.V.V.V.V.V.V.V.V.V.V.V.V.V.V.V.V.V.V.V.V.V.V.V.V.V.V.V.V.V.V.V.V.V.V.V.V.V.V.V.V.V.V.V.V.V.m.m.m.m.m.m.m.m.m.m.m.V.V.V.V.V.V.V.V.V.V.V.V.V.V.V.V.V.V.V.V.V.V.V.V.V.V.V.V.V.V.V.V.V.V.V.V.V.V.V.V.V.V.V.V.V.V.V.V.V.V.V.N.N.V.V.N.N.N.N.N.N.V.V.V.V.V.V.V.V.V.V.M.Z.Z.Z.V.V.C.n.n.n.n.J.J.z.4.c.:X2X3X6X0X0XPXPXPXPXPXPXPXPXPXPXPXKXJXPXKXbX2X<X[.[.9.[.'.^.Q.Q.Q.Q.Q.Q.Q.W.Q.Q.Z.S.S.C.S.S.S.S.V.N.N.N.C.C.n.b.b.b.b.b.M.C.V.V.V.V.V.V.V.V.N.N.N.N.N.N.V.V.S.S.S.S.S.S.S.S.V.V.V.V.S.S.S.S.V.V.V.V.V.V.V.V.V.V.V.V.V.V.V.V.",
"Z.Z.Z.Z.Z.Z.Z.Z.V.S.S.S.Z.Z.Z.Z.V.V.Z.Z.Z.Z.Z.Z.Z.Z.Z.Z.Z.Z.Z.Z.V.V.V.V.V.V.V.V.V.V.V.V.V.V.V.V.V.V.V.V.V.V.V.V.V.V.V.V.V.V.V.V.V.V.V.V.V.V.V.V.V.V.V.V.V.V.V.V.V.V.V.V.V.V.V.V.V.V.V.V.V.V.V.V.V.V.V.V.V.V.V.V.V.V.V.V.V.V.V.V.m.m.V.V.m.m.m.m.V.V.V.V.V.V.V.V.V.V.V.V.V.V.V.V.V.V.V.V.V.V.V.V.V.V.V.V.V.V.V.V.V.V.V.V.V.V.V.V.V.V.V.V.V.V.V.V.V.V.V.V.V.V.C.C.V.V.V.V.V.V.V.V.Z.Z.Z.Z.Z.Z.S.V.Z.Z.V.V.V.V.S.n.n.n.J.z.x.x.x.c.>X4X0XqXqXqXqXqXqXqXqXqXqXwXqXqXqXPXPXPXPXPXPXPXKXKXLXzX[.[.[.[.Q.f.Q.Q.f.f.Q.Q.Q.Q.Q.V.S.S.S.S.N.V.V.V.V.V.N.C.C.C.n.n.C.C.V.V.V.V.V.V.V.V.V.V.V.V.V.V.V.V.V.V.S.S.S.S.S.S.S.S.V.S.S.S.S.S.S.S.V.V.V.V.V.V.V.V.V.V.V.V.V.V.V.V.",
"S.S.S.S.S.S.S.S.S.S.S.S.S.S.S.S.C.C.C.C.C.C.C.C.C.C.C.C.C.V.V.V.V.V.V.V.V.V.V.V.V.V.V.V.V.V.V.V.V.V.V.V.V.V.V.V.V.V.V.V.V.V.V.V.V.V.V.V.V.V.V.V.V.V.V.V.V.V.V.V.V.V.V.V.V.V.V.V.V.V.V.V.V.V.V.V.V.V.V.V.V.V.V.V.V.V.V.V.V.V.V.V.V.V.V.V.V.V.V.V.V.V.V.V.V.V.V.V.V.V.V.V.V.V.V.V.V.V.V.V.V.V.V.V.V.V.V.V.V.V.V.V.V.V.V.V.V.V.V.V.V.M.M.M.C.C.C.C.V.V.V.V.S.S.S.S.V.V.V.V.V.V.V.V.S.S.S.S.S.S.S.S.Z.Z.Z.V.C.n.n.n.K.z.) ' c.>X4X0XwXwXwXwXwXwXwXwX9X9X9X9XwXwX9X9XwXwXqXqXqXqXqXPXPXPXPXPXLXmXzX].].[.[.[.Q.f.f.f.f.f.W.W.W.Q.Q.Q.W.W.W.Q.Q.Z.m.m.V.V.V.C.V.V.V.V.V.V.S.S.S.V.V.V.V.V.V.V.V.V.S.S.S.S.S.S.S.S.S.S.S.S.S.S.S.S.S.S.V.V.V.V.V.V.V.V.V.V.V.V.V.V.V.V.",
"S.S.S.S.S.S.S.S.S.S.S.S.S.S.S.S.C.C.C.C.C.C.C.C.C.C.C.C.C.V.V.V.V.V.V.V.V.V.V.V.V.V.V.V.V.V.V.V.V.V.V.V.V.V.V.V.V.V.V.V.V.V.V.V.V.V.V.V.V.V.V.V.V.V.V.V.V.V.V.V.V.V.V.V.V.V.V.V.V.V.V.V.V.V.V.V.V.V.V.V.V.V.V.V.V.V.V.V.V.V.V.V.V.V.V.V.V.V.V.V.V.V.V.V.V.V.V.V.V.V.V.V.V.V.V.V.V.V.V.V.V.V.V.V.V.V.V.V.V.V.V.V.V.V.V.V.V.V.V.V.V.V.V.V.V.V.V.V.V.V.V.V.S.S.S.S.S.S.S.S.S.S.S.S.S.S.S.S.S.S.S.S.B.S.G.n.n.n.j.z.' ' :X,X7X8XwXqXwX . . .9X9X9X9X9X . .9X9X9X9X9X9X9X9XwXwXwXqXqXqXqXPXPXPXPXPXLXmXeX[.[.[.Q.f.f.f.f.f.f.f.f.f.f.W.W.W.W.Q.Q.Z.M.M.V.V.V.V.V.V.V.V.V.S.S.V.V.V.V.S.S.S.S.S.S.S.S.S.S.S.S.S.S.S.S.S.S.S.S.S.S.S.S.V.V.V.V.V.V.S.V.V.S.V.V.V.V.V.V.",
"S.S.V.S.S.S.S.S.S.S.V.V.S.S.S.S.C.C.C.C.C.C.C.V.C.C.C.C.C.C.V.C.V.V.V.V.V.V.V.V.V.V.V.V.V.V.V.V.V.V.V.V.V.V.V.V.V.V.V.V.V.V.V.V.V.V.V.V.V.V.V.V.V.V.V.V.V.V.V.V.V.V.V.V.V.V.V.V.V.V.V.V.V.V.V.V.V.V.V.V.V.V.V.V.V.V.V.V.V.V.V.V.V.V.V.V.V.V.V.V.V.V.V.V.V.V.V.V.V.V.V.V.V.V.V.V.V.V.V.V.V.V.V.V.V.V.V.V.V.V.V.V.V.V.V.V.V.V.V.V.M.M.V.V.V.V.V.V.S.S.V.V.V.V.S.S.V.V.V.V.V.V.V.V.S.S.S.S.S.S.S.S.n.n.n.n.n.z.z.c.:X>X,X8XwXwX9X9X9X9X9X9X9X9X9X9X .9X9X9X9X9X9X9X9X9X9X9X9X9X9XwX9XqXqXqXPXPXPXPXKXmXxXfX].[.^.^.~.~.d.i.p.p.p.t.y.y.f.f.W.W.W.W.Z.M.M.M.V.V.V.V.V.V.V.S.V.V.V.V.V.V.V.V.V.V.V.V.S.S.S.S.S.S.S.S.S.S.S.S.S.V.S.S.V.S.V.V.V.S.S.S.S.S.Z.Z.V.Z.V.V.",
"S.S.V.V.S.S.S.S.S.V.V.V.V.S.S.S.C.C.C.C.C.C.C.V.C.C.C.C.C.C.V.V.Z.Z.V.V.Z.Z.Z.Z.V.V.V.V.V.V.V.V.V.V.V.V.V.V.V.V.V.V.V.V.V.V.V.V.V.V.V.V.V.V.V.V.V.V.V.V.V.V.V.V.V.V.V.V.V.V.V.V.V.V.V.V.V.V.V.V.V.V.V.V.V.V.V.V.V.V.V.V.V.V.V.V.V.V.V.V.V.V.V.V.V.V.V.V.V.V.V.V.V.V.V.V.V.V.V.V.V.V.V.V.V.V.V.V.V.V.V.V.V.V.V.V.V.V.V.V.V.V.V.V.V.V.V.V.V.V.V.V.S.S.V.V.V.V.S.S.C.C.C.C.C.C.C.C.S.S.Z.S.C.C.C.C.G.n.n.k.l.l.' { 7X8XwX9X9X9X9X . . . . . . . .9X .9X9X9X9X9X9X9X9X9X9X9X9X9X9X9X9X9XqXqXqXqXqXPXPXPXPXPXLXeX].-X*X*Xg.d.i.p.p.t.=.-.-.t.y.y.W.W.W.W.W.W.W.W.W.W.Z.V.V.V.V.V.C.C.C.C.C.C.C.N.N.N.S.C.C.V.S.V.S.V.S.V.S.V.S.V.S.S.S.S.V.V.V.S.S.S.S.S.Z.Z.Z.Z.V.V.",
"Z.Z.Z.Z.Z.Z.Z.Z.Z.Z.Z.Z.Z.Z.Z.Z.Z.Z.Z.Z.Z.Z.Z.Z.Z.Z.Z.Z.Z.Z.Z.Z.Z.Z.Z.Z.V.V.Z.Z.Z.Z.V.V.V.V.Z.Z.Z.Z.Z.Z.Z.Z.Z.S.S.S.Z.Z.Z.Z.Z.Z.V.V.V.V.V.V.V.V.V.V.V.V.V.V.V.V.V.V.Z.Z.V.V.V.V.V.V.V.Z.Z.Z.V.V.V.V.V.V.V.V.Z.Z.Z.Z.V.V.V.V.V.V.V.V.V.V.V.V.V.V.V.V.V.V.V.V.V.V.V.V.V.V.V.V.V.V.V.V.V.V.V.V.V.V.V.V.V.V.V.V.V.V.N.N.N.N.N.N.V.V.Z.S.Z.Z.Z.Z.Z.Z.S.S.S.S.S.S.C.C.n.n.C.C.C.H.M.C.S.B.S.A.n.n.H.b.U.U.J.l.:X{ [ | 9X . . . . . . .........X.X.X......... . . . . .9X9X9X9X9X9X9X9X9X9X9XwXwX9X9XwXqXPXPXPXPXmXeXf.g.d.d.y.d.p.p.t.t.t.e.e.e.e.e.e.p.i.y.W.W.W.W.W.W.M.M.Z.Z.C.C.M.n.n.n.B.V.Z.Z.N.C.n.C.C.S.V.S.V.V.V.V.V.V.V.V.V.Z.Z.Z.Z.Z.Z.Z.Z.Z.Z.Z.Z.Z.Z.Z.Z.",
"Z.Z.Z.Z.Z.Z.Z.Z.Z.Z.Z.Z.Z.Z.Z.Z.Z.Z.Z.Z.Z.Z.Z.Z.Z.Z.Z.Z.Z.Z.Z.Z.Z.Z.Z.V.V.V.V.Z.Z.Z.Z.V.V.Z.Z.Z.Z.Z.Z.Z.Z.Z.Z.Z.S.S.Z.Z.Z.Z.Z.Z.V.V.V.V.V.V.V.V.V.V.V.V.V.V.V.V.V.V.Z.Z.Z.V.V.V.V.V.V.Z.Z.V.V.V.V.V.V.V.V.V.Z.Z.Z.Z.V.V.V.V.Z.Z.V.V.V.V.V.V.V.V.V.V.V.V.V.V.V.V.V.V.V.V.V.V.V.V.V.V.V.V.V.V.V.V.V.V.V.V.Z.Z.Z.Z.V.V.V.V.V.V.Z.Z.Z.Z.Z.Z.Z.Z.Z.Z.S.S.S.S.S.S.C.C.n.n.C.n.H.H.M.C.F.S.S.S.n.n.H.H.J.x.c.{ 8X8X . . . . . . .....X.X.X.X.X.X.X.X.X.X.X.} ........ . . . .9X9X9X9X9X9X9X9X9X9X9X9X9XqXqXqXPXPXPXLXLXLXnX;X;X;X~.i.i.a.u.r.r.r.r.r.r.e.e.e.t.t.y.E.~./.W.W.W.M.M.M.M.C.C.C.Z.Z.A.Z.V.C.n.C.C.S.V.S.V.V.V.V.V.V.V.V.V.Z.Z.Z.Z.Z.Z.Z.Z.Z.Z.Z.Z.Z.Z.Z.Z.",
"Z.Z.Z.Z.Z.Z.Z.Z.Z.Z.Z.Z.Z.Z.Z.Z.Z.Z.Z.Z.Z.Z.Z.Z.Z.Z.Z.Z.Z.Z.Z.Z.Z.V.V.V.V.V.Z.Z.Z.Z.V.V.V.V.Z.Z.Z.Z.Z.Z.Z.Z.Z.Z.S.S.S.Z.S.S.S.S.V.V.V.V.V.V.V.V.V.V.V.V.V.V.V.V.V.V.Z.Z.Z.Z.V.V.V.V.Z.Z.Z.Z.V.V.Z.Z.V.V.V.V.V.V.Z.Z.Z.V.Z.Z.Z.Z.V.V.V.V.V.V.V.V.V.V.V.V.V.V.V.V.V.V.V.V.V.V.V.V.V.V.V.V.V.V.V.V.V.V.V.V.V.V.Z.Z.V.V.Z.Z.Z.Z.Z.Z.Z.Z.S.Z.S.S.Z.S.S.S.S.S.S.S.C.C.S.C.C.C.M.M.C.C.C.G.n.n.n.n.n.z.c.:X,X8XwX9X . .......X.X.X.X.X.X.} } [ [ | 8X| [ [ [ } [ [ [ } } } ...... . . .9X .9X9X9X9X9X9X9XwXwXqXqXPXPXPXPXmX9.9.f.d.d.i.i.u.r.r.r.r.r.s.r.q.&.&.&.=.t.p.E.E.W.W.W.W.W.Z.m.m.V.Z.Z.Z.Z.Z.S.C.C.C.S.S.S.V.S.V.S.S.S.S.S.S.Z.Z.Z.Z.S.Z.Z.Z.Z.Z.Z.Z.Z.Z.Z.Z.",
"Z.Z.Z.Z.Z.Z.Z.Z.Z.Z.Z.Z.Z.Z.Z.Z.Z.Z.Z.Z.Z.Z.Z.Z.Z.Z.Z.Z.Z.Z.Z.Z.Z.Z.Z.Z.Z.Z.Z.Z.Z.Z.Z.Z.Z.Z.Z.Z.Z.Z.Z.Z.Z.Z.Z.Z.S.S.Z.Z.S.S.S.S.V.V.V.V.V.V.V.V.V.V.V.V.V.V.V.V.V.V.Z.Z.Z.Z.V.V.V.V.Z.Z.Z.Z.V.V.Z.Z.Z.Z.V.V.V.V.Z.Z.V.V.Z.Z.Z.Z.Z.Z.Z.Z.Z.Z.Z.Z.Z.Z.Z.Z.V.V.V.V.V.V.V.V.V.V.V.V.V.V.V.V.V.V.V.V.V.V.V.V.V.Z.Z.Z.Z.Z.Z.Z.Z.Z.Z.Z.Z.Z.Z.Z.Z.Z.Z.Z.Z.Z.Z.S.Z.Z.Z.C.M.M.C.C.C.C.C.n.n.n.n.n.U.J.z.l.,X8XwX9X9X .....X.X.X.X.X.X.| | 8X8X8X8X8X0X0X0X0X0X0X8X7X,X,X[ { { X.X.X... . . . .9X9X9X9X9X9X9X9X9XqXqXqXqXqXPXPXLXmX].;X-X;X=XE.u.u.s.s.s.s.r.r.e.&.&.&.e.e.=.=.t.y.E.W.W.W.W.W.Q.!.Z.Z.Z.Z.S.S.V.S.S.S.C.C.C.C.S.S.S.S.S.Z.Z.Z.Z.Z.Z.Z.Z.Z.Z.Z.Z.Z.Z.Z.Z.Z.",
"Z.Z.Z.Z.Z.Z.Z.Z.Z.Z.Z.Z.Z.Z.Z.Z.Z.Z.Z.Z.Z.Z.Z.Z.Z.Z.Z.Z.Z.Z.Z.Z.Z.Z.Z.Z.Z.Z.Z.Z.Z.Z.Z.Z.Z.Z.Z.Z.Z.Z.Z.Z.Z.Z.Z.Z.Z.Z.Z.Z.Z.Z.Z.Z.V.V.V.V.V.V.V.V.Z.Z.V.V.V.V.Z.Z.Z.Z.Z.Z.Z.Z.Z.Z.Z.Z.Z.Z.Z.Z.Z.Z.Z.Z.Z.Z.Z.Z.Z.Z.Z.Z.Z.Z.Z.Z.Z.Z.Z.Z.Z.Z.Z.Z.Z.Z.Z.Z.V.V.V.V.Z.Z.V.V.V.V.Z.Z.Z.Z.V.V.V.V.V.V.V.V.Z.Z.Z.Z.Z.Z.Z.Z.Z.Z.Z.Z.Z.Z.Z.Z.Z.Z.Z.Z.Z.Z.Z.Z.Z.S.S.S.S.S.Z.C.M.M.M.C.Z.C.C.C.F.n.b.J.c.l.c.,XwX9X9X . ...X.X.X.X.} | | 8X8X8X0X0X0X0X4X4X4X3XDX3X4X4X6X6X6X6X0X8X8X| [ [ { X... . . . . .9X9X9X9X9X9X9XwXwXqXqXPXPXPXPXLX;X-X-X*X=X=X=XE.a.a.s.s.s.s.r.q.q.q.r.e.&.&.=.=.t.y.W.W././.Q.!.Z.V.Z.V.Z.Z.S.S.C.C.C.C.S.S.S.S.S.S.Z.Z.Z.Z.Z.Z.Z.Z.Z.Z.Z.Z.Z.Z.Z.Z.",
"Z.Z.Z.Z.Z.Z.Z.Z.Z.Z.Z.Z.Z.Z.Z.Z.Z.Z.Z.Z.Z.Z.Z.Z.Z.Z.Z.Z.Z.Z.Z.Z.Z.Z.Z.Z.Z.Z.Z.Z.Z.Z.Z.Z.Z.Z.Z.Z.Z.Z.Z.Z.Z.Z.Z.Z.Z.Z.Z.Z.Z.Z.Z.Z.Z.Z.Z.Z.Z.Z.Z.Z.Z.Z.Z.Z.Z.Z.Z.Z.Z.Z.Z.Z.Z.Z.Z.Z.Z.Z.Z.Z.Z.Z.Z.Z.Z.Z.Z.Z.Z.Z.Z.Z.Z.Z.Z.Z.Z.Z.Z.Z.Z.Z.Z.Z.V.Z.Z.Z.Z.Z.V.V.Z.V.Z.Z.Z.Z.Z.Z.Z.Z.Z.Z.Z.Z.Z.Z.Z.Z.Z.Z.Z.Z.Z.Z.Z.Z.Z.Z.Z.Z.Z.Z.Z.Z.Z.Z.Z.Z.Z.Z.Z.Z.Z.Z.Z.Z.Z.Z.Z.Z.Z.C.M.M.Z.C.C.C.C.C.H.H.j.k.' >X7XwX . . .X.X.X.X.X.| | 8X8X8X8X7X6X0X4X4X3X3X3X3X1X1X1X3X1X2X2X1X4X5X4X4X0X0X7X,X[ [ [ |  . . . . . .9X9X9X9X9X9X9XqXqXqXPXPXPXnX9.f.y.y.u.u.s.s.s.s.s.s.s.s.s.r.q.r.q.q.&.&.&.&.=.=.-.y.W.W.Q.Q.Q.Z.Z.V.Z.Z.S.C.C.C.C.C.n.S.S.S.S.Z.Z.Z.Z.Z.Z.Z.Z.Z.Z.Z.Z.Z.Z.Z.Z.",
"Z.A.A.Z.Z.Z.Z.Z.Z.Z.Z.Z.Z.Z.Z.Z.Z.Z.Z.Z.Z.Z.Z.Z.Z.Z.Z.Z.Z.Z.Z.Z.Z.Z.Z.Z.Z.Z.Z.Z.Z.Z.Z.Z.Z.Z.Z.Z.Z.Z.Z.Z.Z.Z.Z.Z.Z.Z.Z.Z.Z.Z.Z.Z.Z.Z.Z.Z.Z.Z.Z.Z.Z.Z.Z.Z.Z.Z.Z.Z.Z.Z.Z.Z.Z.Z.Z.Z.Z.Z.Z.Z.Z.Z.Z.Z.Z.Z.Z.Z.Z.Z.Z.Z.Z.Z.Z.Z.Z.Z.Z.Z.V.V.V.V.V.V.Z.Z.Z.V.V.V.Z.Z.Z.Z.Z.Z.Z.Z.Z.Z.Z.Z.Z.Z.Z.Z.Z.Z.Z.Z.Z.Z.Z.Z.Z.Z.Z.Z.Z.Z.Z.Z.Z.Z.Z.Z.Z.Z.Z.Z.Z.Z.Z.Z.Z.Z.Z.Z.Z.Z.Z.C.M.M.C.C.C.n.n.n.n.U.K.c.[ 8X9X .......X.X.X.} | 8X0X0X0X4X4X4X5X4X4X4X3XcXvXbXdXxXxXxXdX2X2X2XdXdX1X2X2X2X1X4X4X6X,X[ [ } | .. . .9X9X9X9X9X9X9XwXwXqXqXPXPXJX+X-.-.*.*.q.q.q.q.q.q.q.q.s.s.s.s.q.q.r.r.r.q.q.&.&.&.=.-.y.W.W.W.W.Q.Q.Z.V.C.C.C.n.n.C.C.S.S.Z.Z.Z.Z.Z.Z.Z.Z.Z.Z.Z.Z.Z.Z.Z.Z.Z.Z.",
"Z.A.A.Z.Z.Z.Z.Z.Z.Z.Z.Z.Z.Z.Z.Z.Z.Z.Z.Z.Z.Z.Z.Z.Z.Z.Z.Z.Z.Z.Z.Z.Z.Z.Z.Z.Z.Z.Z.Z.Z.Z.Z.Z.Z.Z.Z.Z.Z.Z.Z.Z.Z.Z.Z.Z.Z.Z.Z.Z.Z.Z.Z.Z.Z.Z.Z.Z.Z.Z.Z.Z.Z.Z.Z.Z.Z.Z.Z.Z.Z.Z.Z.Z.Z.Z.Z.Z.Z.Z.Z.Z.Z.Z.Z.Z.Z.Z.Z.Z.Z.Z.Z.Z.Z.Z.Z.Z.Z.Z.Z.Z.V.V.V.V.V.V.Z.Z.Z.V.V.V.Z.Z.Z.Z.Z.Z.Z.Z.Z.Z.Z.Z.Z.Z.Z.Z.Z.Z.Z.Z.Z.Z.Z.Z.Z.Z.Z.Z.Z.Z.Z.Z.Z.Z.Z.Z.Z.Z.Z.Z.Z.Z.Z.Z.Z.Z.Z.Z.Z.Z.Z.Z.Z.Z.Z.C.n.n.n.n.T.z.:X7XwX9X ...X.X.X.X.} 8XwX0X0X0X4X3X3X3X4X5X5X5X3X3X2XdXxXxXxXxXxXtXtXtXtXtXeXeXeXeXeXeX2X<X2X4X4X,X[ [ | |  .9X9X .9X9X9X9X9XwXwX8XqX0XKXKXnX].Q.f.i.a.s.s.q.q.q.q.q.q.q.q.r.r.r.r.r.q.q.q.q.&.&.&.=.-.y.W.W.W.W.W.Q.Z.Z.C.C.C.C.C.S.S.Z.Z.Z.Z.Z.Z.Z.Z.Z.Z.Z.Z.Z.Z.Z.Z.Z.Z.",
"F.A.A.A.A.Z.Z.Z.A.A.Z.Z.Z.Z.Z.Z.Z.Z.Z.Z.A.A.Z.Z.Z.Z.A.Z.Z.Z.Z.Z.Z.Z.Z.A.A.A.A.A.Z.Z.Z.Z.Z.A.Z.Z.Z.Z.Z.Z.Z.Z.Z.Z.Z.Z.Z.Z.Z.Z.Z.Z.Z.Z.Z.Z.Z.Z.Z.Z.Z.Z.Z.Z.Z.Z.Z.Z.Z.Z.Z.Z.Z.Z.Z.Z.Z.Z.Z.Z.Z.Z.Z.Z.Z.Z.Z.Z.Z.Z.Z.Z.Z.Z.Z.Z.Z.Z.Z.Z.Z.Z.Z.Z.Z.Z.Z.Z.Z.Z.Z.Z.Z.Z.Z.Z.Z.Z.Z.Z.Z.Z.Z.Z.Z.Z.Z.Z.Z.Z.Z.Z.Z.Z.Z.Z.Z.Z.Z.Z.Z.Z.Z.Z.Z.Z.Z.Z.Z.Z.Z.Z.Z.Z.Z.Z.A.A.A.A.Z.Z.Z.S.A.A.G.G.G.U.J.l.c.>X8XwX9X..X.X.X.} | 8X8X0X0XDXcXcXbXvXvX3X3X1X1X1X2X2X2X2XtXtXxXtXeXtXtX+X+X X[.[.[.[.[.[.[.[.U.U.K.<X>X>X,X,X[ | | |  . . .9X9X9X| 8X8XqXPXPXPXLXnXQ.d.*X=Xa.a.s.s.q.q.q.q.q.*.q.q.q.q.q.r.r.r.q.q.&.&.&.=.=.-.W./.W.W.W.Q.D.C.Z.C.C.C.Z.A.Z.Z.Z.Z.Z.Z.Z.Z.Z.Z.Z.Z.Z.Z.Z.Z.Z.",
"F.A.A.A.A.Z.Z.Z.A.A.A.A.Z.Z.A.Z.Z.Z.Z.Z.A.Z.Z.Z.Z.Z.Z.Z.Z.Z.Z.Z.Z.Z.Z.Z.A.A.Z.A.Z.Z.Z.Z.Z.A.Z.Z.Z.Z.Z.Z.Z.Z.Z.Z.Z.Z.Z.Z.Z.Z.Z.Z.Z.Z.Z.Z.Z.Z.Z.Z.Z.Z.Z.Z.Z.Z.Z.Z.Z.Z.Z.Z.Z.Z.Z.Z.Z.Z.Z.Z.Z.Z.Z.Z.Z.Z.Z.Z.Z.Z.Z.Z.Z.Z.Z.Z.Z.Z.Z.Z.Z.Z.Z.Z.Z.Z.Z.Z.Z.Z.Z.Z.Z.Z.Z.Z.Z.Z.Z.Z.Z.Z.Z.Z.Z.Z.Z.Z.Z.Z.Z.Z.Z.Z.Z.Z.Z.Z.Z.Z.Z.Z.Z.Z.Z.Z.Z.Z.Z.Z.Z.Z.Z.Z.Z.Z.A.A.A.A.Z.Z.Z.S.G.S.G.G.n.n.z.c.,X8XqX9X..X.X.X.} 8X8X0X0X0X3X3XcXvXvXbXvXvXvXdXdXdXxX2XxXtXtXeXtXtXeX+X X X_.[.L.A.A.Q.[.[.Q.Q.[.L.U.U.K.<X<X<X>X[ [ [ | |  . . . .9XwXwXqXqXPXPXPXLX[.9.f.i.t.s.s.w.s.s.q.q.r.q.q.*.%.%.q.q.q.q.r.r.r.r.r.r.e.t.=.-.W./.W.M.M.M.D.D.C.Z.Z.Z.V.Z.Z.Z.Z.Z.Z.Z.Z.Z.Z.Z.Z.Z.Z.Z.Z.",
"F.A.A.A.A.A.Z.Z.Z.Z.Z.Z.Z.Z.Z.Z.Z.Z.Z.Z.Z.Z.Z.Z.Z.Z.A.A.Z.Z.Z.Z.Z.Z.Z.Z.Z.Z.Z.Z.Z.Z.Z.Z.A.Z.Z.Z.Z.Z.Z.Z.Z.Z.Z.Z.Z.Z.Z.Z.Z.Z.Z.Z.Z.Z.Z.Z.Z.Z.Z.Z.Z.Z.Z.Z.Z.Z.Z.Z.Z.Z.Z.Z.Z.Z.Z.Z.Z.Z.Z.Z.Z.Z.Z.Z.Z.Z.Z.Z.Z.Z.Z.Z.Z.Z.Z.Z.Z.Z.Z.Z.Z.Z.Z.Z.Z.Z.Z.Z.Z.Z.Z.Z.Z.Z.Z.Z.Z.Z.Z.Z.Z.Z.Z.Z.Z.Z.Z.Z.Z.Z.Z.Z.Z.Z.Z.Z.Z.Z.Z.Z.Z.Z.Z.Z.Z.Z.Z.Z.A.A.A.A.Z.Z.Z.Z.Z.Z.A.A.Z.Z.Z.G.G.J.L.U.J.1.c.,X8X9X ...X.X.} | 8X0X0X0X6X3X3X3X3X3XvXvXvXdXdXxXxXxXxXxXxXxXeXeXeX].].[.[.[.[.[.Q.A.S.S.Q.Q.Q.Q.Q.Q.Q.Q.[.[.[.U.R.>X>X[ ,X| |  . . . .9X9X9XqXqXPXPXJXU.;.#.;.*.*.$.$.*.*.*.&.q.r.r.q.q.q.q.q.%.%.%.q.q.q.q.q.q.e.=.=.-.y.~./.W.M.Z.D.M.D.D.Z.V.Z.Z.Z.Z.Z.Z.Z.Z.Z.Z.Z.Z.Z.Z.Z.Z.",
"A.A.A.A.A.A.A.A.A.A.A.A.A.A.A.Z.Z.Z.Z.Z.Z.Z.Z.Z.Z.Z.Z.A.Z.Z.Z.Z.Z.Z.Z.Z.Z.Z.Z.Z.Z.Z.Z.Z.Z.A.Z.Z.Z.Z.Z.Z.Z.Z.Z.Z.Z.Z.Z.Z.Z.Z.Z.Z.Z.Z.Z.Z.Z.Z.Z.Z.Z.Z.Z.Z.Z.Z.Z.Z.Z.Z.Z.Z.Z.Z.Z.Z.Z.Z.Z.Z.Z.Z.Z.Z.Z.Z.Z.Z.Z.Z.Z.Z.Z.Z.Z.Z.Z.Z.Z.Z.Z.Z.Z.Z.Z.Z.Z.Z.Z.Z.Z.Z.Z.Z.Z.Z.Z.Z.Z.Z.Z.Z.Z.Z.Z.Z.Z.Z.Z.Z.Z.Z.Z.Z.Z.Z.Z.Z.Z.Z.Z.Z.Z.Z.Z.Z.Z.Z.A.A.A.A.Z.Z.Z.Z.Z.Z.A.A.A.A.G.G.U.J.J.J.z.c.,XwX9X..X.X.X.| 8XqX0XDX6X3X3X3X3XvX1X3X3XvXdXdXxXzXxXxXxXxXxXfXeXeX].].].[.[.[.[.Q.Q.!.Q.Q.Q.Q.Q.Q.Q.Q.^.^.^.^.g.f.U.z.c.c.>X,X7X|  . . . .9X9XwX8X,X4XDXKXtX9.9.-.w.*.*.*.*.$.$.*.$.%.%.q.q.q.q.q.q.q.%.%.*.q.q.r.q.e.e.=.=.y.~.W.W.W.Q.Z.M.Z.Z.Z.Z.Z.Z.Z.A.A.A.A.Z.Z.Z.Z.Z.Z.Z.S.",
"A.A.A.A.A.A.A.A.A.A.A.A.A.A.A.A.A.A.A.A.A.A.A.A.D.D.D.D.A.A.A.A.A.A.A.A.A.D.D.D.A.A.A.A.A.A.A.A.Z.Z.Z.Z.Z.Z.Z.Z.Z.Z.Z.Z.Z.Z.Z.Z.Z.Z.Z.Z.Z.Z.Z.Z.Z.Z.Z.Z.Z.Z.Z.Z.Z.Z.Z.Z.Z.Z.Z.Z.Z.Z.Z.Z.Z.A.A.A.Z.Z.Z.Z.Z.Z.Z.Z.Z.Z.Z.Z.Z.Z.Z.Z.Z.Z.Z.Z.Z.Z.Z.Z.Z.Z.Z.Z.Z.Z.Z.Z.Z.Z.Z.Z.Z.Z.A.A.Z.Z.Z.Z.Z.Z.A.A.A.A.Z.Z.Z.Z.A.A.Z.Z.Z.Z.Z.Z.Z.Z.A.A.A.A.A.A.A.A.A.A.A.A.A.A.F.G.n.J.J.l.c.,X8XwX..X.X.X.| 8X0X0XDXDXcXcX3X3X3X1X3X3XvXvXxXxXxXzXxXnXfXfXfXfX].].].].'.'.'.'.^.^.^.^.^.Q.Q.Q.Q.Q.Q.Q.^.^.^.^.d.f.f.Q.S.n.K.R.>X,X| |  . . .9X .| | 8XqXPXPXLXnXQ.*X=Xg.i.p.t.e.e.*.*.%.%.%.%.%.q.q.q.q.q.*.%.%.%.$.*.*.e.=.=.y.^.~./.Q.Q.Z.Z.Z.Z.Z.Z.Z.Z.Z.Z.Z.Z.Z.Z.Z.Z.Z.S.S.S.",
"A.A.A.A.A.A.A.A.F.F.F.F.F.F.F.F.A.A.A.A.A.A.A.A.D.D.D.D.A.A.A.A.A.A.A.A.A.A.D.D.A.A.A.A.A.A.A.A.A.A.A.A.Z.A.Z.Z.Z.Z.Z.Z.A.A.A.A.Z.Z.Z.Z.Z.Z.Z.Z.Z.Z.Z.Z.Z.Z.Z.Z.Z.Z.Z.Z.Z.Z.Z.Z.Z.Z.Z.Z.Z.A.A.A.Z.Z.Z.Z.A.Z.A.A.Z.A.A.A.Z.Z.Z.Z.A.Z.A.A.Z.A.A.A.Z.Z.Z.Z.Z.Z.A.A.Z.Z.Z.Z.Z.Z.A.A.Z.Z.Z.Z.Z.Z.A.A.A.A.Z.Z.Z.Z.A.A.A.A.A.A.Z.Z.A.Z.A.A.A.A.A.A.A.A.A.A.A.A.A.F.F.G.n.U.z.l.>XqXwX| X.X.} | wX0X0XDXcXcXcXvXvXvXvXvXvXvXvXdXxXxXxXxXnXfXeXeX].].[.[.].'.'.^.*X*X*X*X^.^.^.^.^.^.^.Q.^.~.~.~.~.~.~.~.d.~.W.W.B.j.c.>X[ | |  . .9X . .9X9XqXqXPXPXLX[.9.y.t.w.w.t.p.s.a.a.p.w.q.%.%.%.@.%.%.q.w.w.q.q.*.*.*.*.*.*.=.y.~.~.^.Q.Z.V.Z.Z.Z.A.Z.Z.Z.Z.Z.Z.A.A.A.A.Z.Z.Z.Z.",
"A.A.A.A.A.A.A.A.A.A.A.A.A.A.A.A.A.A.A.A.A.A.A.A.A.A.D.D.A.A.A.A.A.A.A.A.A.A.D.D.A.A.A.A.A.A.A.A.A.A.A.A.A.A.A.A.Z.A.Z.Z.A.A.A.A.A.Z.A.A.Z.A.Z.Z.Z.Z.Z.Z.Z.Z.A.A.Z.Z.Z.Z.A.A.A.A.Z.Z.Z.Z.Z.Z.A.Z.Z.Z.Z.Z.Z.Z.Z.Z.Z.Z.A.Z.Z.Z.Z.Z.Z.Z.Z.Z.Z.Z.A.Z.Z.Z.Z.Z.Z.Z.Z.Z.Z.Z.Z.Z.Z.Z.Z.A.Z.Z.Z.Z.Z.Z.Z.A.A.A.A.Z.Z.Z.Z.A.A.A.A.A.Z.Z.Z.Z.A.A.A.A.A.A.A.A.A.A.A.A.F.F.F.G.n.J.c.>X8XwX| X.} | wXwX0X4X3X3X3X3X3XvXvXbXbXbXzXzXzXxXxXxXfXfXfXeX].].[.[.[.[.'.'.^.^.^.*X*X*X^.^.^.^.^.^.^.^.~.~.d.d.~.~.~.~.~.~.~.~.f.8.0.x.c.>X,X8XwX9X9X . . .wX8X0XKXFX].;.;.*.$.$.$.$.$.%.q.w.w.w.w.q.q.*.%.%.@.$.%.%.q.q.q.q.*.$.$.*.*.-.y.W.Q.Q.Z.Z.A.G.G.G.G.Z.Z.Z.Z.G.G.G.G.G.Z.G.G.",
"A.A.A.A.A.F.F.F.A.A.A.A.A.A.A.A.A.A.A.A.A.A.A.A.A.A.D.D.A.A.A.A.A.A.A.A.A.A.D.D.A.A.A.A.A.A.A.A.Z.A.A.A.A.A.A.A.A.A.Z.Z.Z.A.A.A.D.D.D.D.A.A.D.D.D.D.D.D.D.D.D.A.A.A.D.D.D.D.D.D.A.A.A.A.A.A.D.D.Z.Z.Z.Z.Z.Z.Z.Z.Z.Z.A.A.Z.Z.Z.Z.Z.Z.Z.Z.Z.Z.A.A.Z.Z.Z.Z.Z.Z.Z.Z.A.A.D.D.D.D.A.D.A.A.A.D.D.D.D.D.A.A.A.A.A.A.A.A.A.A.A.A.Z.Z.Z.Z.A.A.A.D.D.D.A.A.A.A.A.A.F.F.F.G.U.k.' 7XwX| X.} | wXqX0X6X3XcX3X4X1X1XvXxXxXxXxXxXzXzXxXfXeXeXfX].].].].'.'.[./.'.^.^.^.^.*X*X^.^.^.^.^.^.^.^.*Xd.d.d.d.~.~.E.E.~.~.~.d.y.-.8.n.x.c.>X,X8XwXwX . . . .| ,X>X2XxX0.;.;.*.*.$.$.$.%.%.%.%.%.%.%.q.w.w.w.*.%.%.$.@.%.%.q.w.w.*.*.*.*.-.f.^.Q.A.Z.G.G.G.G.G.A.A.G.G.Z.A.A.A.A.G.G.Z.",
"A.A.A.A.A.A.A.A.A.A.A.A.A.A.A.A.A.A.A.A.A.A.A.A.A.A.A.A.A.A.A.A.A.A.A.A.A.A.A.A.A.A.A.A.A.A.A.A.A.A.A.A.A.A.A.A.A.A.A.A.A.A.A.A.A.A.D.D.D.D.D.D.D.D.D.D.D.D.D.D.D.D.D.D.D.D.D.D.Z.Z.D.D.D.D.D.F.D.A.A.A.A.A.A.A.A.A.A.A.A.A.A.A.Z.Z.Z.Z.Z.Z.Z.Z.Z.Z.Z.Z.A.A.D.D.D.D.D.D.D.D.D.D.D.D.D.D.D.D.A.A.A.A.A.A.A.A.A.A.A.A.A.A.A.A.A.A.G.G.D.D.D.D.A.A.S.).S.A.(.F.(.n.z.' 8XwX} X.} wXqX0X0X4X4X4X3XcX3X1X1XdXxXxXxXxXxXfXfXfXfX].].].].'.'.[.[.[././.^.^.^.^.*X^.^.^.^.~.Q.Q.f.d.d.d.d.d.d.d.i.i.i.i.~.d.f.y.9.m.V.B.U.K.c.:X>X7X8X8X . ...} [ [ 0XPXLXLX].f.^.=Xa.p.q.q.h.%.%.%.%.%.%.%.*.w.w.w.*.*.%.%.$.%.%.%.*.q.*.*.-.^.Q.Z.C.G.A.A.G.Z.Z.G.G.A.Z.Z.Z.Z.Z.Z.G.G.",
"A.A.A.A.A.A.A.A.A.A.A.A.A.A.A.A.A.A.A.A.A.A.A.A.A.A.A.A.A.A.A.A.A.A.A.A.A.A.A.A.A.A.A.A.A.A.A.A.A.A.A.A.A.A.A.A.A.A.A.A.A.A.A.A.A.A.D.D.D.D.D.D.Z.Z.Z.Z.Z.Z.D.Z.Z.D.Z.Z.Z.Z.Z.Z.Z.Z.D.D.D.D.D.F.A.A.A.A.A.A.A.A.A.A.A.A.A.A.A.A.Z.Z.Z.Z.Z.Z.Z.Z.Z.Z.Z.Z.D.D.D.D.D.D.D.D.D.D.D.D.D.D.D.D.D.D.A.A.A.A.A.A.A.A.A.A.A.A.A.A.A.A.A.F.Z.C.G.D.D.A.A.A.A.S.S.L.L.n.L.U.c.7XqX| X.X.8XqXPX0X3X4X5X5X4X1XvXdXdXdXxXxXxXxXfXfXfX$X].].'.'.'.'.^.^.^.^.^.^.^.^.^.^.^.^.^.^.~.~.~.f.f.f.d.d.d.d.d.i.i.i.i.i.d.f.f.f.W.Q.!.F.L.U.J.c.c.>X,X8X|  .......wXqXPXPXPXLX[.9.d.a.a.g.g.g.g.a.w.q.h.%.%.%.%.$.%.*.w.w.w.q.%.%.%.$.O.%.*.w.y.Q.V.V.G.A.A.G.Z.G.G.G.A.Z.Z.Z.Z.Z.Z.G.G.",
"A.A.A.A.A.A.A.A.A.A.A.A.A.A.A.A.A.A.A.A.A.A.A.A.A.A.A.A.A.A.A.A.A.A.A.A.A.A.A.A.A.A.A.A.A.A.A.A.A.A.A.A.A.A.A.A.A.A.A.A.A.A.A.A.A.A.A.A.D.D.D.D.Z.Z.Z.Z.Z.D.Z.Z.Z.Z.Z.Z.Z.Z.Z.Z.A.A.A.D.D.F.F.F.A.A.A.A.A.A.A.A.A.A.A.A.A.A.A.A.A.A.A.A.D.D.D.D.Z.Z.Z.A.D.D.D.D.D.D.D.D.D.D.D.D.D.D.D.D.A.A.A.A.A.A.A.A.A.A.A.A.A.A.A.A.A.A.A.F.Z.C.Z.D.A.D.A.A.F.B.L.(.S.U.U.z.>XqX8X[ } | qXqXPXKX6X3X4X3XcXbXvXdXxXxXxXxXxXxXfXfX].].].'.'.'.^.^.^.^.^.^.^.^.^.^.^.^.^.~.~.~.~.~.~.d.d.d.d.d.d.d.d.i.i.i.i.i.y.f.f.W.Q.!.!.!.!.n.n.z.c.' { ,X8XwX . . .9X8X7X0XPXLX X9.f.t.w.*.q.w.w.w.w.a.a.a.w.*.$.@.@.@.%.$.%.q.w.w.q.%.%.%.%.*.;.W.!.!.Z.A.A.F.G.G.G.G.Z.Z.A.Z.A.Z.Z.Z.G.",
"F.F.F.F.F.F.F.F.A.A.A.A.F.F.F.F.A.A.A.A.A.A.A.A.A.A.A.A.A.A.A.A.A.A.A.A.A.A.A.A.A.A.A.A.A.A.A.A.A.A.A.A.A.A.A.A.A.A.A.A.A.A.A.A.A.A.A.A.D.D.D.D.D.D.D.D.D.D.D.D.A.A.A.A.A.A.A.A.A.D.D.D.D.D.F.F.A.A.A.A.A.A.A.A.A.A.A.A.A.A.A.A.A.A.A.A.D.D.D.D.A.A.A.A.D.D.D.D.D.D.D.D.D.D.D.D.D.D.D.D.A.A.A.A.A.A.A.A.A.A.A.A.A.A.A.A.A.A.A.F.G.G.A.A.A.A.A.G.A.Z.(.A.U.U.z.c.0X8X[ [ 8XqX0XIX3X3X3X3XcXcXbXbXzXzXzXxXxXxXnXnXfXeX].].'.'.'.'.^.^.^.^.^.^.^.^.^.^.^.^.~.~.~.~.~.~.~.d.d.d.d.d.d.d.d.d.i.y.y.y.~.W.W.Q.Q.D.D.D.A.C.S.U.z.l.l.:X,X8X8X9X . .| | ,X4X3X<X>.#.#.*.$.$.$.$.%.%.*.w.q.w.w.w.w.q.%.@.$.@.@.$.%.%.*.w.w.w.*.#.-.W.!.Z.F.A.A.G.G.G.G.G.A.A.A.A.Z.Z.Z.G.",
"A.A.A.A.F.F.F.F.A.A.A.A.A.A.F.F.F.F.A.A.A.A.F.F.F.A.A.A.F.F.F.F.A.A.A.A.A.A.A.A.F.F.A.A.A.A.F.F.F.A.A.A.F.F.F.F.A.A.A.A.A.A.A.A.F.F.A.A.F.F.F.F.F.F.D.D.D.D.D.D.F.F.D.D.D.D.F.F.Z.Z.D.D.F.D.D.D.A.A.A.A.A.A.A.A.F.F.A.A.A.A.F.F.D.D.Z.Z.D.D.D.D.Z.Z.Z.Z.D.D.D.D.D.D.D.D.D.D.F.F.F.F.F.F.A.A.A.F.F.F.F.F.F.F.F.F.F.F.F.F.A.A.A.F.G.G.A.A.A.F.G.G.Z.F.!.S.I.K.l.>X7X{ [ 8XqX0XIXDX3X3X3X3XcXvXbXbXzXzXzXzXnXfXnXnXeX].].-X'.-X'.'.*X^.^.^.^.^.^.^.^.^.*X*X^.~.~.~.~.~.~.d.d.d.d.d.i.d.d.y.y.y.f.W.^.Q.Q.Q.D.D.M.M.A.Z.A.L.U.J.z.c.' { [ | |  ...| [ [ 6XDXtX9.-.w.*.*.*.$.$.@.@.@.@.@.@.$.%.w.w.w.w.*.%.$.@.@.@.@.%.*.w.w.-.W./.Z.!.A.A.G.G.G.G.A.A.A.A.A.A.A.G.G.",
"F.F.F.F.F.F.F.F.F.F.F.F.F.F.F.F.F.F.A.F.A.A.F.F.F.A.A.A.F.F.F.F.F.F.A.A.A.A.A.A.F.F.A.F.A.A.F.F.F.A.A.A.F.F.F.F.A.F.A.A.A.A.A.A.F.F.A.A.F.F.F.F.F.F.D.D.D.D.D.D.F.D.D.D.D.F.F.F.D.D.F.F.D.D.D.D.F.F.A.A.A.A.A.A.F.F.A.F.A.A.F.F.D.D.D.D.F.F.F.F.Z.Z.Z.D.F.D.D.D.D.D.D.D.D.D.F.F.F.F.F.F.A.A.F.F.F.F.F.F.A.A.F.F.F.F.F.F.A.A.F.F.G.F.F.!.F.A.G.G.D.D.A.A.U.l.' 8X[ { 8XqX0X0XcXcXcXcXcXvXvXbXbXbXzXzXnXnXfXfXfXnX].].-X-X-X-X-X*X*X'.*X*X*X*X*X*X^.^.^.^.~.~.~.~.d.d.d.d.i.i.i.i.i.i.i.y.-.-.W.Q.Q.Q.!.D.D.D.D.D.Z.!.A.S.L.U.U.J.l.' { { [ | ....} } 8XPXPXLXnXf.*X*X=Xg.i.w.w.*.$.$.@.@.@.@.$.%.*.w.w.w.w.w.%.@.@.@.@.*.#.-.Q.Q.!.A.A.A.G.G.G.G.A.A.A.A.A.A.G.G.",
"F.F.F.F.F.F.F.F.F.F.F.F.F.F.F.F.F.F.F.F.A.A.A.F.F.F.A.A.A.A.F.F.F.F.F.F.A.F.A.A.F.F.F.F.A.A.A.F.F.F.A.A.A.A.F.F.F.F.F.F.F.F.A.A.F.F.A.A.A.A.F.F.F.F.F.F.D.D.D.D.F.F.D.D.F.F.F.F.D.D.F.F.F.F.D.D.F.F.F.F.A.F.A.A.F.F.F.F.A.A.A.F.F.F.F.F.F.F.F.F.F.D.F.F.F.F.D.D.D.D.D.D.F.F.D.D.D.F.A.A.A.A.A.A.A.A.F.F.A.A.A.A.A.A.F.F.A.A.A.D.D.F.A.(.F.A.G.G.D.D.A.L.z.c.,X8X[ | 8X0X0XKXbXcXvXvXvXdXxXxXxXzXzXnXfXfXeX].].].].-X'.*X*X*X*X*X*X*X*X*X*X*X*X*X^.~.~.~.~.~.d.d.d.d.d.i.i.i.i.i.i.i.y.y.f.W.Q./.Q.!.D.D.D.D.D.D.F.A.A.A.A.A.L.U.j.l.' { [ | | ....| 8X8X0XKXmXf.-.-.p.p.p.a.a.a.w.w.*.%.%.%.%.%.@.@.%.%.%.w.w.w.w.%.@.+.+.#.-./.Q.A.A.A.G.G.G.F.F.A.A.A.A.A.G.G.",
"F.F.F.F.F.F.F.F.F.F.F.F.F.F.F.F.F.F.F.F.A.A.A.F.F.F.A.A.A.F.F.F.F.F.F.F.F.F.A.A.F.F.F.F.A.A.A.F.F.F.A.A.A.F.F.F.F.F.F.F.F.F.A.A.F.F.A.A.A.A.F.F.D.D.D.D.D.D.D.D.D.D.D.D.D.D.D.D.D.D.F.F.F.F.F.D.F.F.F.F.F.F.A.A.F.F.F.F.A.A.A.F.F.F.F.F.F.F.F.F.F.F.F.F.F.F.D.D.D.D.D.D.D.D.D.D.D.F.A.A.A.A.A.A.A.F.F.F.A.A.A.A.A.F.F.F.A.A.A.D.Z.A.!.F.F.A.G.G.D.D.D.I.l.>X8X| } 8XqX0XKXbXJXcXvXcXbXbXzXxXxXxXnXfXfXeX].].].'.-X'.^.^.^.*X*X*X*X*X^.*X*X*X*X*X*X~.~.d.d.d.d.d.d.d.d.i.i.u.i.i.p.p.y.f.W.Q.!.!.!.A.F.D.G.H.H.G.F.F.F.!.!.A.A.G.n.J.c.' { { [ |  ...| [ ,X3XxX9.#.#.*.*.$.$.$.%.*.*.w.w.w.w.*.%.%.@.@.@.@.@.%.%.*.w.p.w.*.#.;.'.Q.A.Z.A.G.G.F.F.F.F.A.A.A.A.A.G.",
"F.F.F.F.F.F.F.F.F.F.F.F.F.F.F.F.F.F.F.F.F.F.F.F.F.F.F.F.F.F.F.F.F.F.F.F.F.F.F.F.F.F.F.F.F.F.F.F.F.F.F.F.F.F.F.F.F.F.F.F.F.F.F.F.F.F.F.A.A.A.A.A.F.F.F.F.F.F.F.F.F.F.F.F.F.F.F.F.F.F.F.F.F.F.F.F.F.F.F.F.F.F.F.F.F.F.F.F.F.F.F.F.F.F.F.F.F.F.D.D.D.F.F.F.F.F.D.D.F.F.F.F.F.F.F.F.F.F.F.F.F.F.F.F.F.F.F.F.F.F.F.F.F.F.F.F.F.F.F.F.F.F.!.F.F.A.L.G.D.D.G.U.c.>X8X[ | 8X0X0XDXDXDXDXSXbXbXmXmXmXxXxXnXnXfX$X].].'.'.-X'.*X^.^.^.^.^.^.^.*X*X*X*X*X=Xd.d.d.d.d.y.y.y.i.i.i.i.i.i.i.i.p.y.~.^.Q.!.A.A.A.A.A.G.H.H.H.H.G.F.F.F.A.A.A.A.G.H.J.l.' { { [ } ....} { >X:XU.;.w +.@.+.@.$.$.$.@.+.@.@.%.w.w.w.w.*.%.%.@.@.@.@.@.%.*.*.;.-.^.Q.V.(.F.C.P.G.Z.F.A.A.A.F.F.F.F.",
"F.F.F.F.F.F.F.F.F.F.F.F.F.F.F.F.F.F.F.F.F.F.F.F.F.F.F.F.F.F.F.F.F.F.F.F.F.F.F.F.F.F.F.F.F.F.F.F.F.F.F.F.F.F.F.F.F.F.F.F.F.F.F.F.F.F.A.A.A.A.A.A.F.F.F.F.F.F.F.F.F.F.F.F.F.F.F.F.F.F.F.F.F.F.F.F.F.F.F.F.F.F.F.F.F.F.F.F.F.F.F.F.F.F.F.F.F.F.D.D.F.F.F.F.F.F.D.D.F.F.F.F.F.F.F.F.F.F.F.F.F.F.F.F.F.F.F.F.F.F.F.F.F.F.F.F.F.F.F.F.F.!.A.F.A.L.G.G.D.F.H.J.:X7X| [ 8X0X0X0X6XDX3X3XVXbXmXmXmXmXxXxXfXnXfX].].'.'.'.-X-X'.^.^.^.*X*X*X^.^.*X*X*X*X=Xd.~.~.~.d.~.d.~.~.d.i.i.i.i.i.p.y.W.~.^.Q.!.S.S.A.A.A.A.n.n.H.H.G.G.F.F.F.A.A.F.G.G.H.z.x.c.{ { { } } X.{ { { <X0.;.#.#.$.$.@.$.@.@.+.o.O.@.@.@.%.%.*.w.w.*.%.%.%.@.@.@.@.+.#.-./.A.A.A.G.G.F.G.F.F.A.A.F.F.F.F.",
"F.F.F.F.F.F.F.F.F.F.F.F.F.F.F.F.F.F.F.F.F.F.F.F.F.F.F.F.F.F.F.F.F.F.F.F.F.F.F.F.F.F.F.F.F.F.F.F.F.F.F.F.F.F.F.F.F.F.F.F.F.F.F.F.A.A.A.A.A.A.F.F.F.F.F.F.F.F.F.F.F.F.F.F.F.F.F.F.F.F.F.F.F.F.F.F.F.F.F.F.F.F.F.F.F.F.F.F.F.F.F.F.F.F.F.F.F.F.F.F.F.F.F.F.F.F.F.F.F.F.F.F.F.F.F.F.F.F.F.F.F.F.F.F.F.F.F.F.F.F.F.F.F.F.F.F.F.F.F.F.!.!.A.A.L.L.F.F.F.G.U.c.>X0X[ | qX0X0X6X3X3X3X3XcXbXmXmXmXmXzXxXfXnX;X$X].'.'.-X-X-X-X^.^.^.*X*X*X*X*X*X*X*X*X=Xd.d.d.~.d.d.d.~.i.i.i.p.p.p.t.t.~.~.^./.Q.A.S.S.A.A.A.G.G.G.G.G.G.G.G.G.G.G.G.G.G.G.G.U.J.z.c.{ { { X.} [ { ,X0XLXmX[.-.p.p.w.p.%.$.@.@.@.@.@.@.@.@.@.@.$.%.*.w.w.*.%.$.@.+.#.;.Q.!.V.A.L.G.G.L.F.F.F.F.F.F.F.F.",
"F.F.F.F.F.F.F.F.F.F.F.F.F.F.F.F.F.F.F.F.F.F.F.F.F.F.F.F.F.F.F.F.F.F.F.F.F.F.F.F.F.F.F.F.F.F.F.F.F.F.F.F.F.F.F.F.F.F.F.F.F.F.F.F.F.F.F.F.F.F.F.F.F.F.F.F.F.F.F.F.F.F.F.F.F.F.F.F.F.F.F.F.F.F.F.F.F.F.F.F.F.F.F.F.F.F.F.F.F.F.F.F.F.F.F.F.F.F.F.F.F.F.F.F.F.F.F.F.F.F.F.F.F.F.F.F.F.F.F.F.F.F.F.F.F.F.F.F.F.F.F.F.F.F.F.F.F.F.F.F.!.!.A.L.L.L.F.F.L.U.K.c.7X8X[ 8X0X0X0X3X3X3XVXcXvXxXmXmXmXmXxXfXfXnX;X$X].'.'.'.-X-X*X^.^.^.^.^.*X*X*X*X*X*X=X=Xg.g.d.d.i.i.i.i.p.p.i.p.p.t.p.-./././.!.!.A.A.A.A.A.F.G.G.G.G.G.U.U.G.G.G.G.G.G.G.G.F.G.U.U.J.c.' { { [ | | 8X0XKXLX].8.-.t.w.p.p.w.w.w.*.*.%.%.@.@.@.@.@.@.@.@.$.*.w.w.w.*.#.+.-.!.Z.F._.G.G.G.F.F.F.F.F.F.F.F.",
"F.F.F.F.F.F.F.F.F.F.F.F.F.F.F.F.F.F.F.F.F.F.F.F.F.F.F.F.F.F.F.F.F.F.F.F.F.F.F.F.F.F.F.F.F.F.F.F.F.F.F.F.F.F.F.F.F.F.F.F.F.F.F.F.F.F.F.F.F.F.F.F.F.F.F.F.F.F.F.F.F.F.F.F.F.F.F.F.F.F.F.F.F.F.F.F.F.F.F.F.F.F.F.F.F.F.F.F.F.F.F.F.F.F.F.F.F.F.F.F.F.D.F.F.F.F.F.F.F.F.F.F.F.F.F.F.F.F.F.F.F.F.F.F.F.F.F.F.F.F.F.F.F.F.F.F.F.F.F.!.!.!.F.G.G.F.!.!.L.J.c.:X0X7X| wX0X0X4X3XcXcXvXbXbXbXmXmXnXnXxXfXfX$X].'.'.'./.^.*X*X^.^.^.^.^.^.^./.*X*X*X~.d.d.g.g.g.d.i.i.i.i.p.p.i.y.y.y.y.W././.!.!.!.A.A.D.D.D.F.F.F.F.F.G.U.U.U.U.G.G.G.G.G.G.G.G.G.L.U.z.R.' { { [ | } [ :X<XK.>.w #.$.$.@.@.%.%.%.%.*.w.*.%.%.@.@.+.@.@.@.@.@.@.@.@.#.#.;.!.!.F.(.F.G.G.F.F.F.F.F.G.G.G.",
"F.F.F.F.F.F.F.F.F.F.F.F.F.F.F.F.F.F.F.F.F.F.F.F.F.F.F.F.F.F.F.F.F.F.F.F.F.F.F.F.F.F.F.F.F.F.F.F.F.F.F.F.F.F.F.F.F.F.F.F.F.F.F.F.F.F.F.F.F.F.F.F.F.F.F.F.F.F.F.F.F.F.F.F.F.F.F.F.F.F.F.F.F.F.F.F.F.F.F.F.F.F.F.F.F.F.F.F.F.F.F.F.F.F.F.F.F.F.F.F.F.F.F.F.F.F.F.F.F.F.F.F.F.F.F.F.F.F.F.F.F.F.F.F.F.F.F.F.F.F.F.F.F.F.F.F.F.F.F.!.!.!.G.G.G.F.!.!.L.J.c.,X8X[ 8XqX0X6X3X3XvXvXbXzXbXmXmXxXnXfXfXfX$X].'.'.'./.^.^.^.*X^.^.^.^.^.^.*X*X*X^.~.d.d.d.i.i.i.i.i.i.i.i.i.i.y.p.-.y.W./.!.!.!.!.!.D.F.D.D.D.D.D.F.F.F.F.L.L.I.I.G.G.G.G.G.G.G.H.G.G.G.J.K.c.] ] { [ } [ { ' <X0.w +.$.@.@.@.@.@.@.@.%.%.$.%.*.*.*.%.$.%.@.@.@.@.@.+.+.e #.Q.`.A.F.F.G.G.G.G.F.F.F.F.G.G.",
"F.F.F.F.F.F.F.F.F.F.F.F.F.F.F.F.F.F.F.F.F.F.F.F.F.F.F.F.F.F.F.F.F.F.F.F.F.F.F.F.F.F.F.F.F.F.F.F.F.F.F.F.F.F.F.F.F.F.F.F.F.F.F.F.F.F.F.F.F.F.F.F.F.F.F.F.F.F.F.F.F.F.F.F.F.F.F.F.F.F.F.F.F.F.F.F.F.F.F.F.F.F.F.F.F.F.F.F.F.F.F.F.F.F.F.F.F.F.F.F.F.F.F.F.F.F.F.F.F.F.F.F.F.F.F.F.F.F.F.F.F.F.F.F.F.F.F.F.F.F.F.F.F.F.F.F.F.F.F.!.!.(.G.H.H.D.!.[.[.J.:X7X7X[ wX0X0X6X3XcXbXzXzXmXmXmXxXxXnXnXfX$X].].'.'.'./.^.^.^.^.*X*X*X^.^.^./.^.~.~.d.d.d.i.i.i.i.i.i.i.i.i.i.y.t.p.y.W.Q.!.!.!.!.F.!.F.D.D.D.D.D.D.D.F.F.F.G.G.L.G.G.G.G.G.F.G.H.H.H.H.H.H.J.c.' ] { { { { ] ` ' z.;.#.+.o.@.@.@.O.O.@.@.@.@.@.@.@.@.$.%.*.*.*.%.@.@.@.+.+.w 8.`.A.F.F.H.P.G.F.F.F.F.F.F.F.",
"F.F.F.F.F.F.F.F.F.F.F.F.F.F.F.F.F.F.F.F.F.F.F.F.F.F.F.F.F.F.F.F.F.F.F.F.F.F.F.F.F.F.F.F.F.F.F.F.F.F.F.F.F.F.F.F.F.F.F.F.F.F.F.F.F.F.F.F.F.F.F.F.F.F.F.F.F.F.F.F.F.F.F.F.F.F.F.F.F.F.F.F.F.F.F.F.F.F.F.F.F.F.F.F.F.F.F.F.F.F.F.F.F.F.F.F.F.F.F.F.F.F.F.F.F.F.F.F.F.F.F.F.F.F.F.F.F.F.F.F.F.F.F.F.F.F.F.F.F.F.F.F.F.F.F.F.F.F.F.!.(.(.G.G.G.F.!.[.U.x.>X0X[ 8XqX0X0X6XcXbXbXmXmXmXmXmXxXxXnXfXfX$X'.'.'./.^.^.^.^.^.*X*X*X*X*X^.^.^.W.y.y.y.d.d.i.i.i.i.i.i.i.i.i.y.p.-.y.W.Q.Q.!.!.F.A.!.!.!.!.D.D.D.D.D.D.D.F.F.F.G.G.G.G.G.G.F.F.G.H.H.H.H.H.G.H.J.c.' { { { { { { ,XJXxX9.;.*.$.$.#.@.@.@.@.@.@.@.O.O.@.+.@.@.%.%.$.%.*.$.@.+.e ;.!.!.!.(.n.G.G.G.F.F.F.F.F.G.",
"F.F.F.F.F.F.F.F.F.F.F.F.F.F.F.F.F.F.F.F.F.F.F.F.F.F.F.F.F.F.F.F.F.F.F.F.F.F.F.F.F.F.F.F.F.F.F.F.F.F.F.F.F.F.F.F.F.F.F.F.F.F.F.F.F.F.F.F.F.F.F.F.F.F.F.F.F.F.F.F.F.F.F.F.F.F.F.F.F.F.F.F.F.F.F.F.F.F.F.F.F.F.F.F.F.F.F.F.F.F.F.F.F.F.F.F.F.F.F.F.F.F.F.F.F.F.F.F.F.F.F.F.F.F.F.F.F.F.F.F.F.F.F.F.F.F.F.F.F.F.F.F.F.F.F.F.F.F.F.F.L.L.G.G.F.!.(.L.K.:X,X8X[ qX0X0X6X3XcXbXbXmXmXmXmXzXxXnXnXnXfX].'.-X'.^.^.^.^.^.*X*X*X^.^.^.^.^.^.~.~.~.~.d.d.i.g.i.i.a.i.i.i.i.y.-.-.W././.!.D.!.F.(.L.A.A.!.F.P.F.F.F.F.(.L.F.F.F.F.F.F.F.F.F.F.F.G.G.G.G.G.F.L.U.U.K.c.' { { } | [ 4XLXnX9.;.;.;.$.$.$.@.$.$.@.@.@.O.@.@.@.@.@.@.@.@.@.@.@.#.e ;.^.!.(.F.F.G.F.F.F.F.F.F.P.L.",
"F.F.F.F.F.F.F.F.F.F.F.F.F.F.F.F.F.F.F.F.F.F.F.F.F.F.F.F.F.F.F.F.F.F.F.F.F.F.F.F.F.F.F.F.F.F.F.F.F.F.F.F.F.F.F.F.F.F.F.F.F.F.F.F.F.F.F.F.F.F.F.F.F.F.F.F.F.F.F.F.F.F.F.F.F.F.F.F.F.F.F.F.F.F.F.F.F.F.F.F.F.F.F.F.F.F.F.F.F.F.F.F.F.F.F.F.F.F.F.F.F.F.F.F.F.F.F.F.F.F.F.F.F.F.F.F.F.F.F.F.F.F.F.F.F.F.F.F.!.!.F.F.F.F.!.!.F.F.F.L.L.L.F.F.F.F.(.U.x.:XIX,X8X0XqX6X4X3XcXbXbXbXmXzXzXnXfXnXnXfX].].-X-X-X-X*X^.*X*X^.^.^.^.^.*X*X^.~.~.d.~.=X=X=Xg.i.i.i.i.u.u.u.p.-.-.W.Q.!.!.!.!.F.F.L.L.F.A.(.L.L.G.F.F.L.L.L.L.L.L.L.L.F.F.F.F.L.F.F.G.G.G.F.(.(.F.U.U.c.c.' { { X.{ >X<XU.8.w #.#.#.@.$.$.$.$.@.@.O.O.O.@.@.@.O.O.+.+.@.@.o.+.e #.Q.[.(.!.F.F.F.F.F.F.F.F.L.L.",
"F.F.F.F.F.F.F.F.F.F.F.F.F.F.F.F.F.F.F.F.F.F.F.F.F.F.F.F.F.F.F.F.F.F.F.F.F.F.F.F.F.F.F.F.F.F.F.F.F.F.F.F.F.F.F.F.F.F.F.F.F.F.F.F.F.F.F.F.F.F.F.F.F.F.F.F.F.F.F.F.F.F.F.F.F.F.F.F.F.F.F.F.F.F.F.F.F.F.F.F.F.F.F.F.F.F.F.F.F.F.F.F.F.F.F.F.F.F.F.F.F.F.F.F.F.F.F.F.F.F.F.F.F.F.F.F.F.F.F.F.F.F.F.F.F.F.F.F.!.F.F.F.F.F.!.!.F.F.F.F.L.A.F.F.F.F.L.U.x.5X0X[ 0X0X0X4X3X3XcXbXbXmXzXzXxXfXnXnXfX].].].-X-X-X^.^.^.^.^.*X*X^.^.^.^.^.~.~.~.d.i.i.i.i.p.i.i.i.u.p.p.p.p.-.9./././.!.!.(.F.F.L.L.F.A.(.L.(.L.F.G.L.L.L.L.L.L.L.L.L.L.L.L.!.F.F.F.G.F.F.(.`.F.L.U.K.c.' ] { { { { ) 4.0.;.w #.+.+.@.@.+.@.@.O.O.o.O.O.o.O.O.O.o.o.o.o.o.o.e #.9./.(.!.(.F.F.F.F.F.F.F.L.L.",
"F.F.F.F.F.F.F.F.F.F.F.F.F.F.F.F.F.F.F.F.F.F.F.F.F.F.F.F.F.F.F.F.F.F.F.F.F.F.F.F.F.F.F.F.F.F.F.F.F.F.F.F.F.F.F.F.F.F.F.F.F.F.F.F.F.F.F.F.F.F.F.F.F.F.F.F.F.F.F.F.F.F.F.F.F.F.F.F.F.F.F.F.F.F.F.F.F.F.F.F.F.F.F.F.F.F.F.F.F.F.F.F.F.F.F.F.F.F.F.F.F.F.F.F.F.F.F.F.F.F.F.F.F.F.F.F.F.F.F.F.F.F.F.F.F.F.F.F.F.F.F.F.F.F.!.!.F.!.F.F.F.F.F.F.F.G.U.U.x.4X8X,X0X0X0X4X3XcXvXbXbXzXzXxXfXfXnXnX$X].].'.^.^.^.^.^.^.^.^.*X*X*X^.*X^.~.d.i.i.i.i.i.i.i.u.i.i.u.u.p.p.t.y.W.W.Q.!.!.!.!.F.F.F.L.L.F.F.(.L.(.L.G.G.F.L.L.L.L.L.L.L.L.L.L.L.!.!.!.F.F.F.!.!.`.(.A.U.K.z.l.' { { { ] J R 5.>.w +.+.@.@.@.@.@.@.@.O.O.O.o.o.o.O.o.o.o.o.o.o.o.e e ;.Q.!.!.(.F.F.F.F.F.F.F.L.P.",
"(.(.(.(.F.F.F.F.F.F.F.F.F.F.F.F.F.F.F.F.F.F.F.F.F.F.F.F.F.F.F.F.F.F.F.F.F.F.F.F.F.F.F.F.F.F.F.F.F.F.F.F.F.F.F.F.F.F.F.F.F.F.F.F.F.F.F.F.F.F.F.F.F.F.F.F.F.F.F.F.F.F.F.F.F.F.F.F.F.F.F.F.F.F.F.F.F.F.F.F.F.F.F.F.F.F.F.F.F.F.F.F.F.F.F.F.F.F.F.F.F.F.F.F.F.F.F.F.F.F.L.F.F.F.!.L.F.F.F.F.L.L.L.L.!.!.!.!.!.!.!.!.!.!.!.!.F.!.!.!.(.(.L.F.F.G.U.K.:X4X,X8X0X0X4X4X3XvXbXbXxXxXxXnXfXfXnXfX;X;X'.'.^.^.^.^.^.^.*X*X^.*X*X*X*X*X~.d.~.~.~.=X=X=Xa.a.a.i.u.i.i.y.y.~./.!.!.!.!.!.F.G.F.G.L.L.L.L.F.L.(.L.F.F.F.L.L.L.L.L.L.L.L.L.L.L.!.!.!.F.F.F.!.!.(.!.(.L.U.J.z.c.c.' { ] ] ` c.K.8.#.+.@.+.+.@.+.@.+.@.O.O.O.O.O.o.o.o.o.o.o.o.o.+.e ;.Q.(.!.(.F.G.F.F.F.F.P.L.L.",
"(.(.L.(.L.L.F.F.F.F.F.F.F.F.F.F.F.F.F.F.F.F.F.F.F.F.F.F.F.F.F.F.F.F.F.F.F.F.F.F.F.F.F.F.F.F.F.F.F.F.F.F.F.F.F.F.F.F.F.F.F.F.F.F.F.F.F.F.F.F.F.F.F.F.F.F.F.F.F.F.F.F.F.F.F.F.F.F.F.F.F.F.F.F.F.F.F.F.F.F.F.F.F.F.F.F.F.F.F.F.F.F.F.F.F.F.F.F.F.F.F.F.F.F.F.F.F.F.F.F.L.L.F.F.!.!.F.F.F.F.L.L.(.L.!.!.!.!.!.!.!.!.!.!.(.(.(.(.!.(.(.(.(.F.F.L.U.K.>X4X,X8X0X0X6XDXcXbXbXdXxXxXxXnXfXfXfX;X;X-X'.'.^.^.^.^.^.^.^.^.^.*X*X*X*X~.d.y.y.y.y.p.p.t.e.e.r.e.=.e.p.-.-.W.!.!.!.!.!.F.F.P.F.G.L.L.L.L.L.L.(.L.F.F.F.L.L.P.L.L.L.L.L.L.L.(.(.(.(.!.F.F.F.!.!.!.(.L.U.U.J.z.x.c.{ { { { >XvXeX;.#.@.+.o.+.o.o.O.O.O.O.O.O.O.@.@.o.o.o.o.+.+.+.e ;.Q.`.!.(.F.F.F.F.F.L.L.L.L.",
"F.F.L.L.L.L.(.L.F.F.F.F.F.F.F.F.F.F.F.F.F.F.F.F.F.F.F.F.F.F.F.F.F.F.F.F.F.F.F.F.F.F.F.F.F.F.F.F.F.F.F.F.F.F.F.F.F.F.F.F.F.F.F.F.F.F.F.F.F.F.F.F.F.F.F.F.F.F.F.F.F.F.F.F.F.F.F.F.F.F.F.F.F.F.F.F.F.F.F.F.F.F.F.F.F.F.F.F.F.F.F.F.F.F.F.F.F.F.F.F.F.F.F.F.F.F.F.F.(.(.(.(.(.(.(.(.(.(.(.(.(.(.(.(.F.F.L.L.F.L.F.F.F.F.F.L.L.L.F.(.(.(.(.F.F.I.J.c.>X,X,X0X0X0X6XDXcXbXbXxXxXxXfXfXfXfX;X;X;X'.'.^.^.^.^.^.^.^.^.^.^.*X*X*X~.d.y.y.y.y.p.i.i.a.a.a.u.u.t.t.i.W.W./.!.!.!.!.!.F.F.P.L.L.L.L.L.F.L.L.(.L.F.F.F.L.L.).L.L.L.L.L.L.L.(.(.(.(.!.F.F.G.F.!.!.(.L.L.L.U.U.U.x.' { { { { :XK.8.#.o.+.+.+.O.o.o.o.o.o.o.o.o.o.o.O.O.O.O.+.+.+.+.#.Q.[.(.(.F.F.F.F.F.L.L.L.L.",
"F.F.F.L.(.L.L.(.F.F.F.F.F.F.F.F.F.F.F.F.F.F.F.F.F.F.F.F.F.F.F.F.F.F.F.F.F.F.F.F.F.F.F.F.F.F.F.F.F.F.F.F.F.F.F.F.F.F.F.F.F.F.F.F.F.F.F.F.F.F.F.F.F.F.F.F.F.F.F.F.F.F.F.F.F.F.F.F.F.F.F.F.F.F.F.F.F.F.F.F.F.F.F.F.F.F.F.F.F.F.F.F.F.F.F.F.F.F.F.F.F.F.F.F.F.F.F.F.(.(.(.(.(.(.(.(.(.(.(.!.(.(.(.(.L.L.L.L.L.L.F.F.F.F.F.F.L.L.F.(.(.(.!.!.F.H.J.c.>X7X,X0X0X0X3XcXbXbXbXzXxXxXfXfXfXfX;X;X-X'.^.^.~.~.^.^.^.^.^.^.~.*X*X*X~.d.d.d.i.i.i.i.a.a.a.a.u.E.p.-.W././.`.!.F.F.F.F.(.P.G.L.L.L.L.L.L.L.L.L.L.F.F.F.L.L.).L.L.L.L.L.L.L.L.(.(.(.L.L.G.G.G.F.!.!.F.L.P.L.U.U.z.' ] ] { ] ` 4.0.;.+.+.o.e +.+.+.+.o.o.o.o.o.o.o.o.o.o.o.o.o.o.e #.9.[.!.F.F.F.F.F.F.L.L.L.L.",
"(.(.(.(.(.(.(.(.(.(.(.(.(.(.(.(.(.(.(.(.(.(.(.(.(.(.(.(.(.(.(.(.(.(.(.(.(.(.(.(.(.(.(.(.(.(.(.(.(.(.(.(.(.(.(.(.(.(.(.(.(.(.(.(.F.F.F.F.F.F.F.F.(.(.(.(.(.(.(.(.(.(.(.(.(.(.(.(.(.(.(.(.(.(.(.(.(.(.(.(.(.(.(.(.(.(.(.(.(.(.(.(.(.(.(.(.(.(.(.(.(.(.(.(.(.(.(.(.(.(.(.(.(.(.(.(.(.(.(.(.(.(.(.(.F.F.F.F.F.F.F.F.F.F.(.!.F.F.F.L.L.(.).F.F.H.z.R.,X,X0X0X0X6X3XdXvXdXxXxXxXnXfXnXnXnX;X;X-X-X-X-X^.^.^.^.^.^.^.^.-X*X*X~.~.d.d.~.~.~.i.i.E.a.u.u.u.u.-.-.W././.!.!.!.F.F.F.F.F.P.L.L.L.L.L.L.L.L.F.).(.F.L.).L.L.(.(.L.L.L.P.P.(.(.(.L.L.L.L.F.F.F.F.F.L.L.L.L.L.U.J.c.' { { ] ` ) 4.;.w #.@.o.+.+.+.+.+.o.o.o.o.o.o.o.o.o.o.o.o.o.e w 9.`.(.F.F.F.F.F.F.P.(.).).",
"(.(.(.(.(.(.(.(.F.F.(.(.(.(.F.F.F.F.F.F.F.F.F.F.(.(.F.F.F.F.!.F.F.F.(.(.(.(.F.F.F.F.F.F.F.F.F.F.L.L.F.F.F.!.!.F.F.F.(.(.(.(.F.F.F.F.F.F.F.F.F.F.F.F.(.(.(.(.F.F.F.F.F.F.F.F.F.F.(.(.F.F.F.F.!.F.F.F.(.(.(.(.F.F.F.F.F.F.F.F.F.F.L.L.F.F.F.!.!.F.F.F.(.(.(.(.F.F.(.(.(.(.(.(.(.(.(.(.(.(.(.(.(.(.F.F.F.F.!.F.(.(.F.F.L.!.F.F.F.L.L.F.).F.P.I.c.R.7X,X0XqX0XDXcXbXbXbXxXxXxXfXeXeX].;X;X'.'.^.^.^.^.~.^.^.~.~.~.~.*X*X~.d.i.i.i.i.p.p.t.t.p.t.e.e.t.=.=.y.W./.!.(.(.(.P.F.F.F.P.F.L.G.L.L.L.L.L.F.F.).(.F.L.).L.L.(.(.L.L.P.P.L.L.L.L.L.L.L.I.I.P.F.G.F.G.L.L.L.L.G.U.J.c.c.' ] ` ` l.0.w e o.+.e o.o.+.o.o.o.o.+.o.o.o.o.o.o.o.o.o.+.e 8.`.).F.P.F.F.F.!.P.(.).).",
"(.(.(.(.(.(.(.(.F.F.F.F.(.F.F.F.F.F.L.F.L.L.F.F.(.L.L.F.F.F.!.!.F.F.F.F.(.F.F.F.F.F.L.F.F.L.F.F.(.L.L.F.F.F.!.!.F.F.F.F.(.F.F.F.F.F.F.F.L.L.(.(.F.F.F.F.(.F.F.F.F.F.L.F.F.L.F.F.(.L.L.F.F.F.!.!.F.F.F.F.(.F.F.F.F.F.L.F.F.L.F.F.(.L.L.F.F.F.!.!.F.F.F.F.(.F.F.F.(.(.(.(.(.(.(.(.(.(.(.(.(.(.(.(.P.P.P.P.L.P.P.P.L.L.P.P.L.L.L.L.P.L.(.F.P.I.c.R.7X7X0XPXDXDXHXHXbXbXzXxXxXfXeXeX].].'.'.^.^.^.^.~.~.^.^.~.~.~.~.~.d.i.y.i.i.i.i.i.i.u.p.u.u.u.t.t.-.-.W./.!.!.(.).).P.F.P.P.P.P.G.G.L.G.L.G.G.G.F.).(.G.P.(.P.P.(.(.(.P.(.(.P.P.L.L.L.L.I.I.I.I.P.P.G.G.F.F.L.L.G.I.U.K.c.' ] ] ' l.z.>.w e +.o.e o.o.o.o.o.o.o.o.o.o.o.o.o.O.o.o.#.e ;.'.`.!.).F.F.F.F.P.(.).).",
"(.(.(.(.(.(.(.(.F.F.F.F.L.F.F.F.F.F.(.(.(.(.F.F.(.(.L.L.F.F.L.F.F.F.F.F.L.F.F.F.F.F.(.(.(.(.F.F.L.(.L.F.F.F.L.L.F.F.F.F.L.F.F.F.F.F.F.F.L.L.L.(.F.F.F.F.L.F.F.F.F.F.(.(.(.(.F.F.(.(.L.L.F.F.L.F.F.F.F.F.L.F.F.F.F.F.(.(.(.(.F.F.L.(.L.F.F.F.L.L.F.F.F.F.L.F.F.F.(.(.(.(.(.(.(.(.(.(.(.(.(.(.(.(.P.P.P.P.(.P.(.(.P.P.(.(.(.P.P.P.P.L.(.F.I.U.c.>X7X8X0X0X6XcXbXbXbXbXmXmXmXnXnXnX;X;X-X-X-X^.^.*X~.~.~.~.~.^.~.~.~.~.d.i.E.E.E.a.i.E.E.i.i.E.i.i.t.y.W./.`.).(.).).).).).).P.P.P.F.G.L.G.L.G.G.G.F._.(.G.P.).P.P.(.(.(.P.P.(.(.P.P.P.P.P.P.P.P.P.P.P.P.G.G.P.L.P.P.G.I.U.K.c.' ' ' ` ) 3.;.w +.+.o.o.o.o.o.o.o.o.o.o.o.o.o.o.o.o.o.#.e ;.'.`.!.).F.F.F.F.(.(.).).",
"(.(.(.(.(.(.(.(.(.(.(.(.(.(.(.(.(.(.(.(.(.(.(.(.(.(.(.(.(.(.(.(.(.(.(.(.(.(.(.(.(.(.(.(.(.(.(.(.(.(.(.(.(.(.(.(.(.(.(.(.(.(.(.(.F.F.F.F.F.F.F.F.(.(.(.(.(.(.(.(.(.(.(.(.(.(.(.(.(.(.(.(.(.(.(.(.(.(.(.(.(.(.(.(.(.(.(.(.(.(.(.(.(.(.(.(.(.(.(.(.(.(.(.(.(.(.(.(.(.(.(.(.(.(.(.(.(.(.(.(.(.(.(.(.(.(.(.(.(.(.(.(.(.(.(.(.(.(.(.P.P.L.(.L.L.J.c.>X7X8X0X0XcXbXbXbXbXbXmXzXmXnXnXnXnX;X-X-X-X*X*X*X*X*X*X^.*X*X*X*X*X=X~.E.E.E.a.u.u.a.u.u.u.u.p.-.-.y./.`.(.).).).).).(.(.).(.(.P.P.P.L.L.L.L.L.G.G._.(.F.(.).P.P.(.(.(.(.(.(.(.P.P.P.L.P.P.P.L.L.P.P.P.L.L.L.L.P.P.L.P.P.U.J.c.' ` J R ^ >.;.#.+.+.+.+.+.+.o.o.o.o.o.o.o.o.o.o.o.o.+.e #.`.`.F.F.F.F.F.F.(.(.).).",
"(.(.(.(.(.(.(.(.(.(.(.(.(.(.(.(.(.(.(.(.(.(.(.(.(.(.(.(.(.(.(.(.(.(.(.(.(.(.(.(.(.(.(.(.(.(.(.(.(.(.(.(.(.(.(.(.(.(.(.(.(.(.(.(.F.F.F.F.L.F.F.F.(.(.(.(.(.(.(.(.(.(.(.(.(.(.(.(.(.(.(.(.(.(.(.(.(.(.(.(.(.(.(.(.(.(.(.(.(.(.(.(.(.(.(.(.(.(.(.(.(.(.(.(.(.(.(.(.(.(.(.(.(.(.(.(.(.(.(.(.(.(.(.(.(.(.(.(.(.(.(.(.(.(.(.(.(.(.(.P.P.L.).L.L.J.R.,X,X0X0X0XcXvXbXzXzXzXxXxXfXfXeX].;X].'.^.^.^.^.~.~.=X~.~.^.*X*X^.d.i.y.p.u.u.u.r.r.u.u.t.t.t.=.=.-.W.'.`.!.(.).P.).(.(.(.(.(.(.(.P.P.L.L.L.L.L.L.F._.).F.(.).(.(.(.(.(.(.(.(.(.P.P.P.L.P.L.(.(.L.).P.L.L.L.L.(.).).P.P.Y.Y.U.R.c.) _ _ ) 3.;.w #.+.+.+.+.+.+.+.+.+.+.+.+.+.+.+.+.+.+.e #.`.`.F.F.F.G.F.P.(.).).).",
"(.(.(.(.(.(.(.(.(.(.(.(.(.(.(.(.(.(.(.(.(.(.(.(.(.(.(.(.(.(.(.(.(.(.(.(.(.(.(.(.(.(.(.(.(.(.(.(.(.(.(.(.(.(.(.(.(.(.(.(.(.(.(.(.(.(.(.(.(.(.(.(.(.(.(.(.(.(.(.(.(.(.(.(.(.(.(.(.(.(.(.(.(.(.(.(.(.(.(.(.(.(.(.(.(.(.(.(.(.(.(.(.(.(.(.(.(.(.(.(.(.(.(.(.(.(.(.(.(.(.(.(.(.(.(.(.(.(.(.(.(.(.(.(.(.(.(.(.(.(.(.(.(.(.(.(.(.(.(.P.I.I.(.(.I.K.R.4X,X0X0X0XcXvXbXxXxXtXtXtXeX].].].].'.^.~.~.d.d.d.d.d.d.f.f.~.d.f.y.y.p.p.u.E.a.u.u.E.a.u.u.p.t.p.~./.'.`.(.(.P.P.(.(.(.(.(.(.(.(.P.P.P.P.P.P.P.L.F._.).F.(.).(.(.(.(.(.(.(.(.(.P.P.P.P.(.(.`.(.(.).P.L.L.L.L.P.).`._.).P.Y.Y.K.R.c._ J R 2.V w +.+.+.+.+.+.+.+.+.+.+.+.+.@.@.@.@.@.+.+.#.`.(.F.F.F.G.P.P.(.(.).).",
"(.(.(.(.(.(.(.(.(.(.(.(.(.P.(.(.(.(.(.(.(.(.(.(.(.(.(.(.(.(.(.(.(.(.(.(.(.(.(.(.(.(.(.(.(.(.(.(.(.(.(.(.(.(.(.(.(.(.(.(.(.(.(.(.(.(.(.(.(.(.(.(.(.(.(.(.(.(.(.(.(.(.(.(.(.(.(.(.(.(.(.(.(.(.(.(.(.(.(.(.(.(.(.(.(.(.(.(.(.(.(.(.(.(.(.(.(.(.(.(.(.(.(.(.(.(.(.(.(.(.(.(.(.(.(.(.(.(.(.(.(.(.(.(.P.P.P.P.P.P.P.P.P.P.P.P.P.P.P.P.I.U.(.(.I.K.:X4X,X0X0XIXcXvXbXxXxXxXxXfXfXfX].].].'.^.^.~.~.~.~.=X=X=X~.~.*X*X~.d.d.E.E.E.=X=XE.E.E.a.u.u.p.y.f././.`.)._.P.P.P.).).(.(.(.(.P.P.P.P.P.P.P.P.P.P.P._.).F.(.).(.(.(.(.(.(.(.(.(.P.P.P.(.(.`.`.`.(.).P.L.L.L.L.P.).P._.{.P.G.Y.I.K.c.) J F ~ ,.;.e e o.o.o.o.o.o.o.+.+.+.+.+.+.O.+.@.e +.w '.`.!.!.F.P.P.).(.).).P.",
"(.!.).).!.!.!.(.(.).P.(.(.P.(.(.(.(.(.).).).P.(.(.(.(.(.(.(.(.).(.(.(.P.(.(.(.(.(.(.(.(.(.(.(.(.(.(.(.(.!.(.).).).!.!.!.(.(.(.!.(.(.(.(.(.(.(.(.(.(.(.(.(.(.(.(.!.!.!.(.(.(.(.(.(.(.(.(.(.(.(.(.(.(.(.).(.(.(.(.(.(.).).).(.(.(.(.(.(.(.(.(.(.(.(.(.(.(.(.(.(.(.(.(.(.(.(.(.).).(.(.(.).(.(.(.(.).).).).).).).).).).).).).).).).P.L.`.).I.K.:X4X,X0X0X6XcXbXzXxXxXfXfXfXfXnX;X;X-X-X-X*X*X*X*X*X*X*X*X*X=X=X~.i.i.i.u.u.a.E.u.r.e.r.u.=.=.-.y././.`.).P.P.P.P.P.P.).).).).).).P.P.P.P.P.P.P.P.P.P._._.F.F.).).L.).).).).).).).).).).).).(.(.(.(.).).P.P.P.P.).P.U.I.{.{._.).I.K.K.' R K T 3.3.w +.@.o.o.+.+.o.+.+.+.o.O.o.o.O.O.+.+.e ;.`.(.!.!.!.!.(.(.(.P.P.I.",
"!.!.!.!.(.(.!.!.(.).P.P.P.P.P.P.(.(.).).).).P.P.(.(.(.(.(.(.).).).(.P.P.(.(.(.(.(.(.(.(.(.(.(.(.(.(.(.(.!.!.).).).(.!.!.(.(.(.(.(.(.(.(.(.(.(.(.(.(.(.(.(.(.(.(.!.!.!.(.(.(.(.(.(.(.(.(.(.(.(.(.(.(.).).(.(.(.(.(.(.).).(.(.(.(.(.(.(.(.(.(.(.(.(.(.(.(.(.(.(.(.(.(.(.(.(.(.(.).(.(.(.(.(.(.(.(.).).).).).).).).).).).).).).).).).L.).).I.K.:X4X7X0X0X0XcXbXzXzXfXfXeX X[.[.[.Q.f.f.f.f.d.d.d.d.i.i.i.i.=Xi.i.t.=.e.q.q.r.r.r.e.&.e.e.*.=.p.~.&X/.).(.P.P.P.P.P.P.P.P.P.P.P.P.P.P.P.P.P.P.P.P.P.)._.).L.L.).).L.).).).).).).).).).).).).).P.P.P.).).).P.P.).).P.I.Y.Y._.`.`.P.U.K.l.' ( T 1.3.V w +.+.o.+.+.+.+.+.+.+.+.o.o.o.o.e +.e ;./.!.!.!.!.).(.).(.P.I.I.",
"!.!.!.!.!.!.!.!.).).).).).).(.(.(.(.(.(.).P.P.P.).).(.(.(.(.(.(.(.(.P.(.(.(.(.(.(.(.(.(.(.P.(.(.(.(.(.(.!.).).).!.!.!.!.(.(.(.(.(.(.(.(.(.(.(.(.(.(.(.(.(.P.(.(.!.!.!.!.P.P.P.(.(.(.(.(.(.(.(.(.).).).).(.(.(.(.(.).).).(.(.(.(.(.(.(.(.(.(.(.(.(.(.(.(.(.(.(.(.(.(.(.(.(.(.).).(.(.(.(.).).).).).).).).).).).).).).).).).).).).).L.`.).I.K.:X4X0XqX0X0XDXbXmXzXtXtX+X X].[.[.'.Q.f.f.f.f.f.f.d.i.i.i.i.=X~.i.t.e.e.e.r.r.u.u.u.u.u.u.&.=.W././.!.).P.P.P.P.P.P.P.P.P.P.P.P.P.P.P.P.P.P.P.P.P.P.)._._.L.L.)._.).).).).).).).).).).).).P.).P.P.).).).).).P.).).P.Y.Y._._.`.`.P.I.K.c.c.' ( / 2.>.w w #.+.+.+.#.+.+.+.+.+.+.+.+.@.+.#.e ;./.!.!.!.!.(.(.).(.P.P.P.",
").).).).).).).).).).).).).(.(.).).).).).).).).).).).).).).).).).).(.(.).(.(.(.(.).(.).).(.(.).(.).).).).).).).).).).).).).).).).(.(.(.(.(.(.(.).(.(.(.(.(.).).).).).).).).).).).(.(.).).).).).).).).).).).).).).).).).).).).).).(.(.(.(.).).).).(.(.(.(.).).).).(.(.(.(.(.(.).).).).).).).).).).).).).).).).).).).).).).).).).).).L._.).I.K.:X4X0X0X0X0XDXbXmXmXxXxXfXeX].].[.'.'.^.^.~.d.~.d.d.d.d.g.=X=X=Xi.u.u.u.u.u.u.a.E.E.u.u.u.=.p././.!.(.(.P.P.P.P.P.P.P.P.P.P.P.P.P.P.P.P.P.P.P.P.P.P.)._._.).)._._.).).).).).).).).).).).).).).P.).P.).).).).).).).P.{.Y.)._.`.`._.I.U.K.R.c./ ( / ,.6 w w #.+.o.+.+.+.+.+.+.+.+.@.@.@.#.+.;.'.!.).F.P.P.P.P.).).).).",
").).).).).).).).).).).).).).).).).).).).).).).).).).).).).).).).).(.(.(.(.).).(.(.(.(.(.(.(.(.(.).).).).(.).).).).).(.(.(.(.).).).).(.(.(.(.).).(.(.).).(.(.(.(.).).).).(.(.(.(.(.).).).).).).).).).).).).).).).).).).).).).).).(.(.(.(.(.(.(.(.(.(.(.(.(.(.).).(.(.(.(.(.(.).).).).).).).).).).).).).).).).).).).).).).).).).).).P._.).I.K.:X,X7X0X0X4XDXbXmXmXzXzXxXfXfX].].-X-X-X^.*X*X*X^.~.=X=X=X=X=X=X=XE.E.E.E.E.a.a.E.E.u.u.p.=.y./.'.!.(.).P.P.P.P.).).P.P.P.P.P.P.P.P.P.P.P.P.P.P.P.P.).)._.).)._._.).).).).).).).).).).).).).).).).).).).)._._.).).).).)._._.`._._.I.I.J.K.K.l.( ~ :.V w w e +.O.O.O.+.+.+.+.+.o.O.O.O.o.e #.'.!.|.P.I.P.P.P.(.).).).",
").).).).).).).).).).).).).).).).).).).).).).).).).).).).).).).).).(.(.).(.(.).(.(.(.(.(.(.(.).(.).(.).).(.).).).).).(.(.(.(.).).).).(.(.(.(.).).(.(.).).(.(.(.(.).).).).(.(.(.(.).).).).).).).).).).).).).).).).).).).).).).).).(.).(.(.(.(.(.(.).).(.(.(.(.).).(.(.(.(.(.(.).).).).).).).).).).).).).).).).).).).).).).).).).).).P._.).I.K.:X4X7X0X0X4XDXbXmXzXzXfXfXfXfXfX;X;X-X-X*X*X*X*X*X*X=X*X*X*X=X=XE.i.u.u.u.u.u.u.u.u.p.t.t.=.W./.`.!.).P.P.P.P.P.).).P.P.P.P.P.P.).).P.P.P.P.P.P.P.P.).).).)._._.).).).).).).).).).).).).).).).).).).).)._._._._.).).).)._._._._.).I.I.U.K.K.J.1.( ( j.V w e +.@.@.@.+.+.+.+.+.+.O.O.o.o.e #.'.F.{.I.I.I.P.P.(.(.).`.",
").).).).).).(.(.).).).).).).).).).).).).).).).).).).).).).).).).).(.(.).(.).).(.(.(.).(.).).).).(.(.(.(.(.(.).).).).(.(.(.(.).).).).(.(.(.).).).(.(.).).).).(.(.).).).).(.(.(.(.).).).).).).).).).).).).).).).).).).).).).).).).).).).).(.(.(.(.).).).).(.(.(.).).).).).).).).).).).).).).).).).).).).).).).).).).).).).).).).).).P._.).I.K.:X4X0X0X4X4XDXbXzXxXxXfXfX].].[.[.Q.Q.~.d.f.f.f.d.d.d.g.=X=Xi.p.e.e.q.&.&.q.q.&.&.e.=.*.=.-.Q.`._._.P.P.P.P.P.P.(.(.).).).).).).).).).).).).).).).).).).).)._._._._.).)._.)._._.)._._._._.).).).P.P.).)._._._._.).).).).).).).).).).P.I.I.U.K.z.1.( j.,.V w w #.+.+.+.+.w w w w +.+.+.+.w ;.`.).P.I.I.I.P.P.).(.).).",
").).).).).).(.(.).).).).).).).).).).).).).).).).).).).).).).).).).(.(.(.).).).(.(.(.).).).).(.).(.(.(.(.(.(.).).).).(.(.(.(.).).).).(.(.(.(.).).(.(.).).).(.(.(.).).).).).).(.(.).).).).).).).).).).).).).).).).).).).).).).).).).).).).).).(.(.).).).).(.(.(.(.).).).).).).).).).).).).).).).).).).).).).).).).).).).).).).).).).P._.).I.K.:X4X0X0X4X4XbXbXxXxXtXtX].].].'.'.'.f.d.f.y.y.y.y.i.i.d.g.g.i.p.e.q.e.&.q.e.e.q.e.t.t.*.-.-.&X}.P.P.P.P.P.P.P.).(.(.).).).).).).).).).).).).).).).).).).).)._.).)._.).)._._._._._._.).)._._.).).P.P.).)._._._._.).).).).).P.P.P.P._.F.{._.U.U.T.z.( :.3.>.6 7 7 7 7 7 7 7 7 7 7 7 7 7 w 7 ;.L. XP.Y.P.P.P.P.).).).).",
").).).).)._.)._._._._._._._._._.).).).).).).).).).).).).).).).).).).).).).).).).).).(.).)._.).).).).).).).).).).).).).).).).).).).).)._.).).).).).).).).).).).).).).).).).).).).).).).).).).).).).).).).).).).).).).).).).).).).).).).).).).).).).).).).).).).).).).).).).).)._.).).).).).).).)._._._._._._._._._._._._._._._._.).)._.(.Y.K.:X4X0X0X4X4XbXbXxXxXfXeX].].nX].'.-Xd.^.d.d.d.d.i.i.=X=Xg.=Xi.i.t.u.u.u.u.u.u.r.e.u.p.-.~.&X!.{.{.I.I.I.P.P._._.).).).{.{.).P.{.).).).).).).P.P.P.)._.).).).).).).).).)._.).).).).).).P.P.)._._._.)._._._._._.).).).P.P.P.P.P.P.)._.`._._._.I.U.J.z.E ^ ~ i * * & * * 8 8 8 8 8 8 4 4 6 7 n.I.P.)._.P.P.P.P.P.P.P.Y.",
").).).).)._.)._._._._._.).)._._.).).).).).).).).).).).).).).).).).).).).).).).).).).).).)._.).).).).).).).).).).).).).).).).).).).).)._.).).).).).).).).).).).).).).).).).).).).).).).).).).).).).).).).).).).).).).).).).).).).).).).).).).).).).).).).).).).).).).).).).)._._.).).).).).).).)._._._._._._._._._._._._._._._.).).(._.(.Y.K.:X4X,X0X4X4XbXbXxXxXnXfXeXnXnX;X-X-X^.*X=Xg.=X=X=X=X=X*X=X=XE.E.u.a.a.a.u.u.u.u.u.u.t.-./.&X).).P.I.I.I.P._._._.).).P.{.{.).).{.{.).).).).).).).).)._._.)._._._.).)._._._._.).).).)._._.P.)._.{._._._._._._._._.).P.P.P.Y.Y.Y.P.P._.`.`.`.`._.I.I.J.l./ J K K 3 3 3 D D F F F D D D i n n U.P._.P.)._._._.).P.P.P.Y.",
"_.).).).)._._._._._._._._._._._.).).).).).).).).).).).).).).).).).).).).).).).).).).).).)._._.).).).).).).).).).).).).).).).).).).)._._.).).).).).).).).).).).).).).).P.).).).).).).).).).).).).).).).).).).).).).).).).).).).).).).).).).).).).).).).).).).).).).).).).).).).).).).).).).).).)._._._._._._._._.).).)._.).).).).).)._.P.Y.K.:X4X,X0X4X4XvXxXxXxXeX].[.].].'.^.^.d.d.d.i.~.~.i.~.i.=Xi.i.t.t.e.e.r.r.e.e.e.e.e.&.-.f.'.&X).P.P.Y.I.I._._._._._._.P.).{.).).{.{.{.{.{.{.{.).).).).)._._._._._._._._._._._._._.).)._.P.P.P._._._._._._.{.{.P._.P.P.Y.Y.Y.Y.Y.P.P._._.`.`.`._._.I.U.<Xc._ ` ` 3 3 3 3 3 3 3 3 3 3 3 u z ! T.I. X)._._._._.P.P.Y.Y.Y.",
"_._._.)._._._._.).).).).).).).)._._.).)._._.).).).).).).).).).).).).).).).)._.).).).).)._._._.).).).).).).).).).).).).).).).).).).)._.).).).).).).).).).).).).).).).).).).).).).).).).).).).).).).).).).)._.).).).).).).).).).).).).).).).).).).).).).).).).).).).).).).).).).).).).).).).).).)._._._._._._._._.).).).).).).).).).)._.).Y.K.:X4X7X0X0X4XbXxXxXfX].[.[.[.'.^.f.f.y.p.t.t.t.t.t.t.p.p.p.t.e.e.q.q.e.&.&.&.&.&.&.*.-.^.&X`._.Y.I.Y.I._._._._._._.{.P.{.{.).).{.{.).{.{.{.{.).).).{.P.)._._._._._._._._._._._._._._.P.P.P.P.{._._._._._.{._._._._.Y.Y.Y.Y.Y.Y.P.P.)._._.`._._._._.I.K.<Xc.` 3 3 3 3 3 3 3 3 3 3 3 < K x / T.U.{.)._.).).P.P.P.Y.Y.Y.",
"_._._._._._._._.).).).).).).).)._._._._.).).).)._._._._.).).).).).).).).).).).).).).(.)._._._.).).).).).).).).).).).).).).).).).).).).).).).).)._._._._._._._._.).).).).).).).).).).).).).).).).).).).).).).).).).).).).).).).).).).).).).).).).).).).).).).).).).).).).).).).).).).).).).).).)._._._._._._._._._._._._._._._.).).)._._.Y.K.:X4X0X0X0X3XbXbXxXfXeX].].].'.^.d.f.d.d.y.p.y.p.p.i.E.i.p.p.u.t.e.r.r.e.r.r.e.r.r.&.y.&X&X!.{.Y.P.Y._._.`._._.{.{.Y.{.{.{.).).{.{.).{.{.).).).).{.{.P.)._.{._._._._._._._._._._._._.P.P.P.P._._._.P._.{.{.{.{.{.{.Y.Y.Y.P.Y.P.P.).)._.)._._._._._._.U.T.<Xc.' ] ] ] ' ' ' ' ' ' ' ' ' ( z.T.U.{.)._.).P.P.P.P.Y.Y.{.",
"_._._._._._._._._._._._._._._._._._._._._._.).)._._._._.).).).).).).).).).).).)._.).(.)._._._._.).).).).).).).)._._._._.).)._._._._._._._._._._._._._._._._._._.).).).).).).).).).).).).).).).).).).)._.)._.).).).).).)._._._._.).).).).).).).).).).).).).).).)._._.)._.)._._._._._.).).).).).)._._._._._._._._._._._._._._._._.).)._._.Y.K.:X4X7X0X4X4XbXbXzXnXfXnXnXnX;X-X*X^.d.d.d.d.i.i.i.=X*X=XE.u.E.a.u.u.u.s.r.r.r.r.e.&.W.;X&XD.{.Y.Y.{._.`.`.`._._.Y.Y.{.{.{.{.).{.{.).).{.).).).).{.{.P._.{.{._._._._._._._._.{.{._._.P.P.P.P.{.{._._.{.{.{.{.{.{.{.{.Y.{.{._._._._._.P.P.P.).)._._._.P.U.K.T.R.R.R.<X<X<X<X<XK.K.R.R.K.K.T.T.I.XX_.{.P.P.P.P.P.Y.{.{.",
"_._._._._._._._._._._._._._._._._._._._._._._._._._._._._._._._._._.).).).).).)._.).).)._._._._._._._._._._.).).)._._._.).).).)._._._._._._._._._._._._._._._._.).{.{.{.).).).).).).).).).).).).).).)._._._._._.)._.).)._._._._.).).).).P.).).).).).).).P.).P.P._._._._._._._._._._.).).{.{.{.{._._._._._._._._._._._._._._._._.{.)._.P.Y.K.:X4X,X0X4X4XbXbXxXfXfXnXnXnX;X;X-X^.^.~.~.~.=X=X=X=X-X=XE.u.E.u.u.u.u.s.r.r.r.e.&.=.~.;X&XD.{.Y.Y._._.`.`.`._.{.Y.Y.{.{.{.{.{.{.{.).{.{.).).{.{.{.{._.{.}.}.{._._.{._._._._._._._._._.P.P._.{.{.{._.{.{.{.{.{.{.{.{.{._._._._._._.{.P.Y.Y.Y._._._._.{.P.P.Y.T.I.I.T.I.I.I.I.I.I.I.I.T.T.+X X{.}.{.{.Y.Y.Y.I.Y.{.{.{.",
"_._._._._._._._._._._._._._._._._._._._._._._._._._._._._._._._._.).).).).).)._._.).).)._._._._._._._._._._.).).)._._._.).).).)._._._._._._._._._._._._._._._._.).).).).P.P.P.P.).).).).).).).).).)._._._._._._._._.).).)._._._.).).).).).).).).).).).).P.P.P.P._._._._._._._._._._._.).{.{.{.{._._._._._._._._._._._._._._._.{.).)._.).P.K.R.4X6X0X4X4XbXxXxXeX[.[.[.'.'.'.^.f.y.t.-.t.y.p.p.i.=XE.p.&.e.e.e.&.q.q.&.&.e.&.&.=.W.;X|.G.{.Y.{._._._.`.`._.{.Y.Y.{.{.{._._.{.{._.{.{._._.{.{.{.{._.{.XXXX{.{.{.{.{.{.{.{.{.{.{.{._.P.P._.{.{.{.{.{.{.{.{.{.{.{.{._._._._._._.{.{.Y.Y.Y.Y.Y._._._.Y.|.{.).).{.{._._._._.P._.P._.P.I. XXX_.{._.{.{.Y.Y.Y.Y.{.{.{.{.",
"_._._._._._._._._._._._._._._._._._._._._._._._._._._._._._._._._._.).).).)._._._._._._._._._._._._._._._._._._.).).).).).).).)._._._._._._._._._._._._._._._._._._.).)._._._._.).).).).).).).).).).)._._._._._._._._.).).).).).).).{.{.{.{.{.{.).).).).).).).)._._._._._._._._._._._._._._._._._._._._.{.{.{._._._.{.{.{.{.{._._._.`._.I.U.R.>X6X0X0XcXbXxXtX X].].'.'.'.^.~.d.f.y.y.p.i.i.i.i.=XE.e.&.=.e.e.e.q.&.q.q.&.&.=.W.&X{.{.{.{._.{.{.{._._._._.{.{.{.{.{.{.{.{.{.{.{.{.{._._.{.{.{.{.{.{.{.{.{.{.{.{.{.{.{.{.{.{.{.{.{._.P._.{.{.{.{.{.{.{.{.{.{.{.{.{.{.{.{.{.{.{.{._.P.P._._._._._.{.{.{.{.{.}.}.}.{.{.{._.{.{.{.{.{.{.{.{.{.{.{.{.{.{.{.{.{.{.{.{.",
"_._._._._._._._._._._._._._._._._._._._._._._._._._._._._._._._._._._._._.{._._._._._._._._._._._._._._._._._._._._._._._._._._._._._._._._._._._._._._._._._._._._._._._._._._._._._._._._._._.).)._._._._._._._._._._._._._._.).).).).).).).).).).).).).).).)._._._._._._._._._._._._._._._._._._._._.{.{.{._._._.{.{.{.{.{._._._.`.}._.U.R.>X6X6X6XcXbXzXtXfXfX;X;X;X-X-X*X*X~.d.i.i.i.i.i.i.E.E.u.e.t.u.r.r.r.r.r.r.=.=.-./.}.{.{.{.{._.{.{.{._._._._.{.{.{._._._.{.{.{.{._._._._._.{.{.{.{.{.{.{.{.{.{.{.{.{.{.{.{.{.{.{.{.{.{._._.{.{.{.{.{.{.{.{.{.{.{.{.{.{.{.{.{.{.{.{._._._._._._.{.{.{.{.{.{.{.{.{.{.{.{.{.{.{.{.{.{.{.{.{.{.{.{.{.{.{.{.{.{.{.{.{.{.",
"_._._._._._._._._._._._._._._._._._._._._._._._._._._._._._._._._._._._.{.{._._._._._._._._._._._._._._._._._._._._._._._._._._._._._._._._._._._._._._._._._._._._._._._._._._._._._._._._._._._.).)._._._._._._._._._._._._._.).).).).).).).).).).).).).).).)._._._._._._._._._._._._._._._._.{.{.{.{.{.{.{.{._._.{.{._._._.).{._._.}.}.I.R.:X,X6X4X3XbXbXtXtX].].].'.-X^.^.~.=X~.~.~.~.=X~.E.=X=XE.E.E.E.E.u.r.s.r.e.&.=.W.&X{.{.{.{.{.{.{.{.{.{._._._.{.{._._._.{.{.{.{._._.{.{._._.{.{._.{.{.{.{.{.{.{.{.{.{.{.{.{.{.{.{.{.{.{._._.{.{.{.{.{.{.{.{.{.{.{.{.{.{._.{._._.{.{._._._._._.{.{.{._.{.{.{.{.{.{.{.{.{.{.{.{.{.{.{.{.{.{.{.{.{.{.{.{.{.{.{.{.{.{.{.",
"_._._._._._._._._._._._._._._._._._._._._._._._._._._._._._._._._._._._._.{.{.{._._._._._._._._._._._._._._._._.{.{.{.{.{.{.{.{._._._._._._._._._._._._._._._._._._._._._._._._.{.{.{.{.{.{.{.{._._._._._._._._.{.{.{.{.{.{.{.{.).).).).).{.{.{.).).).).{.{.{.{._._._._._._._._._._._._._._._._.{.{.{.{.{.{.{.{.{.{.{.{.{.{.{.{.Y.Y._.}.}.I.K.R.>X,X4X4X3XxX<X[.[.[.[.^.^.~.f.f.d.i.i.p.i.i.i.i.i.u.t.e.=.=.e.&.q.r.q.&.*.=./.&X{.{.{.{.{.{.{.{.{.{.{.{.{.{.{._.P.P. X X X{._._. X{.{.{.{.{._._.{.{.{.{.{.{.{.{.{.{.{.{.{.{.{.{.{.{.{.{.{.{.{.{.{.{.{.{.{.{.{.{.{.{._._._._.{.{._.{.{.{.{.{.{.{.{.{.{.{.{.{.{.{.{.{.{.{.{.{.{.{.{.{.{.{.{.{.{.{.{.{.{.{.{.{.{.{.",
"_._._._._._._._._._._._._._._._.{.{.{.{.{.{.{.{.{.{.{.{.{.{.{.{.{.).{.).{.{.{.{._._._._._._._._.{.{.{.{.{.{.{.{._._._._._._._._._._._._._._._._._._._._._._._._.).).)._._._._._._._._._._._._._._._._._._._._.{._._._._._._._._.{.{.{.{.{.{.{.{.{.{.{.{.{.{.{.{.{.{.{.{._.{._.{.{.{.{.{.{.{._._.{.{.{.{.{.{.{.{.{.{.{.{.{.{.{.{.Y.Y._.`.`.{.K.R.>X,X4X4X3XtXU.U.[.[.[.Q.Q.f.f.y.t.t.t.t.t.p.p.p.u.e.=.=.=.e.r.q.q.q.&.*.=.-.&X&X{.{.{.{.{.{._._.{.{.{.{.{. X{._.P.{.{.{._._._._. X X{.{._._._._.{.{.{.{.{.{.{.{.{.{.{.{.{.{.{.{.{.{.{.{.{.{.{.{.{.{.{.{.{.{.{.{.{._.{.{.{.{.{.{.{.{.{.{.{.{.{.{.{.{.{.{.{.{.{.{.{.{.{.{.{.{.{.{.{.{.{.{.{.{.{.{.{.{.{.{.{.{.{.{.",
"_._._._._._._._._._._._._._._._.{.{.{.{.{.{.{.{.{.{.{.{.{.{.{.{.{.{.{.{.{.{.{.{.{._._._.{.{.{.{.{.{.{._.{.{.{.{._._._._._._._._._._._._._._._._._._._._._._._._._._._._._._._._._._._._._._._._._._._.{.{.{.{.{._._._._._._._._.{.{.{.{.{.{.{.{.{.{.{.{.{.{.{.{.{.{.{.{._._.{.{.{.{.{.{.{.{._._.{.{.{.{.{.{.{.{.{.{.{.{.{.{.{.{.Y.Y._._._._.T.R.>X,X4X4X3XdXtX X].'.'.'.^.^.d.d.i.i.p.p.p.i.i.i.u.e.e.e.e.r.r.q.r.r.q.=.-.Q.&X{.{.{.{.{.{.{._._.{.{.{.{.{. X{.{. X X X X{.{. X X X X X X{.{. X{.{.{.{.{.{.{.{.{.{.{.{.{.{.{.{.{.{.{.{.{.{.{.{.{.{.{.{.{.{.{.{.{.{.{.{.{.{.{.{.{.{.{.{.{.{.{.{.{.{.{.{.{.{.{.{.{.{.{.{.{.{.{.{.{.{.{.{.{.{.{.{.{.{.{.{.{.{.{.{.{.",
"_._._._._._._._._._._._._._._._.{.{.{.{.{.{.{.{.{.{.{.{.{.{.{.{.{.{.{.{.{.{.{.{.{.{.{.{.{.{.{.{.{.{.{.{.{.{.{.{.{.{.{.{.{.{._._.{.{.{.{.{.{.{.{.{.{.{.{.{.{.{.{._.{.{.{.{.{.{.{.{.{.{.{.{.{._._.{.{.{.{.{.{.{.{.{.{.{.{.{.{.{.{.{.{.{.{.{.{.{.{.{.{.{.{.{.{.{.{.{.{.{.{.{.{.{.{.{.{.{.{.{.{.{.{.{.{.{.{.{.{.{.{.{.{.{.{.{.{.{.{.Y.Y.{.{.`._.T.K.>X,X4X4X3XdXtXeX].].].'.-X^.^.~.~.d.i.i.i.E.=X=XE.t.u.u.u.u.u.r.r.e.=.*.-.'.&X}.{.{.{.{.{.{._._.{.{.{._.{. X X{. X X X X{.{.{.{.{.{. X X{.{.{.{.{.{.{.{.{.{.{.{.{.{.{.{.{.{.{.{.{.{.{.{.{.{.{.{.{.{.{.{.{.{.{.{.{.{.{.{.{.{.{.{.{.{.{.{.{.{.{.{.{.{.{.{. X{.{.{.{.{.{.{.{.{.{.{.{.{.{.{.{.{.{.{.{.{.{.{.{.{.{.{.",
"_._._._._._._._._._._._._._._._.{.{.{.{.{.{.{.{.{.{.{.{.{.{.{.{.{.{.{.{.{.{.{.{.{.{.{.{.{.{.{.{.{.{.{.{.{.{.{.{.}.}.}.}.}.}.}.}.}.}.}.}.}.}.}.}.}.}.}.}.}.}.}.}.{.{.{.}.}.}.}.}.}.}.}.}.}.}.}.}.{.{.{.{.{.{.{.{.{.{.{.{.{.{.{.{.).).{.{.{.{.{.{.{.{.{.{.{.{.{.{.{.{.{.{.{.{.{.{.{.{.{.{.{.{.{.{.{.{.{.{.{.{.{.{.{.{.{.{.{.{.{.{.Y.Y.|.{.`._.T.K.:X>X>X>X2X2XeXeX[.[.Q.Q.f.f.y.y.y.p.t.t.p.u.i.i.u.e.e.u.r.u.u.r.&.&.=.*.9.&XXXOX{.{.{.{.{.{.{.{.{.{.{._. X X X X X X X X{.{.{.{.{.{. X X{.{.{.{.{.{.{.{.{.{.{.{.{.{.{.{.{.{.{.{.{.{.{.{.{. X{.{.{.{.{.{.{.{.{.{.{.{.{.{.{.{.{.{.{.{.{.{.{.{.{.{.{.{.{.{. X{.{.{.{.{.{.{.{.{.{.{.{.{.{.{.{.{.{.{.{.{.{.{.{.{.{.{.",
"{.{.{.{.{.{.{.{.{.{.{.{.{.{.{.{.{.{.{.{.{.{.{.{.{.{.{.{.{.{.{.{.{.{.{.{.{.{.{.{.{.{.{.{.{.{.{.{._.{.{.{.{.{.{.{.{.{.{.{.{.{.{.{.{.{.{.{.}.}.{.{.{.{.{.{.{.{.{.{.{.{.{.{.{.{.{.{.{.{.{.{.{.{.{.{.{.{.{.{.{.{.{.{.{.{.{.{.{.{.{.{.{.{.{.{.|.|.{.{.{.{.{.{.{.{.{.{.}.}.}.}.}.}.}.}.}.}.}.}.}.}.}.}.{.{.{.{.|.|.|.|.{.{.{.{.{.{.{.|.Y.Y.{.{.}. X XT.<X>X>X4X3X1X<XU.9.9.9.9.9.-.-.-.=.=.=.*.&.*.t.e.=.&.&.&.r.r.q.&.&.&.*.-.'.`._.P.P.{.{.{.{.{.{.{.{. X{.{. X X X X{.{.{.{.{.{.{.{. X X X X X X X X{.{.{.{.{.{.{.{.{.{. X X X X X X{.{.{.{. X X{.{.{.{. X{.{.{.{.{. X X X X{. X X X{.{.{.{.{.{.{.{. X X X X X X X X X X X X X X X X X X X X X X X X X X X X X X X X",
"}.}.}.}.}.}.}.}.{.{.{.{.{.{.{.{.{.{.{.{.}.}.{.{.{.{.{.{.{.{.{.{.{.{.{.{.{.{.{.{.{.{.{.{.{.{.{.{.{.{.{.{.}.}.{.{.{.{.{.{.{.{.{.{.}.{.{.{.}.}.{.{.{.{.{.{.{.{.{.{.{.{.{.{.{.{.{.{.{.{.{.{.{.{.{.{.{.{.{.{.{.{.{.{.{.{.{.{.{.{.{.{.{.{.{.{.|.|.{.{.{.{.{.{.|.|.{.{.}.}.}.}.}.}.}.}.}.}.}.}.}.}.}.{.{.{.{.{.|.|.|.{.|.|.{.|.{.{.{.{.Y.Y.{.{.}. X XT.K.<X>X4X3X1XxXeX[.Q.f.f.f.y.-.-.t.t.t.e.t.e.p.t.=.&.&.e.r.r.e.&.&.&.=.f.'.XX_. X_.{.{.{.{.{.{.{.{.{.{. X X X X X X X X X X{. X X{.{.{.{.{. X{.{.{.{.{.{.{.{.{.{.{.{.{.{.{.{.{.{.{.{.{.{. X X{.{. X{.{.{.{.{.{.{. X X X X X X X X X X X X X X X X X X X X X X X X X X X X X X X X X X X X X X X X X X X X X X X X",
"}.}.}.}.}.}.}.}.}.}.}.}.}.}.}.}.}.}.}.}.}.}.}.}.{.{.{.{.}.}.}.{.{.{.{.{.{.{.{.{.{.{.{.{.{.{.{.{.}.}.}.}.}.}.}.}.}.}.}.}.}.}.}.}.{.{.{.{.{.{.{.{.{.{.{.{.{.{.{.{.}.}.}.}.}.}.}.}.}.}.}.}.}.}.}.}.{.{.{.{.}.{.{.{.{.{.{.{.{.{.{.{.|.{.{.{.|.|.{.{.{.{.{.{.|.|.|.|.}.}.}.}.{.{.{.{.{.{.{.{.{.{.{.{.{.{.{.{.|.|.{.{.|.|.|.|.{.{.{.{.Y.Y.{.{.{. X XT.T.<X<X2X3XvXxXeXeX].'.^.^.^.d.i.i.i.i.p.u.t.u.p.e.e.e.r.r.s.r.e.&.*.=./.&XXXI. X{.{.{.{. X{. X X{.{.{. X X X X X X{.{. X X X X X{.{.{.{.{.{.{.{.{.{. X X{.{.{.{.{.{.{.{.{.{.{.{.{.{.{.{. X X X X X X X X{.{.{.{. X X X X X X X X X X X X X X X X X X X X X X X X X X X X X X X X X X X X X X X X X X X X X X X X",
"}.}.}.}.}.}.}.}.}.}.}.}.}.}.}.}.}.}.}.}.}.}.}.}.{.{.{.{.}.}.}.{.{.{.{.{.|.|.|.|.{.{.{.{.{.{.{.{.}.}.}.}.}.}.}.}.}.}.}.}.}.}.}.}.{.{.{.{.{.{.{.{.{.{.{.{.{.{.{.{.}.}.}.}.}.}.}.}.}.}.}.}.}.}.}.}.{.{.{.{.}.}.}.{.}.}.}.}.}.}.}.}.{.{.{.{.|.|.{.{.{.{.{.{.|.|.|.|.}.}.}.}.{.{.{.{.{.{.{.{.{.{.{.{.{.{.{.{.{.{.{.{.|.|.|.|.{.{.{.{.|.|.{.{.{. X X XT.T.<X2X2X1X2XeXeX].[.^.^.^.~.~.=Xi.E.a.u.t.i.u.e.e.e.r.r.r.r.e.&.*.-.'.`._.P._. X{.{. X X{.{. X{.{.{. X X X X X X X X X X X X X X{.{.{. X X X X{.{. X X X X{.{.{.{.{.{.{.{.{.{.{.{.{.XXXXXXXX X X X X X X{.{.{. X X X X X X X X X X X X X X X X X X X X X X X X X X X X X X X X X X X X X X X X X X X X X X X X",
"}.}.}.}.}.}.}.}.}.}.}.}.}.}.}.}.{.{.{.{.{.}.{.{.}.}.}.}.}.}.}.|.{.{.{.{.{.{.{.{.{.{.{.{.{.{.{.{.}.}.}.}.}.}.}.}.}.}.}.}.}.}.}.}.{.{.{.{.}.}.{.{.}.}.{.{.{.{.{.{.}.}.}.}.}.}.}.}.}.}.}.}.}.}.}.}.}.}.}.}.}.}.}.}.}.}.}.}.}.}.}.}.|.|.{.}.}.}.{.{.{.{.}.}.}.}.{.{.{.{.{.{.{.{.{.{.{.{.{.{.}.}.{.{.{.{.{.{.{.{.{.{.{.{.{.{.{.{.{.{.}.|.|.Y.Y.{. X X XT.T.<X2X2X2X<XU.S.9.9.f.y.p.t.=.&.e.e.&.*.e.=.&.&.&.&.&.=.e.e.&.*.W.&X&X`.XX{. X{. X X X{.{. X X X X X X X X X X X X X X X X X X X X XXXXXXXXX X X X X X X X X X X X X X X X X X XXXXXXXXXXXXXXXXXXX X X X X{. X X X X X X X X X X X X X X X X X X X X X X X X X X X X X X X X X X X X X X X X X X X X X X X X",
"}.}.}.}.}.}.}.}.}.}.}.}.}.}.}.}.{.{.{.{.}.}.{.{.}.}.}.}.}.}.}.|.|.|.{.|.{.{.{.{.}.}.|.|.}.}.}.}.}.}.}.}.}.}.}.}.}.}.}.}.}.}.}.}.}.}.{.{.}.}.{.{.}.}.{.{.{.{.{.{.}.}.}.}.}.}.}.}.}.}.}.}.}.}.}.}.}.}.}.}.}.}.}.}.}.}.}.}.}.}.}.}.|.|.{.{.}.}.{.{.{.{.}.}.{.}.{.{.{.{.{.{.{.{.}.{.{.{.{.{.}.{.{.{.{.{.{.{.{.{.{.{.{.{.{.{.{.{.{.}.}.}.|.Y.T.T. XXX XT.T.2X2X1X2X2X[.Q.9.9.9.y.t.=.e.&.e.t.e.&.t.e.&.&.&.&.&.&.=.e.&.=./.&X&XXX$X X X{. X X X{.{. X X X X X X X X X X X X X X X X X X X X XXXXXXX X X X X X X X X X X X X X X X X XXXXXXXXXXXXXXXXXXXXXXXXXXX X X X X X X X X X X X X X X X X X X X X X X X X X X X X X X X X X X XXXXXXXXXXXXXXXXXXXXXXXXXoXoXXXXX",
"}.}.}.}.}.}.}.}.}.}.}.}.}.}.}.}.}.}.}.}.}.}.}.}.}.}.}.}.}.}.}.}.|.|.|.|.{.{.{.{.}.}.}.|.}.}.}.}.}.}.}.}.}.}.}.}.}.}.}.}.}.}.}.}.}.{.{.}.}.}.}.{.}.}.}.}.}.}.}.}.}.}.}.}.}.}.}.}.}.}.}.}.}.}.}.}.}.}.}.}.}.}.}.}.}.}.}.}.}.}.}.}.|.{.{.{.}.}.{.{.{.{.{.}.{.{.{.{.{.{.{.{.}.}.}.}.{.{.{.}.}.{.{.{.{.{.{.{.{.{.{.{.{.{.{.{.{.{.{.}.}.}.{.Y.Y.T.{.}.XX XT.T.1XvXvXxXeX].[.Q.Q.d.i.p.p.e.p.u.t.e.u.e.e.e.q.q.&.&.=.e.=.=.&X&X`.&X}.XXXX{. X+X XY.P. X X X X X X X X X X X X XXXXXXXXX X X X XXXXXXX XXX X X X X X X X X X X X X X X XXXXXXXXXXXXXXXXXXXXXXXXXXXXXXX X X X X X X X X X X X X X X X X X X X X X X X X X X X X X X X X XoXoXoXoXoXoXoXoXoXoXoXoXoXoXoXoX",
"}.{.}.{.}.{.}.{.}.}.}.}.}.}.}.}.}.}.}.}.}.}.}.}.}.}.}.}.}.}.}.}.|.|.|.|.{.{.{.{.}.}.|.|.}.}.}.}.}.}.}.}.}.}.}.}.}.}.}.}.}.}.}.}.}.{.{.}.}.}.}.{.}.}.}.}.}.}.}.}.}.}.}.}.}.}.}.}.}.}.}.}.}.}.}.}.}.}.}.}.}.}.}.}.{.{.{.{.{.{.{.{.|.|.{.{.}.}.{.{.{.{.{.}.{.{.{.{.}.{.{.{.}.}.}.}.{.{.{.}.}.}.{.{.{.{.{.{.{.{.{.{.{.{.{.{.{.{.{.}.}.}.{.Y.Y.Y.{.}.}. XT.T.2X1X1X2XeX].[.Q.^.~.~.i.i.e.u.E.i.u.E.p.t.e.e.e.&.&.&.=.=.-.&X$X`.$X).XXXX{. X+X XY.P. X X X X X X X X X X X X XXXXXXXXX X X X X X X X X X X X X X X X X X X X X X X X XXXXXXXXXXXXXXXXXXXXXXXXXXXXXXXXX X X X X X X X XXXXXXXXXXXXXXXXX X X X X X X X X X X X X X X X X+X+X+X+X+X+X+X+X+X X X X+X+X+X X",
"{.{.{.{.{.{.{.{.{.{.{.{.}.{.{.{.}.{.}.{.}.{.}.{.}.{.}.{.}.{.}.}.}.}.}.}.}.}.}.}.}.}.}.}.}.}.}.}.}.{.}.{.}.{.}.{.}.{.}.{.}.{.}.{.{.{.{.{.{.{.{.{.{.{.}.}.}.}.}.}.}.}.}.}.}.}.}.}.}.}.}.}.}.}.}.}.}.}.}.}.}.}.}.}.}.}.}.}.}.}.}.}.{.{.{.}.{.{.{.{.{.{.{.}.{.{.{.{.}.}.}.}.}.}.}.}.XXXXXXXXXXXXXXXXXXXXXXXXXXXXXXXXXXXXXX}.XXXXXX}.XXXXXX|.|.XXXXXXoX XT.T.2XdXvX2XU.U.9.9.f.f.f.y.=.=.=.e.u.u.t.t.e.&.&.&.&.&.=.=.y.W.$X).XX X{. XXX XXXXXoXXXXX X X XXX XXX XXX X X X X XXX X X X X X X XXX XXX X X X X X X X X X X X X X X X X X XXXXXoXoXXXXX X X X XXX X X XXX X X X X X X X X X X X X X X X XXXXXXXXXXX X X XXXXXXXXX X X X X X X X X X X+X+X X X X X X X X X",
"{.{.{.{.{.{.{.{.{.{.{.{.{.{.{.{.{.{.{.{.{.{.{.{.{.{.{.{.{.{.{.{.}.}.}.}.}.}.}.}.}.}.}.}.}.}.}.}.{.{.{.{.{.{.{.{.{.{.{.{.{.{.{.{.{.{.{.{.{.{.{.{.{.{.}.}.}.}.}.}.}.}.}.}.}.}.}.}.}.}.}.}.}.}.}.}.}.}.}.}.}.}.}.}.}.}.}.}.}.}.}.}.{.{.{.}.{.{.{.{.{.{.{.}.{.{.{.{.}.}.}.}.}.}.}.}.XXXXXXXX}.}.XX}.XXXXXXXXXXXXXXXXXXXXXXXXXXXXXX XXXXXXX|.}.|.XXXXXX XT.T.2XdXvXxXeX[.L.9.f.f.f.y.-.=.=.=.p.p.e.t.t.e.&.&.&.&.&.=.W.!.$X_. X X{. XXXXXXXXXoXXXXX XXXXXXXXXXXXXXXXX X X X XXX X X X X X X X X X X X X X X X X X X X X X X X X X X X XXXoXoXoXoXXX X X X X X X X XXXoXoXXXXXXX XXX XXXXXXXXXXXXXXXXXXXXXXXXXXXXX X XXXXXoXoX X XXXXX X X X X X X+X+X X X X X X X X X",
"{.{.{.{.{.{.{.{.{.{.{.{.{.{.{.{.{.{.{.{.{.{.{.{.{.{.{.{.{.{.{.{.}.}.XXXXXXXX}.}.XXXXXXXX}.}.XXXX{.{.{.{.{.{.{.{.{.{.{.{.{.{.{.{.{.{.{.{.{.{.{.{.{.{.}.}.}.}.}.}.}.}.}.}.}.}.}.}.}.}.}.}.}.}.}.}.}.}.}.}.}.}.}.}.}.}.}.}.}.}.}.}.}.}.}.}.}.}.}.}.}.}.}.}.}.}.}.}.}.}.}.XXXXXX}.}.XXXX}.}.}.}.}.}.}.}.XXXX}.}.}.}.XXXX X XXXXXXX X XXXXXXXXX|.|.XX X X+XT.2XdXdXxXtX+X[.Q.Q.f.f.y.y.y.i.p.p.p.t.p.t.t.e.&.=.&.&.;.W.&XXX X{. X X XXXXXXXXXoXXXXX XXXXXXXXXXXXXXXXXXX X X XXX X XXX X X X X X X X X X X X XXX XXXXX X X X X X X X XXXXXoXoXoXoXXXXX X X X X XXX X XoXoXoXXXXXXXXXXXXXXXXXXXXXXXXXXXXXXXXXXXXXXXXXXXXXXXoXoXoXXXXXXXoXoXoX.XoXoXoXoXoXoXoXoX.X.X.X.X",
"{.{. X X X X{.{.{.{.{.{.{.{.{.{. X X{. X{.{.{.{.{.{. X X{.{.{.{.}.}.XXXXXXXX}.}.XXXXXX}.}.}.XXXX{.{.{.{.{.{.{.{.{.{.{.{.{.{.{.{.{.{.{.{.{.{.{.{.{.{.}.}.}.}.}.}.}.}.}.}.}.}.}.}.}.}.}.}.}.}.}.}.}.}.}.}.}.}.}.}.}.}.}.}.}.}.}.}.XXXX}.}.}.}.}.}.XXXX}.}.}.}.}.}.}.}.XX}.XXXX}.}.XXXX}.}.}.}.}.}.}.}.}.XX}.}.}.}.XXXX X XXX XXX X X X XXXXX|.XXXXXX X+X.X2XtXtXtXtX XL.9.9.f.f.y.i.E.~.p.t.p.t.t.=.e.e.&.=.=.*.;./.$X{.oX X XXX XXXXXXXXXoXXXXX XXXXXXXXXXXXXXXXXoX X XXXoX X XXX X X X X X X X X X X XXXXX XXXXX X X X X X X X XXXoXoXoXoXoXoXXXXXXXXX X XoXoX XoXoXoXoXXXXXXXXXXXXXXXXXXXXXXXXXXXXXXXXXXXXXXXXXXXXXoXoXoXXXXXXXoXoXoX.XoXoXoXoXoXoXoXoXoXoXoXoX",
"{. X X{.{.{.{.{. X X X X{.{.{.{.XXXXXXXXXXXXXX XXXXXXXXXXXXX XXXXXXXXXXXXXXXXXXXXXXXXXXXXXXXXXXX{.{.{.{.{.{.{.{.{.{.{.{.{.{.{.{.{.{.{.{.{.{.{.{.{.{.}.}.}.}.}.}.}.}.}.}.}.}.}.}.}.}.}.}.}.}.}.}.}.}.}.}.}.}.}.}.}.}.}.}.}.}.}.}.XX}.}.}.}.}.}.}.XX}.}.}.}.}.}.}.}.}.}.}.XXXXXXXX}.}.}.}.XXXXXXXX}.}.XXXXXX}.XXXXXXXXXXXXXXXXXX X X X X X}.}.}.XXXX X+X.XT.2XtX2X2XU.U.9.8.-.-.p.-.t.y.=.*.=.=.=.&.&.&.&.&.&.;.;.'.fX X$X X X XXXXX XXXoXoXoX X X X X XXXXXXXXX XoX X XXXoXXX XXX X X X X X X X X X X X X XXXXXXX X X X XXXXXXXXXoXoXoXoXoXoXoXoXoXoXoX XXXoXoX XXX X X XXXXXXXXX X X XXXXXXXXXXX X XXXXXXXXXXXXXXXXXXXXXoXXXXXXXoXoXoXoXoXoXoXoXoXoXoXoXoXoXoXoX",
"XXXXXXXX}.}.}.}. X X{. X{.{.{.{.XXXXXXXXXXXXXXXXXXXXXXXXXXXXXXXXXXXXXXXXXXXXXXXXXXXXXXXXXXXXXXXX X X X X{.{.{.{. X X X X{.{.{.{. X X X X{.{.{.{. X XXXXX}.}.}.}.XXXX}.}.}.}.}.}.XXXX}.}.}.}.}.}.}.}.}.XX}.}.}.}.}.}.}.XX}.}.}.}.XXXXXXXX}.}.}.XXXXXXXXXXXXXXXX}.}.}.}.}.XXXXXXXXXXXXXXXXXXXXXXXXXXXXXXXXXXXXXXXXXXXXXXXXXXXXXX X X+X X XXXXXXXXXXX XoX+X+XtXtXtXtXT.U.9.8.-.-.t.-.p.p.e.=.=.=.&.&.&.&.*.&.*.;.-.].$X X X X+X XXXXXXXXXoXoXoX X XXXXXXXXXXXoXoXoXoXXX XoXoXXX XXX X X X X X X X X X X X XXXXXXXXX X X X XXXXXoXXXoXoXoXoXoXoXoXoXoXoXoX XXXOXoX XoXoXoXoXoXoXoXoXoXoXoXoXoXoXoXoXoXoXoXoXoXoXoXoXoXoXoXoXoXoXoX.XoXoXoXoXoXoXoXOXoXoXoXoXoXoXoXoX",
"XXXXXXXXXXXXXXXXXXXXXXXXXXXXXXXXXXXXXXXXXXXXXXXXXXXXXXXXXXXXXXXXXXXXXXXXXXXXXXXXXXXXXXXXXXXXXXXXXXXXXXXXXXXXXXXXXXXXXXXXXXXXXXXX X X X XXXXXXXXXXXXXXXXXXXXXXXXXXXXXXXXXXXXXXXXXXXXXXXXXXXXXXXXXXXXXXXXXXXXXXXXXXXXXXXXXXXXXXXXXXXXXXXXXXXXXXXXXXXXXXXXXXXXXXXXXXXXXXXXXXXXXXXXXXXXXXXXXXXXXXXXXXXXXXXXXXXXXXXXXXXXXXXXXXXXXXX X X X X XXXXXXXXXXX XoX+X+XtXtXtXtXeXU.9.9.8.p.p.i.i.p.i.e.=.e.=.q.q.e.&.&.*.;.W.&X$X$X X+XoX XXXXXXXXXoXoXoX X XXXXXXXoXoXoXoXoXoX+X XoXoX+X X+X+X+X+X+X X+X+X+X X X X XoXoXoXoX.XoXoXoXoXoXoXoXoXoXoXOXOXOXoXoXoXOXoX X+XOXOX XoXoX.X.XoXoXoXoX.X.XoXoXoXoX+X+XoXoXoXoXoXoXoXoXoXoXoXoXoXoXoXoXoX.XoXoXoXOXOXOXOXoXoXoXOXOXOXoX",
"XXXXXXXXXXXXXXXXXXXXXXXXXXXXXXXXXXXXXXXXXXXXXXXXXXXXXXXXXXXXXXXXXXXXXXXXXXXXXXXXXXXXXXXXXXXXXXXXXXXXXXXXXXXXXXXXXXXXXXXXXXXXXXXX X X X XXXXXXXXXXXXXXXXXXXXXXXXXXXXXXXXXXXXXXXXXXXXXXXXXXXXXXXXXXXXXXXXXXXXXXXXXXXXXXXXXXXXXXXXXXXXXXXXXXXXXXXXXXXXXXXXXXXXXXXXXXXXXXXXXXXXXXXXXXXXXXXXXXXXXXXXXXXXXXXXXXXXXXXXXXXXXXXXXXXXXXX X X X X XXXXXXXXXXX XXXoX+X+XtXtXtX XU.9.9.8.p.p.p.t.=.E.t.&.e.e.e.q.e.&.&.*.;./.$XXXfXI.+XoX{.XXXXXXXXoXoXoX X XXXXXXXoXoXoXoXoXOXoX+XoXoX+X X+X+X+X+X+X+X+X+X+XoXoXoXoXoXoXoXoXoXoXoXoXoXoXoXoXoXoXoXOXOXoXoXoXoXOXoX X+XOXOX XoXoX.X.XoXoXoXoX.X.XoXoXoXoX+X+XoXoXoXoXoXoXoXoXoXoXoXoXoXoXoXoX.XoXoXoXoXOXOXOXoXoXoXoXOXOXOXoX",
"XXXXXXXXXXXXXXXXXXXXXXXXXXXXXXXXXXXXXXXXXXXXXXXXXXXXXXXXXXXXXXXXXXXXXXXXXXXXXXXXXXXXXXXXXXXXXXXXXXXXXXXXXXXXXXXXXXXXXXXXXXXXXXXX X X X XXXXXXXXXXXXXXXXXXXXXXXXXXXXXXXXXXXXXXXXXXXXXXXXXXXXXXXXXXXXXXXXXXXXXXXXXXXXXXXXXXXXXXXXXXXXXXXXXXXXXXXXXXXXXXXXXXXXXXXXXXXXXXXXXXXXXXXXXXXXXXXXXXXXXXXXXXXXXXXXXoXoXXXXXXXXXXXXXXXXXXXXX+X+X X XXXXXXXXXXXXXXXoX+X+X+X+XtXtXU.9.9.-.-.-.*.*.*.&.=.&.&.=.e.&.&.&.*.*.y.&X$XXXoXoX X+X X XoXoXoXoXoXoXoXoXoXoXoXoXoXoXoXoXoXoXoXoXOXOXOXoXoXoXoXoXoX+X+X+XoXoXoXoXoXoXoXoXoXoXoXoXoXoXoXoXoXoXoXoXoXoXoXoXoXoXoXoXOXOXOXoXoXoXoXoXoXoXoXoXoXoXoXoXoXoXoXoXoXoXoXoXoXoXoXoXoXoXoXoXoXoXoXoX.X.X.X.X.X.X.X.XoXoXoXoX.X.X.X.X",
"XXXXXXXXXXXXXXXXXXXXXXXXXXXXXXXXXXXXXXXXXXXXXXXXXXXXXXXXXXXXXXXXXXXXXXXXXXXXXXXXXXXXXXXXXXXXXXXXXXXXXXXXXXXXXXXXXXXXXXXXXXXXXXXX X X X XXXXXXXXXXXXXXXXXXXXXXXXXXXXXXXXXXXXXXXXXXXXXXXXXXXXXXXXXXXXXXXXXXXXXXXXXXXXXXXXXXXXXXXXXXXXXXXXXXXXXXXXXXXXXXXXXXXXXXXXXXXXXXXXXXXXXXXXXXXXXXXXXXXXXXXXXXXXXXXXXoXoXXXXXXXXXXXXXXXXXXXXXoXoXXXXXXXXXoXoXXXXXXXoXoX+X+X+XT.T.U.9.8.-.-.;.=.=.*.&.=.=.=.=.&.*.*.*.*.=.^.;X$XXXXX+X+X XoXoXoXoXoXoXoXoXoXoXoXoXoXoXoXoXoXoXoXoXOXoXOXOXOXoXoXoXoXoX+X+XoX+XoXoXoXoXoXoXoXoXoXoXoXoXoXoXoXoXoXoXoXoXoXOXoXoXoXoXoXoXOXOXOXoXoXoXoXoXoXoXoXoXOXOXOXOXOXOXoXoXoXoXoXoXoXOXOXOXoXoXoXoXoXoXoXoXoXoXoXoXoXoXoXoXoXoXoXoX.X.X.X.X",
"oXoXoXoXoXoXXXXXXXXXXXXXXXXXXXXXXXXXXXXXXXXXXXXXXXXXXXXXXXXXXXXXXXXXXXXXXXXXXXXXXXXXXXXXXXXXXXXXXXXXXXXXXXXXXXXXXXXXXXXXXXXXXXXX X X X XXXXXXXXXXXXXXXXXXXXXXXXXXXXXXXXXXXXXXXXXXXXXXXXXXXXXXXXXXXXXXXXXXXXXXXXXXXXXoXoXXXXXXXXXXXXXXXXXXXXXXXXXXXXXoXoXXXXXXXXXoXoXoXoXoXoXoXoXoXoXoXoXoXoXoXoXXXXXoXoXXXXXXXXXXXXXXXXXXXXXXXXXoXoXoXoXoXXXoXoXXXXXoXoXoX+XoX+XtXT.U.S.9.9.9.-.-.-.=.;.=.=.=.=.=.=.;.;.;.-./.;XoXoX X+X+X+X+X+XoXoXoXoXoXoXoXoXoXoXoXoXOXOXoXoXOXoXOXOX.X.X.XOX+X+X+X+X+X+X+X+X.X.X.X.X.XoX.X.XoXoXoX.X.X.X.X+X.X.X.X.XoXoX.X.X+X+X X+X.XoXoXoXoXoXoXoXoXoXoXoXOXOXOXOXOXOXOXOXOXOXOXOXOXOXOXOXoXoXoXoXOXOXOXOX.X.X.X.XoXoXoXoXoXoXoXoXoXoXOXOX",
"oXXXoXoXoXoXoXXXXXXXXXXXXXXXXXXXXXXXXXXXXXXXXXXXXXXXXXXXXXXXXXXXXXXXXXXXXXXXXXXXXXXXXXXXXXXXXXXXXXXXXXXXXXXXXXXXXXXXXXXXXXXXXXXXXXXXXXXXXXXXXXXXXXXXXXXXXXXXXXXXXXXXXXXXXXXXXXXXXXXXoXoXXXXXXXXXXXXXXXXXXXXXXXXXXXoXoXoXXXXXXXXXXXXXXXXXXXXXXXXXXXoXoXoXXXXXXXXXoXoXoXoXoXoXoXoXoXoXoXoXoXoXoXoXoXoXoXoXoXoXoXoXoXoXXXXXoXoXoXoXoXoXoXoXoXoXoXoXXXXXoXoX+XOX+X+XyXtX XU.7.8.8.-.;.;.;.;.;.;.=.;.;.;.;.;.#.-.&X$X$XoX+X+X+X.X.X.XoXoXoXoXoXOXoXoXoXoXoXOXOXOXoXoXOXOXOXOX.X.X.XOX+X+X+X+X+X+X+X+X.X.X.X.XoXoX.XoXoXoX.X.XoXoXoX.XoX.X.XoXoXoXoX.X.X+X.X.X.XOXoXoXoXoXoXoXoXoXoXoXOXOXOXOXOXOXOXOXOXOXOXOXOXOXOXOXoXoXoXoXOXOXOXOXOXOXOXOXoXoXoXoXOXOXOXOXOXOXOXOX",
"oXoXoXoXoXoXoXoXXXXXXXXXXXXXXXXXXXXXXXXXXXXXXXXXXXXXXXXXXXXXXXXXXXXXXXXXoXoXoXoXXXXXXXXXXXXXXXXXXXXXXXXXXXXXXXXXXXXXXXXXXXXXoXoXXXXXXXXXoXoXoXoXXXXXXXXXXXXXXXXXXXXXXXXXXXXXXXXXXXXXXXXXXXXX XXXXXXXXXXXXXXXXXXXoXoXoXoXoXoXoXoXoXoXoXoXoXoXoXoXoXoXoXoXoXoXoXoXoXoXXXXXXXXXXXXXXXXXXXXXXXXXXXXXoXoXoXoXXXoXoXoXoXoXoXoXoXoXoXoXXXXXXXXXoXoXoXoXoXoXoX.XoXoXoX+X.XtX+XU.0.3.>.>.C V V C V ;.>.;.C V V V V 8.$X$XoX+X+X.X.X.X.X.XoXoXoXoXoXOXOXoXoXoXoXoXoXoXoXoXoXoX+X+X+X+XoXoX+X+X+X+X+XoXoXOXoXoXoXoXoXoXoXoXoXoX.X.X.XoXoXoXoXoX.XoXOXOXoXoX.X+X+X.XoXoXoXoXOXOXOXOXOXOXOXOXoXoXoXOXOXOXoXoXoXoXoXoXoXoXoXOXOXOXOXOXOXOXOXOX.X.X.X.XOXOXOXOXOXOXOXOXOXOXOXOX",
"oXoXoXoXoXoXoXoXoXoXoXoXoXoXoXoXXXXXXXXXXXXXXXXXXXXXXXXXXXXXXXXX$XoXoXoXOXOXOXOXoXoXXXXXoXoXoXoXoXoXoXoXoXoXoXoXoXoXoXoXoXoXoXoXoXoXoXoXoXoXoXoXoXoXoXoXoXoXoXoXoXoXoXoXoXoXoXoXoXoXoXoXoXoXoXoXoXoXoXoXoXoXoXoXoXoXoXoXoXoXoXoXoXoXoXoXoXoXoXoXoXoXoXoXoXoXoXoXoXoXoXoXoXoXoXoXoXoXoXoXoXoXoXoXoXoXoXoXXXXXoXoXoXoXoXoXoXoXoXoXXXXXXXXXoXoXoXoXoX+X.X.XoXOXOX.XY.+XrX+XU.j.:.C C M C C C C C C C C M V V 3..XoX.X+X.X.X.X.XtXOXoXoXoXoXOXOXOXoXoXoXoXoXoXoXoXoXoXoXoXoXoXoXoXoX+X+X+XoXoXoXoXoXoXoXoX.XoXoXoX.XOX.X.X.X.XOXoXoXoX.XoXoXOXOXOXoXoX.X.X.XoXOXOXoXOXOXOXOXOXOXOXOXoXoXoXoXOXOXoXoXoXoXoXoXoXoXoXOXOXOXOXOXOXOXOXOXOXOXOXOXOXOXOXOXOXOXOXOXOXOXOXOX",
"oXoXoXoXoXoXoXoXoXoXoXoXXXoXoXoXoXoXoXoXoXoXXXXXoXoXoXoXoXoXXXXX$X$XoXoXOXOXOXOXXXXXoXXXXXoXXXXXoXoXoXoXoXoXoXoXoXoXoXoXoXoXoXoXoXoXoXoXoXoXoXoXoXoXoXoXoXoXoXoXoXoXoXoXoXoXoXoXoXoXoXoXoXoXoXoXoXoXoXoXoXoXoXoXoXoXoXoXoXoXoXoXoXoXoXoXoXoXoXoXoXoXoXoXoXoXoXoXoXoXoXoXoXoXoXoXoXoXoXoXoXoXoXoXXXXXoXoXXXXXXXXXoXoXoXoXoXoXoXoXOXoXoXoXoXoXoX+X+X.X.X.X.X.X.X.XOXOX.X.XT.z.( z K K x K K x x K K K x z M 2.T.pX.X.X.X.X.XtXtXrXoXoXoXoXOXOXOXoXOXOXOXOXOXOXOXOXoXoXoXoXoXoXoXoX+X+X+XoXoXoXoXoXoXoXoXoXoXoXoX.XOX.X X XoXOXOXoXoX.X.XoXOXOXOXoXoXoXoXoXOXOXOXOXOXOXOXOXOXOXOXOXOXOXOXOXOXOXOXOXOXOXOXOXOXOXOXOXOXOXOXOXOXOXOXOXOXOXOXOXOXOXOXOXOX#X#X#XOXOXOXOX",
"OXOXOXOXOXOXOXOXoXoXoXoXoXoXoXoXoXoXoXoXoXXXXXXXoXoXoXoXoXoXXXXXOXoXXXoXoXoXOXoXOXoXOXOXOXOXOXoXoXoXoXoXoXoXoXoXoXoXoXoXoXoXoXoXoXoXoXoXoXoXoXoXoXoXoXoXoXOXoXoXoXoXoXoXoXoXoXoXoXoXoXoXoXoXoXoXoXoXoXoXoXoXoXoXoXoXoXoXoXoXoXoXoXoXoXoXoXoXoXoXoXoXoXoXoXoXoXoXOXOXOXOXOXOXOXOXOXOXOXOXOXOXOXOXoXoXoXoXXXXXXXXXoXoXoXoXoXoXoXoXOXOXOXOXOXOXOXOX+X.X.X.XOX.XoX.X.X XT.T.pX2XK.k.K K K K K K T R ] ] ( T ( k.T.pX.X.X.X.X.XrXrXrXoXoXoXoXoXOXOXOXOXOXOXOXOXOXOXOXOXoXOXoXOXoXOXoX+X+X+XoXOXoXOXOXoXoXoXoXoXoXoX.XOXoX X XoXOXOXoXoXoXOXoXOXOXOXoXOXoXOXOXOXOXOXOXOXOXOXOXOXOXOXOXOXOXOXOXOXOXOXOXOXOXrXOXOXOXOXOXOXOXOXOXOXOXOXOXOX#XOXOXOXOXrX#XrX#XrX#XOXOXOXOX",
"OXOXOXOXOXOXOXoXoXoXoXoXoXoXXXXXoXoXoXXXXXXXoXoXoXoXoXoXoXoXoXXXOXoXOXoXOXoXOXoXoXoXoXoXoXoXoXoXoXoXoXoXoXoXoXoXoXoXoXoXXXXXXXoXoXXXXXXXXXXXXXXXoXoXoXoXoXoXoXoXoXoXoXoXoXoXoXoXoXoXoXoXoXoXoXoXoXoXoXoXoXoXoXoXoXoXoXoXoXoXOXOXoXoXoXoXoXoXoXoXoXoXoXoXoXoXoXoXoXoXoXoXOXOXOXOXoXoXoXoXoXoXoXOXoXoXoXoXoXoXoXoXoXoXoXoXoXoXoXoXoXoXoXoXoXoXoXoXoXoXoXoXOXOXOXoX.X.X.X.X.XT.T.T.K.J.z.K.R.R.K.K.T.2X2X2X2X2XtX.X.X.XOX.XOXrXrXrXOX.XoX.X.X.X.X.X.X.X.X.XOX.XOXoXoXoX.X.XOXOXoXOXoX.X.XOXoXOXoXoXoXoXoXoXoXOXOXOXOXOXoX+XoXOXOXoXOXOXOXOXrXOXOXOXrXOXOXOXOXOXOXOXOXOXOXOXOXOXOXOXOXOXOXOXOXOXOXOXrXrXOXOXOXOXOXOXrXrXrXrXrXrXrXrXOXOXOXOXOXOXOXOXrXOXrXOXrXOXrXOX",
"OXOXoXoXOXOXOXoXoXoXoXoXoXoXoXoXoXoXXXXXXXXXoXoXoXoXXXoXoXoXoXXXOXoXoXoXoXoXoXoXoXoXoXoXoXoXoXoXoXoXoXoXoXoXoXoXoXoXoXoXoXoXoXoXOXOXOXOXOXOXoXoXoXoXoXoXoXoXoXoXoXoXoXoXoXoX.X.X.X.XoXoXoXoXoXoXoXoXoXoXoXoXoXoXoXoXoXoXoXOXOXOXOXOXOXOXOXOXOXOXOXOXOXOXOXOXOXOXOXOXOXOXOXOXOXOXoXoXoXoXoXoXoXoXOXOXOXOXOXOXOXOXOXOXOXOXOXOXOXOXoXoXoXoXoXoXoXoXOXOXOXOXOXOXOXOXoX.X.X.X.X.X.X.XpX#X#XpXpX2X2XpXT..X.X.XpXtX.X.X.X.XOXOXOXOXOXOX.X.X.X.X.X.X.X.X.X.X.X.X.X.X.X.XoX.X.X.XOXOXOXoXoX.XoXoXoXOXOXOXOXOXOXOXOXOXOXOXOXOX.X+XoXOXOXOXOXOXOXOXOXOXOXOXrXrXOXOXrXrXrXrXOXOXOXOXOXOXOXOXOXOXOXOXOXOXOXOXrXrXrXrXrXrXrXrXrXrXrXrXrXrXrXrXrXrXrXrXrXrXrXrXrXrXrXrXrXrXrXrX",
"oXoXoXoXOXOXOXOXoXoXoXoXoXoXoXoXOXOXOXOXoXoXoXOXoXoXXXXXoXoXoXoXOXoXoXoXoXoXoXoXoXoXoXoXoXoXoXoXoXoXoXoXoXoXoXoXoXoXoXoXoXoXoXoXOXOXOXOXOXOXOXOXoXoXoXOXoXoXoXoXoXoXoXoXoXoXoX.XoXoXoXoXoXoXoXoXoXoXoXoXoXoXoXoXoXoXoXoXOXOXOXOXOXOXOXOXOXOXOXOXOXOXOXOXOXOXOXOXOXOXOXOXOXOXOXOXOXoXoXoXoXoXOXOXOXOXOXOXOXOXOXOXOXOXOXOXOXOXOXOXOXOXOXOXoXoXOXOXOXOXOXOXOXOXOXOXOXOXOXOXOXOX.X.X.XpXyX#XT.T.T.T..XpXpX.X.X.X.XpX.X.XOXOXOXOXOXOXOXOXOXOXOXOXOXOX.X.X.X.XOXOXOXOXOXoX.XoXOXOXOXOXoXoXoXoXOXOXOXOXOXOXOXOXOXOXOXOXOXoX.X.XOXOXOXOXrXrXOXOXOXrXOXOXrXrXrXrXrXrXrXrXOXOXrXrXOXOXOXOXOXOXgXgXgXgXOXrXrXrXrXrXrXrXrXrXrXrXrXrXrXrXrXrXrXrXrXrXrXrXrXrXyXyXyXrXrXyXyXyX",
"OXOXOXOXOXOXOXOXoXoXoXoXoXoXoXoXOXOXOXOXoXoXOXOXoXoXoXoXOXOXOXOXOXoXoXoXoXoXoXoXoXoXoXoXoXoXoXoXoXoXoXoXoXoXoXoXoXoXoXoXoXoXoXOXOXOXOXOXOXOXOXOXOXOXOXOXOXOXOXOXoXoXoXoXoXoXoXoXoXoXoXoXoXoXoXoXoXoXoXoXoXoXoXoXoXoXOXOXOXOXOXOXOXOXOXOXOXOXOXOXOXOXOXOXOXOXOXOXOXOXOXOXOXOXOXOXOXOXOXOXOXOXOXOXOXOXOXOXOXOXOXOXOXOXOXOXOXOXOXOXOXOXOXOXOXOXOXOXOXOXOXOXOXOXOXOXOXOXOXOXOXOXOXOX.XyXyX.XT..X.X.XT.pXpXpXpXpX.XpX.X.XOXOXOXOXOXOXrXrXrXrXOXrXrXrXOXOXOXOXOXOXOXOXOXOXoXOXOXOXOXOXOXOXOXOXOXOXOXOXOXOXOXOXOXOXOXOXOX.X+XoXOXOXOXOXrXrXrXOXrXrXrXrXrXrXrXrXrXrXrXrXgXrXgXgXgXgXOXOXrXOXgXgXgXgXOXOXrXrXrXrXrXrXrXrXrXrXrXrXrXrXrXrXrXrXrXrXrXrXrXrXyXyXyXyXyXyXyXyX",
"OXOXoXoXoXoXoXoXoXoXoXOXoXoXoXoXoXoXoXoXoXoXoXoXoXoXoXoXoXoXoXoXOXOXOXOXOXOXOXOXOXOXoXoXoXoXoXoXoXoXoXoXOXOXOXOXOXOXoXoXoXoXOXOXoXoXOXoXoXoXoXOXOXOXOXOXOXOXOXOXoXoXoXoXOXOXOXOXoXoXoXoXoXoXoXoXOXOXOXOXOXOXOXOXOXOXOXOXOXOXOXOXOXOXOXOXOXOXOXOXOXOXOXOXOXOXOXOXOXOXOXOXOXOXOXOXOXOXOXOXOXOXOXOXOXOXOXOXOXOXOXOXOXOXOXOXOXOXOXOXOXOXOXOXOXOXOXOXOXOXOXOXOXOXOXOXOXOXOXOXOXOXOXOXOXgXgX#XOXyXyXrX.XtXpXpXyXpXpXtX.X.X.X.XOXOXOXOXOXOXOXOXOXOXOXrXOXOXOXOXOXOXOXOXOXOXOXOXOXOXOXOX.XOXOXOXOXOXOXOXOXOXOXOXOXOXOXOXOX.X+XOX#X#XOXyXrXrXrXrXrXOXOXOXrXrXOXrXrXrXrXrXyXyXyXyXrXrXrXrXrXrXrXrXrXrXOXOXrXrXrXrXrXrXrXrXrXrXrXrXrXrXrXrXrXrXrXrXrXrXrXrXrXrXrXyXyXyXyXyX",
"OXOXoXoXoXoXoXoXoXoXOXOXoXoXoXOXoXoXoXoXoXoXoXoXOXOXoXoXoXoXoXoXOXOXOXOXOXOXOXOXoXOXoXoXoXoXoXoXoXoXoXoXOXOXOXOXOXOXoXOXoXoXOXOXoXoXOXOXoXoXoXoXOXOXOXOXOXOXOXOXOXOXOXOXOXOXOXOXOXOXOXOXOXOXOXOXOXOXOXOXOXOXOXOXOXOXOXOXOXOXOXOXOXOXOXOXOXOXOXOXOXOXOXOXOXOXOXoXOXOXOXOXOXOXOXOXOXOXOXOXOXOXOXOXOXOXOXOXOXOXOXOXOXOXOXOXOXOXOXOXOXOXOXOXOXOXOXOXOXOXOXOXOXOXOXOXOXOXOXOXOXOXOXOXOXOXOXOXOXrXOX.XtXtXpXyXyXyXpX.X.X.X.X.XOXOXOXOXOXOXOXOXOXOXrXrXOXOXOXOXOXOXOXOXOXOXOXOX#X#X#XOXOXOX#XOXOXOX#X#XOXOXOXOXOXOXOXOX#X.X+XOXyX#X#XyXrXrXrXrXrXOXOXOXrXrXOXrXrXrXrXrXyXyXyXyXrXrXrXrXrXrXrXrXrXrXOXOXrXrXrXrXrXrXrXrXrXrXrXrXrXrXrXrXrXrXrXrXrXrXrXrXrXrXrXyXyXyXyXyX",
"OXOXOXOXoXoXoXoXoXoXOXOXOXOXOXOXoXoXoXoXoXoXoXoXOXOXOXOXoXoXoXoXOXOXOXOXOXOXOXOXoXoXoXoXoXoXoXoXOXOXOXOXOXOXOXOXOXOXOXOXOXOXOXOXOXOXOXOXOXOXOXOXOXOXOXOXOXOXOXOXOXOXOXOXOXOXOXOXOXOXOXOXOXOXOXOXOXOXOXOXOXOXOXOXOXOXOXOXOXOXOXOXOXOXOXOXOXOXOXOXOXOXOXOXOXOXOXOXOXOXOXOXOXOXOXOXOXOXOXOXOXOXOXOXOXOXOXOXOX@XOX@XOX@XOXOXOXOXOXOXOXOXOXOXOXOXOXOXOXOXOXOXOXOXOXOXOXOXOXOXOXOXOXOXgXOXOXgXrXOXOXrXpXtX.XpXuXuXpX.X.X.X.X.X.XpXOXOXrXrXrXrXyXrXrXrXrXrXrXrXrXrXOXOXrXrXOXrXrXyXyXOXOXrXrXrXrXrXOXOXrXrXrXrXOXOXOXOXyX.X.XrXyXOXrXyXrXrXrXrXrXrXOXOXrXrXrXrXrXyXrXrXrXrXyXyXyXrXyXyXyXyXyXyXyXyXyXyXrXrXrXrXrXrXrXrXrXrXrXrXrXrXrXrXrXrXyXyXyXyXyXyXyXyXyXyXyXyXyXyX",
"OXOXOXOXoXoXoXoXoXoXOXOXOXOXOXOXoXoXoXoXoXoXoXoXOXOXOXOXoXoXoXoXOXOXOXOXOXOXOXOXoXoXoXoXoXoXoXoXOXOXOXOXOXOXOXOXOXOXOXOXOXOXOXOXOXOXOXOXOXOXOXOXOXOXOXOXOXOXOXOXOXOXOXOXOXOXOXOXOXOXOXOXOXOXOXOXOXOXOXOXOXOXOXOX@X@XOXOXOXOXOXOXOXOXOXOXOXOXOXOXOXOXOXOXOXOXOXOXOXOXOXOXOXOXOXOXOXOXOXOXOXOXOXOX@X@X@X@X@X@X@X@X@X@X@X@X@X@X@X@XOXOXOXOXOXOXOXOXOXOXOXOXOXOXOXOXOXOXOXOXOXOXOXrXrXOXOXgXrXOXOXgXyXtX.XpXuXuXrX.X.X.X.X.X.XpXOXOXrXrXrXrXyXrXrXrXyXyXyXyXyXyXyXyXyXOXrXrXrXyXyXyXOXrXrXyXrXrXOXyXyXyXyXyXyXyXyXyXyX.X.XyXyXOXOXyXrXrXrXrXrXrXOXOXrXrXrXrXyXyXyXyXyXyXyXyXyXyXyXyXyXyXyXyXyXyXyXyXyXyXyXyXyXyXyXyXrXrXrXrXrXrXrXrXyXyXyXyXyXyXyXyXyXyXyXyXyXyXyXyX",
"OXOXOXOXOXOXOXOXOXOXOXOXOXOXOXOXOXOXOXOXOXoXoXoXOXOXOXOXOXOXOXOXOXOXOXOXOXOXOXOXOXOXOXOXOXOXOXOXOXOXOXOXOXOXOXOXOXOXOXOXOXOXOXOXOXOXOXOXOXOXOXOXOXOXOXOXOXOXOXOXOXOXOXOXOXOXOXOXOXOXOXOXOXOXOXOXOXOXOXOXOXOXOXOXOXOXOXOXOXOXOXOXOXOXOXOXOXOXOXOXOXOXOXOXOXOXOXOXOXOXOXOXOXOXOXOXOXOXOXOXOXOXOXOXOXOXOXOXOXOXOXOXOXOXOXOXOXOXOXOXOXOXOXOXOXOXOXOX@X@X@X@XOXOXOX#XOXOX#X#X#X#XrXrXOXOXOXOXrXrXrXrXpXtXtXpXyXyXpXpX.X.X.XpXpXpXrXrXyXyXyXrXOXOXOXOXrXOXrXrXOXOXOXrXyXOXOXrXyXyXyXyXOXOXOXrXyXyXyXyXOXOXOXOXOXOXOXOXyXyXrXrXyXyXyXyXyXyXrXrXrXrXrXrXrXrXrXrXrXrXrXrXyXyXyXyXyXyXyXyXyXyXyXyXyXyXyXyXyXyXyXyXyXyXyXyXyXyXyXyXyXyXyXyXyXyXyXyXyXyXyXyXyXyXyXyXyXyXyXyX",
"OXOXOXOXOXOXOXOXOXOXOXOXOXOXOXOXOXOXOXOXOXOXOXOXOXOXOXOXOXOXOXOXOXOXOXOXOXOXOXOXOXOXOXOXOXOXOXOXOXOXOXOXOXOXOXOXOXOXOXOXOXOXOXOXOXOXOXOXOXOXOXOXOXOXOXOXOXOXOXOXOXOXOXOXOXOXOXOXOXOXOXOXOXOXOXOXOXOXOXOXOXOXOXOXOXOXOXOXOXOXOXOXOXOXOXOXOXOXOXOXOXOXOXOXOXOXOXOXOXOXOXOXOXOXOXOXOXOXOXOXOXOXOXOXOX@X@X@XOXOXOXOX@X@XOXOXOXOXOXOXOXOXOXOXOXOXOXOX@X@X@X@XOXOXOX#XOX.X#X#X#X#XyXyXrXrXrXrXrXrXrXrXpXpXpXpXyXyXyXpX.X.XpXpXpXrXrXrXyXyXrXrXOXOXOXOXrXrXrXrXOXOXOXOXrXrXOXrXyXyXyXyXOXOXOXrXyXyXyXyXrXyXyXyXyXrXrXyXyXyXyXrXyXyXyXyXyXyXrXrXrXrXrXrXyXyXyXyXyXyXyXyXyXyXyXyXyXyXyXyXyXyXyXyXyXyXyXyXyXyXyXyXyXyXyXyXyXyXyXyXyXyXyXyXyXyXyXyXyXyXyXyXyXyXyXyXyXyXyXyX",
"OXOXoXoXOXOXOXOXOXOXOXOXOXOXOXOXOXOXOXOXOXOXOXOXOXOXOXOXOXOXOXOXOXOXOXOXOXOXOXOXOXOXOXOXOXOXOXOXOXOXOXOXOXOXOXOXOXOXOXOXOXOXOXOXOXOXOXOXOXOXOXOXOXOXOXOXOXOXOXOXOXOXOXOXOXOXOXOXOXOXOXOXOXOXOXOXOXOXOXOXOXOXOXOXOXOXOXOXOXOXOXOX@X@XOXOX@X@X@X@XOXOXOXOXOXOXOXOXOXOXOXOXOXOXOXOXOXOXOXOXOXOXOXOX@X@X@X@X@X@X@X@X@X@X@X@X@X@X@X@XOXOXOXOXOXOXOXOX@XOX@XOXOXOXOX#X#X#X#XyX#X#XyXyXyXyXrXrXyXyXrXyXpX.XpXpXyXyXyXpXpXpXpXpXpXpXpXrXyXyXyXyXyXyXrXrXyXyXyXyXyXyXrXrXrXrX.XrXyXyXyXyXrXOXrXyXyXyXyXyXyXyXyXyXyXyXyXyXrXrXyXyXyXrXyXyXyXyXyXyXrXrXrXrXyXyXyXyXyXyXyXyXyXyXyXyXyXyXyXyXyXyXyXyXyXyXyXyXyXyXyXyXyXyXyXyXyXyXyXyXyXyXyXyXyXyXyXyXyXyXyXyXyXyXyXyXyXyXyXyX",
"OXOXoXoXOXOXOXOXOXOXOXOXOXOXOXOXOXOXOXOXOXOXOXOXOXOXOXOXOXOXOXOXOXOXOXOXOXOXOXOXOXOXOXOXOXOXOXOXOXOXOXOXOXOXOXOXOXOXOXOXOXOXOXOXOXOXOXOXOXOXOXOXOXOXOXOXOXOXOXOXOXOXOXOXOXOXOXOXOXOXOXOXOXOXOXOXOXOXOXOXOXOXOXOXOXOXOXOX@X@X@X@XOXOXOXOXOXOX@X@XOXOXOXOXOXOXOXOX@X@X@X@X@X@X@X@XOXOXOXOX@X@X@X@X@X@X@X@X@X@X@X@X@X@X@X@X@X@X@X@XOXOXOXOX@X@X@X@XOXOX@X@XOXOXOX#X#X#XyXyXyXyXyXyXyXyXrXrXyXyXyXyXpXpXpXrXpXyXyXyXpXpXpXpXpXpXpXyXrXyXyXyXyXyXyXrXyXyXyXyXrXyXrXrXyXrXrXyXyXyXyXyXyXrXrXyXyXyXyXyXyXyXyXyXyXyXyXyXrXrXyXyXrXyXyXyXyXyXyXyXyXyXrXrXyXyXyXyXyXyXyXyXyXyXyXyXyXyXyXyXyXyXyXyXyXyXyXyXyXyXyXyXyXyXyXyXyXyXyXyXyXyXyXyXyXyXyXyXyXyXyXyXyXyXyXyXyXyXyXyX",
"OXOXOXOXOXOXOXOXOXOXOXOXOXOXOXOXOXOXOXOXOXOXOXOXOXOXOXOXOXOXOXOX%X%X%X%XOXOXOXOXOXOXOXOXOXOXOXOXOXOXOXOXOXOXOXOXOXOXOXOXOXOXOXOXOXOXOXOXOXOXOXOXOXOXOXOXOXOXOXOXOXOXOX%X%X%X%X%X%X%X%X%XOXOX%X%X@X@X@X@XOXOXOXOXOXOXOXOX@X@X@X@XOXOXOXOXOXOXOXOX@X@X@X@XOXOXOXOX@X@X@X@XyXyXyXyX@X@X@X@X@X@X@X@X@X@X@X@X@X@X@X@X@X@X@X@X@X@X@X@X@X@X@X@X@X@X@X@X@X@X#X#X#X@X@X#X@X#X#X#XyX#XyXyXrXyXyXrXyXyXyXyXrXrXrXyXyXyXyXyXyXyXrXpXpXpXrXyXyXyXyXyXyXyXyXyXyXyXyXyXyXyXyXyXyXrXrXyXyXyXyXyXyXyXyXyXyXyXyXyXyXyXyXyXyXyXyXyXyXyXyXyXyXyXyXyXyXyXyXyXyXyXyXyXyXyXyXyXyXyXyXyXyXyXyXyXyXyXyXyXyXyXyXyXyXyXyXyXyXyXyXyXyXyXyXyXyXyXyXyXyXyXyXyXyXyXyXyXyXyXyXyXyXyXyXyXyXyXyXyX",
"@XOXOXOXOXOXOXOXOXOXOXOXOXOXOXOXOXOXOXOXOXOXOXOXOXOXOXOXOXOXOXOX%X%X%X%XOX%XOXOX%XOXOXOX%X%X%X%XOXOXOXOXOXOXOXOXOXOXOXOXOXOXOXOXOXOXOXOXOXOXOXOXOXOXOXOXOXOXOXOX%X%X%X%XgXgXgX%X%X%X%X%X%X%X%X%X@X@XOX@XOXOXOXOX@X@X@X@X@X@X@X@XOXOXOXOXOXOXOXOX@X@X@XOXOXOXOXOX@X@X@X@XyXyX@X@X@X@X@X@X@X@X@X@X@X@X@X@X@X@X@X@X@X@X@X@X@X@X@X@X@X@X@X@X@X@X@X@X@X@X@X@X@X@X@X@X@X@XOXOXyX@XyXyXrXrXOXOXrXrXrXrXrXyXyXyXpXyXyXyXyXyXyXyXrXrXyXpXrXyXyXyXyXyXyXyXyXyXyXyXyXyXyXyXyXyXrXyXyXyXyXyXyXyXyXyXyXyXyXyXyXyXyXyXyXyXyXyXyXyXyXyXyXyXyXyXyXyXyXyXyXyXyXyXyXyXyXyXyXyXyXyXyXyXyXyXyXyXyXyXyXyXyXyXyXyXyXyXyXyXyXyXyXyXyXyXyXyXyXyXyXyXyXyXyXyXyXyXyXyXyXyXyXyXyXyXyXyXyXyX",
"@X@XOXOX@X@X@X@XOXOXOXOXOXOXOXOXOXOXOXOXOXOXOXOXOXOXOXOXOXOXOXOX%X%X%X%X%X%X%X%X%X%XOX%XOX%X%X%XOXOXOXOXOXOXOXOXOXOXOXOXOXOXOXOX%X%X%X%X%X%X%X%XOXOX%X%X%X%X%X%XOXOXOX%X%X%XOXOXOXOX%XOXOXOXOXOX@X@X@X@X@X@X@X@X@X@X@X@X@X@X@X@X@X@X@X@X@X@X@X@X@X@XyXyX@X@X@X@X@X@X@X@X@X@X@X@X@X@X@X@X@X@X@X@X@X@X@X@X@X@X@X@X@X@X@X@X@X@X@X@X@X@X@X@X@X@X@X@X@XyX@X@X@X@X@X@XOX%X%X%X%X%XgXyXyXyXyXyXrXrXrXrXyXyXyXyXrXyXyXuXyXyXyXyXrXrXrXyXyXyXyXyXyXyXyXyXyXyXyXyXyXyXyXyXyXyXrXyXyXyXyXyXyXyXyXyXyXyXyXyXyXyXyXyXyXyXyXyXyXyXyXyXyXyXyXyXyXyXyXyXyXyXyXyXyXyXyXyXyXyXyXyXyXyXyXyXyXyXyXyXyXyXyXuXyXyXyXyXyXyXyXyXyXyXyXyXyXyXyXyXyXyXyXyXyXyXyXyXyXyXyXyXyXyXyXyXuXuXuXuX",
"@X@X@XOXOX@X@X@XOXOXOXOXrXOXOXOX%X%XgX%X%X%X%X%X%XgX%X%X%X%X%X%X%X%X%X%X%X%X%X%X%X%XOXOXOX%X%X%XOXOXOXOXOXOXOXOXrXOXrXOXOXOXOXOXgX%XgX%XgX%XgXOXrXOXgX%XgX%XgX%XOXOXOX%X%X%XOXOXOXOXOXOXOXOXOXOX@X@X@X@X@X@X@X@X@X@X@X@X@X@X@X@XyXyXgXgXgXgXyXyX@XyXyXyX@X@X@X@XyXyX@X@X@XyXyXyXyXyXyXyX@XyXyXyXyXyXyXyXyXyXyXyXyXyXyXyXyXyXyXyXyXyXyXyXyXyXyXyX@XyXyX@X@X@X@X@X%XOXOX%X%X%XgXyXgXyXyXyXyXyXyXyXyXyXyXyXrXyXyXuXyXyXyXyXyXrXrXyXyXyXyXyXyXyXyXyXyXyXyXyXyXyXyXyXyXpXyXpXyXyXyXyXyXyXyXyXyXyXyXyXyXyXyXyXyXyXyXyXyXyXyXyXyXyXyXyXyXyXyXyXyXyXyXyXyXyXyXyXyXyXyXyXuXuXuXuXuXuXuXuXyXyXyXuXuXuXyXyXyXyXyXyXyXyXyXyXyXyXyXyXyXyXyXyXyXyXyXyXyXyXyXyXyXyXyXyXuXuXuXuX",
"OX@XOXOXOXOXOXOXOXOXOXOXOXOXOXOX%X%X%X%X%X%X%X%XOXOX%X%X%X%X%X%X%X%X%X%X%X%X%X%X%X%X%X%XOXOXOXOXrXrXrXrXrXrXrXrXrXyXrXyXgXgXgXgXgXgXrXOXrXOXrXrXgXgXgXgXgXgXgXgXOXOXOXOX@X@X@X@X%X%XyXyXyXyX@X@X@X@X@X@X@X@X@X@XyX@X@X@XyXyXyXyXyXyXgXyXyXyXyXyXyXyXyXgXgXgXyXyXyXyXyXyXyXyXyXyXyXyXyXyXyXyXyXyXgXgXgXgXgXgXgXgXgXgXgXgXgXgXgXyXyXyXyXyXyXyXyXyXyXyXyXyXyXyXyXyXgXgXgXgXgXgXgXgXgXgXgXgXgXgXgXgXyXyXuXuXyXyXyXyXyXyXyXyXyXyXyXyXyXyXyXyXyXyXyXyXyXyXyXyXyXyXyXyXyXpXyXyXyXyXyXyXyXyXyXyXyXyXyXyXyXyXyXyXyXyXyXyXyXyXyXyXyXyXyXyXyXyXyXyXyXyXyXyXuXuXuXuXuXuXuXuXuXuXuXuXuXuXuXuXyXyXyXyXyXyXyXyXuXyXyXyXuXuXuXuXuXuXuXuXuXuXuXuXyXyXyXyXyXyXyXyXyXyXyXyXyXyXyXyX",
"OXOXOXOXOXOXOXOXOXOXOXOXOXOXOXOX%X%X%X%X%X%X%X%XOXOX%X%X%X%X%X%X%X%X%X%X%X%X%X%X%X%X%X%X%X%X%XOXrXrXrXrXrXrXrXrXrXrXrXrXgXgXgXgXgXgXrXrXrXrXrXrXgXgXgXgXgXgXgXgXyXyXyXyXyXyX%X%X%X%XyXyXyXyX@X@XyXyX@X@X@X@XgXgXyXyX@X@XyXyXyXyXgXgXgXgXgXgXgXgXgXgXgXgXgXgXgXgXyXyXyXyXyXyXyXyXyXyXyXyXyXyXyXyXgXgXgXgXgXgXgXgXgXgXgXgXgXgXgXyXyXyXyXyXyXyXyXyXyXyXyXyXyXyXyXyXgXgXgXgXgXgXgXgXgXgXgXgXgXgXgXyXyXyXyXuXyXyXyXyXyXyXyXyXyXyXyXyXyXyXyXyXyXyXyXyXyXyXuXyXyXyXyXyXyXyXyXyXyXyXyXyXyXyXyXyXyXyXyXyXyXyXyXyXuXyXyXyXyXyXyXyXyXyXyXyXyXyXyXyXyXyXuXuXuXuXuXuXuXuXuXuXhXhXhXhXhXhXhXhXuXuXuXuXuXuXuXuXuXuXuXuXuXuXuXuXuXuXuXuXuXuXuXuXuXuXuXuXuXuXuXuXuXuXuXuXuXuXuXuX",
"OXOXOXOXOXOXOXOXOXOXOXOXOXOXOXOX%X%XgX%X%X%X%X%XOXOX%X%X%X%X%X%X%XOXOX%XOXOXOXOX%X%X%X%X%X%X%X%XrXrXrXrXrXrXrXrXrXrXrXrXgXgXgXgXgXgXgXgXgXgXgXgXgXgXgXgXgXgXgXgXgXyXyXyXyXyXyXyXgXgXgXgXgXgXgXgXyXyXgXgXyXgXgXgXgXgXgXgXgXgXgXgXyXgXgXgXyXyXyXyXyXyXyXyXyXyXyXyXyXyXyXyXgXyXyXyXyXyXyXyXyXyXgXgXgXyXyXyXyXyXyXyXyXyXyXyXyXyXyXyXyXyXyXyXyXyXyXyXyXyXyXyXyXyXyXyXgXgXgXgXgXgXgXgXgXgXgXgXgXgXgXyXyXyXuXuXyXyXyXyXyXyXyXyXyXyXyXyXyXyXyXyXyXyXyXyXyXyXuXyXyXyXyXyXyXyXyXyXyXyXuXuXyXyXyXyXyXyXyXyXyXyXyXyXuXyXyXyXyXyXyXyXyXyXyXyXyXyXyXyXyXyXuXuXuXuXuXuXuXuXuXuXhXhXhXhXhXhXhXhXhXhXhXhXhXhXhXuXuXuXuXuXuXuXuXuXuXuXuXuXuXuXuXuXuXuXuXuXuXuXuXuXuXuXuXuXuXuXuXuX",
"%X%X%X%X@X@X@X@XOXOXOXOX%X%X@X@X%X%XgX%X%X%X%X%X%X%XgXgXgXgXgXgX%X%X%X%XOXOXOXOXgXgXgXgX%X%X%X@XrXrXrXrXrXrXrXrXrXrXrXrXgXgXgXgXgXgXgXgXgXgXgXgXgXgXgXgXgXgXgXrXgXyXyXgXyXyXyXyXgXgXgXgXgXgXgXgXgXgXgXgXgXgXgXgXgXgXgXgXgXgXgXyXyXyXgXgXgXyXyXyXyXyXyXyXyXyXyXyXgXgXgXgXgXgXgXgXyXyXyXyXyXyXyXgXyXyXyXyXyXyXyXyXyXyXyXyXyXyXyXyXyXyXyXyXyXyXyXyXyXyXyXyXyXyXyXyXgXgXgXgXgXgXgXgXhXhXhXhXgXgXgXyXuXuXuXuXuXuXuXuXyXyXuXuXyXyXyXyXyXyXyXyXyXyXyXyXyXyXuXyXyXuXuXyXyXyXyXyXyXyXuXuXyXyXyXyXyXyXyXyXuXyXyXuXuXuXyXyXyXyXyXyXuXuXuXuXyXuXyXyXuXuXuXuXuXuXuXuXuXuXuXuXhXhXhXhXhXhXhXhXhXhXhXhXhXhXhXuXuXuXuXuXuXuXuXuXuXuXuXuXuXuXuXuXuXuXuXuXuXuXuXuXuXuXuXuXuXuXuXuX",
"%X%X%X%XgXgXgXgX%X%X%X%X%X%X%X%XgXgX%X%X%X%XgXgX%X%X%X%XgXgXgXgX%X%X%X%X%X%X%X%XgXgXgXgXgXgXgXgXrXyXyXyXyXyXyXyXrXrXrXrXgXgXgXgXrXrXgXgXgXgXgXgXgXgXgXgXgXgXgXgXgXyXyXyXyXyXyXyXyXyXyXyXgXgXgXyXyXyXyXyXyXyXyXyXgXgXyXyXyXyXyXyXyXyXyXyXyXyXyXyXyXyXyXyXyXyXyXyXgXgXgXgXgXgXgXgXyXyXyXyXyXyXyXyXyXyXyXyXyXyXyXyXyXyXyXyXyXyXyXyXyXyXyXyXyXyXyXyXyXyXyXyXyXyXyXyXyXyXyXyXyXyXyXyXuXuXyXyXuXuXuXuXuXuXuXuXuXuXuXuXyXuXuXuXuXyXyXyXyXyXyXyXyXyXyXyXyXuXuXyXyXuXuXyXyXyXyXyXyXuXuXuXuXuXuXuXyXyXyXyXuXuXyXyXuXuXyXyXyXyXyXyXuXuXyXyXyXyXyXyXuXuXuXuXuXuXuXuXuXuXuXuXuXuXuXuXuXuXuXuXuXuXuXuXuXuXuXuXuXuXuXuXuXuXuXuXuXuXuXuXuXuXuXuXuXuXuXuXuXuXuXuXuXuXuXuXuXuXuXuX",
"gX%X%X%XgXgXgXgX%X%X%X%X%X%X%X%XgXgXgXgX%X%XgXgX%X%X%X%XgXgXgXgX%XgX%X%X%X%X%X%XgXgXgXgXgXgXgXgXyXyXyXyXyXyXyXyXrXrXrXgXgXgXgXgXrXrXgXrXgXgXrXrXgXgXgXgXgXgXgXgXgXgXyXyXyXyXgXgXyXyXyXyXgXgXyXyXgXgXyXyXyXyXgXgXgXgXyXyXyXyXgXgXyXyXyXyXyXyXyXyXyXyXyXyXyXyXyXyXyXyXyXyXyXgXyXyXyXyXyXyXyXyXyXyXyXyXyXyXyXyXyXyXyXyXyXyXyXyXyXyXyXyXyXyXyXyXyXyXyXyXyXyXyXyXyXyXhXhXgXgXgXgXgXgXhXhXhXhXhXhXhXuXuXuXuXuXuXuXuXuXyXuXiXiXuXyXyXuXyXyXyXyXyXyXyXyXyXuXuXyXyXuXuXyXyXyXyXyXyXuXuXuXuXuXuXuXuXyXyXyXuXuXuXuXuXuXyXyXyXyXyXyXuXuXyXyXuXyXuXuXuXuXuXuXuXuXuXuXuXuXuXuXuXuXuXuXuXuXuXuXuXuXuXuXuXuXuXuXuXuXuXuXuXuXuXuXuXuXuXuXuXuXuXuXuXuXuXuXuXuXuXuXuXuXuXuXuXuXuXuX",
"gXgXgXgXgXgXgXgXgXgXgXgXgXgXgXgXgXgXgXgXgXgXgXgXyXyXyXyXyXgXgXgXyXyXgXyXyXyXyXyXyXyXyXyXgXgXgXgXyXyXyXyXyXyXyXyXrXrXrXrXyXrXyXyXyXyXyXyXyXyXyXyXyXyXyXyXyXyXgXgXgXgXyXyXyXgXgXgXgXgXgXgXgXgXgXgXyXyXyXyXyXyXyXgXgXgXgXgXgXgXgXgXyXyXyXyXyXyXyXyXyXyXyXyXyXyXyXyXyXyXyXyXyXyXyXyXyXyXyXyXyXyXyXyXyXyXuXuXuXuXyXyXyXyXyXyXuXuXuXuXyXyXyXyXyXyXyXyXyXyXyXyXyXyXyXyXhXhXhXhXgXgXgXgXhXhXhXhXhXhXhXuXuXuXuXuXuXuXuXuXyXuXiXiXuXyXyXuXyXyXyXyXyXyXuXuXyXuXuXyXuXuXuXyXyXyXyXuXuXuXuXuXuXuXuXuXuXuXyXyXuXuXuXuXiXuXuXyXuXuXuXuXuXuXuXuXyXuXuXuXuXuXuXuXuXuXuXuXuXuXiXuXuXiXiXiXiXiXiXiXiXiXiXiXiXiXiXiXiXiXiXiXiXiXiXiXiXiXuXuXuXuXuXuXiXiXiXiXiXiXiXiXiXiXiXiXuXuXuXuX",
"gXgXOXOXOXgXgXgXgXgXgXgXgXgXgXyXgXgXgXgXgXgXgXgXyXyXgXgXyXyXgXgXyXyXyXyXyXyXyXyXyXyXyXyXgXgXgXyXyXyXyXyXyXyXyXyXrXrXrXgXrXgXyXyXyXyXyXyXyXyXyXyXyXyXyXyXyXyXgXgXgXgXyXyXyXyXgXgXgXgXgXgXgXgXgXgXyXyXyXgXgXgXyXyXgXgXgXgXgXgXgXyXuXuXyXyXyXyXyXyXyXyXyXyXyXyXyXyXyXyXyXyXyXyXyXyXuXuXgXgXgXgXgXgXyXyXyXuXuXuXyXyXyXyXyXyXuXuXuXuXyXyXyXyXyXyXyXyXyXyXyXyXyXyXyXyXhXhXhXgXgXgXhXhXhXhXhXhXhXhXhXuXuXuXuXuXuXuXuXuXyXuXjXiXuXyXuXuXyXyXyXyXyXyXuXuXyXuXuXyXuXuXuXyXuXyXuXuXuXuXiXiXuXuXuXuXuXuXuXuXuXuXuXuXiXuXuXyXuXuXuXuXuXuXuXuXyXyXuXuXuXuXuXuXuXuXuXuXuXuXiXuXiXiXiXiXiXiXiXiXiXiXiXiXiXiXiXiXiXiXiXiXiXiXiXiXiXiXiXiXuXuXuXuXiXiXiXiXiXiXiXiXiXiXiXiXiXiXiXiX",
"yXyXyXyXyXyXyXyXyXyXyXyXyXyXyXyXgXyXyXyXyXyXgXgXgXgXgXgXgXgXgXgXyXyXyXyXyXyXyXyXgXgXgXgXgXgXgXgXyXyXyXyXyXyXyXyXyXyXyXyXyXyXgXgXgXyXyXyXyXyXyXyXyXyXyXyXyXyXyXyXyXyXyXyXyXyXyXyXyXyXyXyXyXyXyXyXgXgXgXgXgXgXyXyXyXyXyXyXgXgXgXyXyXyXyXyXyXyXyXyXyXyXyXyXyXyXyXyXhXhXhXhXhXhXhXhXhXhXhXhXhXhXhXhXuXyXyXyXyXyXyXyXyXyXuXuXyXyXyXyXyXyXyXyXyXyXyXyXuXyXyXyXyXyXyXyXyXyXyXyXyXyXuXuXuXuXuXuXuXuXuXuXuXuXuXuXuXuXuXuXuXuXuXuXuXuXuXyXyXyXyXyXuXuXuXuXuXuXuXuXuXuXuXuXuXyXuXuXuXiXuXuXuXuXuXuXuXuXuXuXjXuXuXjXuXyXyXjXuXuXuXuXuXuXuXuXuXuXuXuXuXuXiXiXiXiXuXuXuXuXuXuXiXiXiXiXiXiXiXiXiXiXiXiXiXiXiXiXiXiXiXiXiXiXiXiXiXiXiXiXiXiXiXiXiXiXiXiXiXiXiXiXiXiXiXiXiXiXiXiX",
"yXyXyXyXyXyXyXyXgXgXgXgXyXyXyXyXyXgXyXyXgXgXgXgXgXgXyXyXyXyXyXyXyXyXyXyXyXyXyXyXyXyXyXyXyXgXgXyXyXyXyXyXyXyXyXyXyXyXyXyXyXyXgXyXyXyXyXyXyXyXyXyXyXyXyXyXyXyXyXyXgXgXgXgXhXgXgXgXgXgXgXgXgXgXgXgXgXgXgXgXgXgXgXgXgXgXgXgXgXhXhXgXyXyXyXyXyXyXyXyXyXyXyXyXyXyXyXyXyXyXyXyXyXyXyXyXgXgXyXyXyXyXyXyXuXuXyXyXyXyXyXyXyXyXuXuXyXyXyXyXuXuXuXuXuXyXyXyXuXuXuXuXuXuXuXuXyXyXyXyXuXyXuXuXuXuXuXuXuXuXuXuXuXuXuXuXuXuXuXuXuXuXuXuXuXuXuXuXuXuXuXuXuXuXuXuXuXuXuXuXuXuXuXuXuXyXuXuXuXiXiXiXuXuXuXuXuXuXuXuXjXuXuXjXuXyXyXjXiXiXiXuXuXuXuXuXuXuXuXuXuXuXiXiXiXiXiXiXiXiXiXiXiXiXiXiXiXiXiXiXiXiXiXiXiXiXiXiXiXiXiXiXiXiXiXiXiXiXiXiXiXiXiXiXiXiXiXiXiXiXiXiXiXiXiXiXiXiXiXiX",
"yXyXyXyXyXyXyXyXyXyXyXyXyXyXyXyXgXyXyXyXyXyXyXyXyXyXyXyXyXyXyXyXyXyXyXyXyXyXyXyXyXyXyXyXyXyXyXyXyXyXyXyXyXyXyXyXyXyXyXyXyXyXyXyXyXyXyXyXyXyXyXyXyXyXyXyXyXyXyXyXhXhXhXhXhXhXhXhXhXhXhXhXhXhXhXhXyXyXyXyXuXuXuXuXhXhXhXhXhXhXhXhXuXuXuXuXuXuXuXuXuXuXuXuXuXuXuXuXyXyXuXuXuXuXuXuXuXuXuXuXuXuXuXuXuXuXuXuXuXuXuXuXuXuXuXuXuXuXuXuXuXuXuXuXuXuXuXuXuXuXuXuXuXuXuXuXuXuXiXiXiXiXiXiXuXuXuXuXiXiXiXiXuXuXuXuXuXuXuXuXuXuXuXuXuXuXuXuXiXiXuXuXuXuXuXuXuXuXuXuXuXuXuXuXuXuXuXuXuXiXiXiXiXiXiXuXuXuXuXuXiXuXiXiXiXuXuXiXiXiXiXiXiXiXiXiXuXuXuXuXiXiXiXiXiXiXiXiXiXiXiXiXiXiXiXiXiXiXiXiXiXiXiXiXiXiXiXiXiXuXuXuXuXuXiXiXuXiXiXuXiXuXuXuXiXiXiXiXiXiXiXiXiXiXiXiXiXiXiXiX",
"gXyXyXyXyXyXyXyXyXyXyXyXyXyXyXyXyXyXyXyXyXyXyXyXyXyXyXyXyXyXyXyXyXyXyXyXyXyXyXyXyXyXyXyXyXyXyXyXyXyXyXyXyXyXyXyXyXyXgXgXgXgXgXgXyXyXyXyXyXyXyXyXuXuXuXuXyXyXyXyXhXhXhXhXhXhXhXhXhXhXhXhXhXhXhXhXyXyXyXyXuXuXuXuXhXhXhXhXhXhXhXhXuXuXuXuXuXuXuXuXuXuXuXuXuXuXuXuXuXuXuXuXuXuXuXuXuXuXuXuXuXuXuXuXhXuXuXuXuXuXuXuXuXuXuXuXuXuXuXuXhXhXuXuXuXuXuXuXuXuXuXuXuXuXuXuXiXiXiXiXiXiXiXiXjXjXuXuXiXiXiXiXuXuXuXuXuXuXuXuXuXiXiXiXiXiXuXuXiXiXuXuXuXuXuXuXuXuXuXuXuXuXuXuXuXuXuXuXiXiXiXiXaXiXiXiXuXuXuXuXiXiXiXiXiXuXuXiXiXiXiXiXiXiXiXiXuXuXuXuXiXiXiXiXiXiXiXiXiXiXiXiXiXiXiXiXiXiXiXiXiXiXiXiXiXiXiXiXiXiXiXiXiXiXiXiXiXiXiXiXiXiXiXiXiXiXiXiXiXiXiXiXiXiXiXiXiXiXiXiX",
"yXyXyXyXyXyXyXyXyXyXyXyXyXyXyXyXyXyXyXyXyXyXyXyXyXyXyXyXyXyXyXyXyXyXyXyXyXyXyXyXyXyXyXyXyXyXyXyXyXyXyXyXyXyXyXyXyXyXyXyXgXgXgXgXyXyXyXyXyXyXyXyXuXyXyXyXyXuXyXyXyXyXhXgXuXyXgXgXgXgXgXhXyXyXyXyXyXyXyXyXyXyXyXgXyXyXuXyXyXyXyXyXhXhXhXhXhXhXhXhXhXhXhXhXhXhXhXhXuXuXuXuXuXuXuXuXuXuXuXuXuXuXuXuXhXhXhXhXhXhXhXhXhXhXhXhXhXhXhXuXhXiXiXiXiXiXiXiXiXiXiXiXiXiXiXiXiXiXjXjXiXiXiXiXjXiXiXiXiXiXiXiXiXiXiXiXiXiXiXiXiXiXiXiXiXiXiXiXuXuXuXuXuXuXuXuXiXuXuXuXuXuXuXiXuXuXuXuXiXiXaXaXdXiXiXiXuXuXuXuXiXiXiXiXiXiXiXiXiXiXiXiXiXiXuXuXiXiXiXiXuXuXiXiXiXiXiXiXiXiXiXiXiXiXiXiXiXiXiXiXiXiXiXiXiXiXiXiXiXiXiXiXaXaXaXaXaXaXiXiXiXiXiXiXaXaXaXaXaXaXaXaXaXaXaXaXaXaXaXaX",
"yXyXyXyXyXyXyXyXyXyXyXyXyXyXyXyXyXyXyXyXyXyXyXyXyXyXyXgXyXyXyXyXyXyXyXyXyXyXyXyXyXyXyXyXyXyXyXyXyXyXyXyXyXyXyXyXyXyXyXyXgXgXgXyXyXyXyXyXyXyXyXuXyXyXyXyXyXuXuXuXyXyXuXyXuXuXgXgXgXyXgXhXuXyXyXyXhXhXyXyXyXyXyXgXyXyXuXyXyXyXyXyXhXhXhXhXhXhXhXhXhXhXhXhXhXhXhXhXuXuXuXuXuXuXuXuXuXuXuXuXuXuXuXuXhXhXhXhXhXhXhXjXhXhXhXhXhXhXhXhXjXjXjXjXjXjXjXjXjXjXjXjXjXjXjXjXjXjXjXjXjXjXjXjXjXjXjXjXjXjXjXjXiXiXiXiXiXiXiXiXiXiXiXiXiXiXiXiXuXuXuXuXuXuXiXiXiXiXuXuXuXuXuXuXuXuXuXuXiXiXaXdXaXaXaXiXiXiXiXiXiXiXiXiXiXiXiXiXiXiXiXiXiXiXiXiXiXiXiXiXiXiXiXiXiXiXiXiXiXiXiXiXaXaXaXaXiXiXaXaXaXaXaXaXiXiXaXaXiXiXiXiXaXaXaXaXaXaXiXiXiXiXiXiXaXaXaXaXaXaXaXaXaXaXaXaXaXaXaXaX",
"yXyXyXyXuXyXyXyXyXyXyXyXuXyXyXyXyXyXyXyXuXuXuXuXuXuXuXuXuXuXuXuXyXyXyXuXyXyXyXyXuXuXuXuXuXuXuXuXyXyXyXyXuXuXuXuXyXyXyXyXgXgXgXyXhXuXuXuXuXuXuXuXyXyXyXyXyXyXyXuXhXhXhXhXhXhXhXhXhXhXhXhXhXhXhXhXhXhXhXhXhXhXhXhXhXhXhXhXhXhXhXhXhXhXhXhXhXhXhXhXhXhXhXhXhXhXhXhXhXhXhXhXhXhXhXhXhXhXhXhXhXhXhXhXhXhXhXhXjXjXjXjXjXjXjXjXjXjXjXjXjXjXjXjXjXjXjXjXjXjXjXjXjXjXjXjXiXiXiXiXiXiXiXiXiXiXiXiXiXiXiXiXiXiXiXiXiXiXiXiXiXiXiXiXiXiXiXiXiXiXiXiXiXiXiXiXiXiXaXaXaXaXuXiXuXuXiXuXiXiXaXdXdXdXdXiXaXiXiXiXiXiXiXiXiXiXiXiXiXiXiXiXiXiXiXiXiXiXiXiXiXiXaXaXaXaXaXaXaXaXaXaXaXaXaXaXaXaXaXaXaXaXaXaXaXaXaXaXiXiXiXiXaXaXaXaXaXaXaXaXiXaXiXiXaXaXaXaXaXaXaXaXaXaXaXaXaXaXaXaX",
"yXyXuXuXuXuXuXuXyXyXuXuXuXuXuXuXuXuXuXuXjXjXjXjXuXuXuXuXuXuXuXuXyXyXyXyXyXyXyXuXuXuXuXuXuXuXuXuXyXyXyXyXuXuXuXuXyXyXyXyXgXgXgXyXuXuXuXuXuXuXuXuXuXuXuXuXuXuXuXuXhXhXhXhXjXhXhXhXhXhXjXjXhXhXhXhXhXuXhXuXhXuXhXhXhXhXhXhXhXhXhXhXhXuXhXuXhXuXhXuXhXuXhXuXhXuXhXuXhXhXhXhXhXhXhXhXhXhXhXhXhXhXhXhXhXhXhXjXjXjXjXjXjXjXjXjXjXjXjXjXjXjXjXjXjXjXjXjXjXjXjXjXjXjXjXjXiXiXiXiXiXiXiXiXiXiXiXiXiXiXiXiXiXiXiXiXiXiXiXiXiXiXiXiXjXjXiXiXiXiXiXiXiXiXiXiXiXiXaXaXaXaXuXiXuXuXiXuXiXaXaXdXdXdXdXdXaXiXiXiXiXiXiXiXiXkXiXiXkXkXaXaXaXaXiXiXiXiXiXiXiXiXaXaXkXkXkXkXkXkXkXkXaXaXaXaXaXaXaXaXaXaXaXaXaXaXaXaXaXaXaXaXaXaXaXaXaXaXaXaXaXaXaXaXaXaXiXiXiXaXaXaXiXiXiXiXaXaXaXaX",
"uXuXuXuXuXuXuXuXuXuXuXuXuXuXuXuXuXuXuXuXyXyXyXyXuXuXjXuXuXuXuXuXyXyXyXyXyXyXyXyXyXyXyXyXyXyXyXyXyXhXhXhXhXgXgXgXhXhXhXhXhXgXgXgXuXuXuXuXuXuXuXuXjXjXjXjXjXjXjXjXjXhXhXhXhXhXhXhXhXhXhXhXhXhXhXhXhXiXhXiXhXiXhXiXhXiXhXiXhXiXhXiXhXiXhXiXhXiXjXiXhXiXhXuXuXuXuXuXiXiXiXiXiXiXiXiXjXjXjXjXjXjXjXjXjXjXjXjXjXjXjXjXjXjXjXjXjXjXjXjXjXiXiXiXiXiXiXiXiXiXiXiXiXiXiXiXiXiXiXiXiXiXiXiXiXiXiXiXiXiXiXiXiXiXiXiXiXiXiXiXiXiXiXiXiXiXiXiXiXiXiXiXiXiXiXiXaXiXiXiXiXiXiXiXaXiXiXiXiXiXkXkXdXdXdXiXiXiXaXaXiXiXiXuXuXiXiXiXaXaXiXiXiXiXiXiXaXaXaXiXiXiXaXaXaXaXaXiXaXaXaXaXaXiXiXiXiXiXaXaXiXiXiXiXaXaXaXaXaXaXaXaXaXaXaXaXaXaXaXaXaXaXaXaXaXaXaXaXaXaXaXaXaXaXaXaXaXaXaXaX",
"hXhXhXhXhXhXhXhXhXhXhXhXhXhXhXhXuXuXuXuXyXuXyXyXuXuXjXiXuXuXuXuXyXyXyXyXyXyXyXyXuXuXuXuXuXuXuXuXyXhXhXhXhXgXgXgXhXhXhXhXhXgXgXuXuXuXuXuXuXuXuXuXjXjXjXjXjXjXjXjXjXhXhXhXhXhXhXhXhXhXhXhXhXhXhXhXiXiXiXiXiXiXiXiXiXiXiXiXiXiXiXiXuXiXiXiXiXiXiXiXiXiXiXiXuXuXuXuXjXjXjXjXjXjXjXjXjXjXjXjXjXjXjXjXjXjXjXjXjXjXjXjXjXjXjXjXjXjXjXjXiXiXiXiXiXiXiXiXiXiXiXiXiXiXiXiXiXiXiXiXiXiXiXiXjXkXjXjXjXjXkXkXjXjXjXjXjXkXjXjXiXiXiXiXiXiXiXiXiXiXiXiXiXiXiXiXaXaXiXiXiXiXiXiXkXiXiXiXiXaXkXkXdXdXdXiXiXiXiXaXaXiXiXuXuXiXiXiXaXaXiXiXiXiXiXiXaXaXaXaXiXiXaXaXaXaXaXaXaXaXaXaXiXaXiXiXaXaXaXaXiXiXiXiXaXaXaXaXaXaXaXaXaXaXaXaXaXaXaXaXaXaXaXaXaXaXaXaXaXaXaXaXaXaXaXaXaXaXaXaX",
"uXuXuXuXuXuXuXuXuXuXuXuXuXuXuXuXuXuXiXiXuXuXuXuXuXjXiXiXhXuXuXuXuXuXuXuXuXiXiXiXjXjXjXjXjXjXjXjXyXyXuXuXuXuXuXuXuXuXuXuXyXyXuXuXjXjXjXjXjXjXjXjXjXjXjXjXjXjXjXjXhXhXhXhXhXhXhXhXhXhXhXhXjXjXhXhXiXiXiXiXiXiXiXiXiXiXiXiXiXiXiXiXiXiXiXiXiXiXiXiXjXiXiXiXiXiXiXiXjXjXjXjXjXjXjXjXjXjXjXjXjXjXjXjXjXjXjXjXjXjXjXjXjXjXjXjXjXjXjXjXiXiXiXiXiXiXiXiXiXiXiXiXiXiXiXiXiXiXiXiXaXkXiXiXkXkXkXkXjXkXkXkXaXaXiXiXaXaXaXaXiXiXiXiXiXiXiXiXaXaXaXaXaXaXaXaXaXaXaXiXiXaXaXaXkXaXiXiXiXiXkXkXkXkXdXdXiXiXaXaXaXiXiXiXiXiXiXaXaXaXaXiXiXiXiXiXaXaXaXaXiXiXiXaXaXaXaXaXaXaXaXaXiXaXiXiXaXaXaXaXaXaXaXaXaXaXaXaXaXaXaXaXaXaXaXaXaXaXaXaXaXaXaXaXaXaXaXaXaXaXaXaXaXaXaXaXaXaXaXaX",
"uXhXuXuXuXuXuXuXuXhXuXuXuXuXuXuXjXjXjXjXjXjXjXjXjXjXjXjXjXjXjXjXiXiXiXiXiXiXiXiXjXjXjXjXjXjXjXjXuXuXuXuXuXuXyXuXyXyXuXuXuXuXuXuXjXjXjXjXjXjXjXjXjXjXjXjXjXjXjXjXjXjXjXjXjXjXjXjXjXjXjXjXjXjXjXjXjXjXjXjXjXjXjXjXjXjXjXjXjXjXjXjXjXjXjXjXjXjXjXjXjXjXjXiXiXiXiXiXjXjXjXjXjXjXjXjXjXjXjXjXjXjXjXjXjXjXjXjXjXjXjXjXjXjXjXjXjXjXjXjXiXiXiXiXiXiXiXiXiXiXiXiXiXiXiXiXkXkXkXkXkXkXkXkXkXkXkXaXkXkXkXkXaXaXaXaXaXaXaXaXaXaXaXaXaXaXaXaXaXaXaXaXaXaXaXaXaXaXaXaXaXaXaXaXkXaXiXiXiXkXkXkXkXkXkXkXkXkXkXaXaXiXiXiXuXiXiXaXaXaXaXaXaXaXaXaXaXaXaXaXaXaXaXaXaXaXaXaXkXkXkXaXaXaXaXaXaXaXaXaXaXaXaXaXaXaXaXaXaXaXaXaXaXaXaXaXaXaXaXaXaXaXaXaXaXaXaXaXaXaXaXaXaXaXaXaXaXaXaXaX",
"hXhXhXhXhXhXhXhXhXhXhXhXhXjXjXhXiXiXiXiXiXiXiXiXjXjXjXjXjXjXjXjXiXiXiXiXiXuXuXuXjXjXjXjXjXjXjXjXuXuXuXuXuXuXuXuXuXuXuXuXuXuXuXuXjXjXjXjXjXjXjXjXjXjXjXjXjXjXjXjXjXjXjXjXjXjXjXjXjXjXjXjXjXjXjXjXjXjXjXjXjXjXjXjXjXjXjXjXjXjXjXjXjXjXjXjXjXjXjXjXjXjXjXjXjXjXiXiXjXjXjXjXjXjXjXjXjXjXjXjXjXjXjXjXjXjXjXjXkXkXkXkXkXjXjXjXjXjXkXkXjXjXjXjXkXkXkXkXjXjXjXjXkXkXkXkXkXkXkXkXkXkXkXkXkXkXkXkXkXkXkXkXaXaXaXaXaXaXaXaXaXaXaXaXaXaXaXaXaXaXaXaXaXaXaXaXaXaXaXiXaXaXaXaXkXiXuXuXdXkXaXdXkXkXkXkXaXaXaXaXaXaXaXiXiXaXaXaXaXaXaXaXaXaXaXaXaXaXaXaXaXaXaXaXaXaXaXaXaXaXaXaXaXaXaXaXaXaXaXaXaXaXaXaXaXaXaXaXaXaXaXaXaXaXaXaXaXaXaXaXaXaXaXaXaXaXaXaXaXaXaXaXaXaXaXaXaXaXaXaX",
"jXjXjXjXjXjXjXjXjXjXjXjXjXjXjXjXjXjXjXjXjXjXjXjXjXjXjXjXjXjXjXjXiXiXiXiXiXuXhXhXjXjXjXjXjXjXjXjXjXjXjXjXjXjXjXjXjXjXjXjXjXjXjXjXjXjXjXjXjXjXjXjXjXjXjXjXjXjXjXjXjXjXjXjXjXjXjXjXjXjXjXjXjXjXjXjXjXjXjXjXjXjXjXjXjXjXjXjXjXjXjXjXjXjXjXjXjXjXjXjXjXjXjXjXjXjXjXjXjXjXjXjXjXjXjXjXjXjXjXjXjXjXjXjXjXjXjXjXkXkXkXkXkXkXjXjXjXkXkXkXjXjXjXjXkXkXkXkXjXjXjXjXkXkXkXkXkXkXkXkXkXkXkXkXkXkXkXkXkXkXkXkXkXkXkXkXkXkXkXkXaXaXaXaXaXaXaXaXaXaXaXaXaXaXaXaXaXaXaXaXaXaXaXaXkXaXuXuXdXkXkXdXkXkXkXkXaXaXaXaXaXaXaXiXiXaXaXaXaXaXaXaXaXaXaXaXaXaXaXaXaXaXaXaXaXaXaXaXaXaXaXaXaXaXaXaXkXkXaXaXaXaXaXaXaXaXaXaXaXaXaXaXaXaXaXaXaXaXaXaXaXaXaXaXaXaXaXaXaXaXaXaXaXaXaXaXaXaXaXaX",
"jXjXjXjXjXjXjXjXjXjXjXjXjXjXjXjXjXjXjXjXjXjXjXjXjXjXjXjXjXjXjXjXjXjXjXjXjXjXjXjXjXjXjXjXjXjXjXjXjXjXjXjXjXjXjXjXjXjXjXjXjXjXjXjXjXjXjXjXjXjXjXjXjXjXjXjXjXjXjXjXjXjXjXjXjXjXjXjXjXjXjXjXjXjXjXjXiXiXiXiXiXiXiXiXiXiXiXiXiXiXiXiXiXiXiXiXiXiXiXiXkXiXiXiXiXiXiXiXjXjXkXkXkXkXkXkXkXkXkXkXkXkXiXiXkXkXkXkXkXkXkXkXkXkXkXkXkXkXkXkXkXaXaXaXaXaXaXaXaXaXaXaXaXaXaXaXaXaXaXaXaXaXaXaXkXkXkXkXaXaXkXkXkXkXkXkXkXkXkXkXkXkXkXkXkXkXkXkXaXaXaXaXaXaXaXaXaXaXaXaXaXaXaXaXkXaXuXuXaXaXsXdXsXsXaXaXaXaXaXaXaXaXaXaXaXiXaXaXaXaXaXaXaXaXaXaXaXaXaXaXaXaXaXaXaXaXaXaXaXaXaXaXaXaXaXaXaXaXaXaXaXaXaXaXaXaXaXaXaXaXaXaXsXsXsXsXsXsXsXsXsXsXsXsXsXsXsXsXsXsXsXaXlXlXlXlXlXlXlXlX",
"jXjXjXjXjXjXjXjXjXjXjXjXjXjXjXjXjXjXjXjXjXjXjXjXjXjXjXjXjXjXjXjXjXjXjXjXjXjXjXjXjXjXjXjXjXjXjXjXjXjXjXjXjXjXjXjXjXjXjXjXjXjXjXjXkXkXkXkXkXkXkXkXjXjXjXjXjXjXjXjXkXkXkXkXkXkXkXkXkXkXkXkXkXkXkXkXkXkXkXkXjXjXkXkXjXjXjXkXkXkXkXkXkXkXkXkXkXkXkXkXkXkXiXiXiXiXiXiXkXkXkXkXkXkXkXkXkXkXkXkXkXkXiXiXkXkXkXkXkXkXkXkXkXkXkXkXkXkXkXkXaXaXaXaXaXaXaXaXaXaXaXaXaXaXaXaXkXkXkXkXkXkXkXkXkXkXkXkXkXaXkXkXkXkXkXkXkXkXkXkXkXkXkXkXkXkXkXkXaXaXaXaXaXaXaXaXaXaXaXaXaXaXaXaXaXaXuXuXaXlXsXdXsXsXaXaXaXaXaXaXaXaXaXaXaXaXaXaXaXaXaXaXaXaXaXaXaXaXaXaXaXaXaXaXaXaXaXaXaXaXaXaXaXaXaXaXaXaXaXaXaXaXaXaXaXaXaXaXaXaXaXaXsXsXsXsXsXsXsXsXsXsXsXsXlXlXlXlXlXlXlXlXlXlXlXlXlXlXlXlX",
"jXjXjXjXjXjXjXjXjXjXjXjXjXjXjXjXjXjXjXjXkXkXkXkXkXkXjXjXjXjXjXjXjXjXjXjXjXjXjXjXjXjXjXjXjXjXjXjXjXjXjXjXjXjXjXjXjXjXjXjXjXjXjXjXkXkXjXjXjXjXjXjXkXkXkXkXkXkXjXjXkXkXjXjXjXjXkXkXkXkXjXjXjXjXjXjXkXkXkXjXjXjXkXkXjXjXjXjXkXkXkXkXkXkXkXkXkXkXkXkXkXkXkXkXkXkXkXkXkXkXkXkXkXkXkXkXkXkXkXkXkXkXkXkXkXkXkXkXkXkXkXkXkXkXkXkXkXkXkXkXaXaXaXaXaXaXaXaXkXkXkXkXkXkXkXkXkXkXkXkXkXkXkXkXkXkXkXkXkXkXkXkXaXaXaXaXaXaXaXaXaXaXaXaXaXaXaXaXaXaXaXaXaXaXaXaXaXaXaXaXaXaXaXaXaXaXaXaXaXaXaXdXaXaXaXaXaXaXaXaXaXaXaXiXaXaXaXaXaXaXaXaXaXaXlXlXaXaXaXaXaXaXaXaXlXlXlXsXsXlXlXlXaXaXaXaXaXaXaXaXaXkXkXkXkXkXsXlXsXsXaXaXsXsXsXsXaXaXaXaXsXlXlXlXlXlXlXlXlXlXlXlXlXlXlXlXlXlXlXlX",
"jXjXjXjXjXjXjXjXjXjXjXjXjXjXjXjXjXjXjXjXkXkXkXkXkXkXkXkXjXjXkXkXjXjXjXjXjXjXjXjXjXjXjXjXjXjXjXjXjXjXjXjXjXjXjXjXjXjXjXjXjXjXjXjXkXkXjXjXjXjXkXkXjXjXkXkXkXkXjXjXjXkXkXjXjXkXkXkXkXkXjXjXjXjXkXkXkXkXkXjXjXjXkXkXjXjXjXjXkXkXkXkXkXkXkXkXkXkXkXkXkXkXkXkXkXkXkXkXkXkXkXkXkXkXkXkXkXkXkXkXkXkXkXkXkXkXkXkXkXkXkXkXkXkXkXkXkXkXkXkXaXaXaXaXaXaXaXaXkXkXkXkXkXkXkXkXkXkXkXkXkXkXkXkXkXkXaXaXkXkXkXkXaXaXaXaXaXaXaXaXaXaXaXaXaXaXaXaXaXaXaXaXaXaXaXaXaXaXaXaXaXaXaXaXaXaXaXaXaXaXaXdXsXsXsXsXaXaXaXaXaXaXaXaXaXaXaXaXaXaXaXaXaXaXlXlXaXaXaXaXaXaXaXaXlXlXlXsXlXlXlXlXlXkXlXlXkXkXkXkXkXkXkXkXkXkXsXsXsXsXsXaXsXsXsXsXaXaXaXsXsXlXlXlXlXlXlXlXlXlXlXlXlXlXlXlXlXlXlXlX",
"kXkXkXkXkXkXkXkXjXjXjXjXjXjXjXjXkXkXkXkXkXkXkXkXkXkXkXkXkXkXkXkXaXaXaXaXaXaXkXaXjXjXaXaXaXaXaXjXjXjXjXjXjXjXjXjXjXjXjXjXjXjXjXjXkXkXkXjXkXkXkXkXjXjXjXjXkXkXjXjXkXkXkXkXkXkXkXkXkXkXkXkXkXkXkXkXkXaXaXaXaXaXaXaXaXaXaXaXaXaXaXaXaXaXaXaXaXaXaXaXaXaXaXaXaXaXaXaXkXkXkXkXkXkXkXkXkXkXkXkXkXkXkXkXaXaXaXaXaXaXaXaXaXaXaXaXaXaXaXaXaXaXaXaXaXaXaXaXkXkXkXkXkXkXkXkXkXkXkXkXkXkXkXkXkXkXkXkXkXkXkXkXaXaXaXaXaXaXaXaXaXaXaXaXaXaXaXaXaXaXaXaXsXsXsXaXaXaXaXaXaXaXaXaXaXaXaXaXaXaXsXaXsXsXsXsXsXsXaXaXsXaXdXdXaXsXaXaXaXaXaXaXsXsXsXsXsXsXsXsXsXsXsXsXsXsXsXsXsXsXsXsXlXlXlXlXlXlXlXlXsXsXsXsXsXsXsXsXaXaXaXaXaXaXaXaXsXaXsXsXsXsXsXsXsXsXsXsXsXsXsXsXsXsXsXsXsXsXsXsX",
"kXkXkXkXkXkXkXkXkXkXkXkXkXkXkXkXkXkXkXkXkXkXkXkXkXkXkXkXkXkXkXkXkXkXkXkXkXkXkXkXjXaXaXaXaXjXaXaXkXkXkXkXkXkXkXkXkXkXkXjXkXkXkXkXkXkXkXkXkXkXkXkXkXkXkXkXkXkXkXkXkXkXkXkXkXkXkXkXkXkXkXkXkXkXkXkXaXaXaXaXaXaXaXaXaXaXaXaXaXaXaXaXaXaXaXaXaXaXaXaXaXaXaXaXaXaXaXaXkXkXkXkXkXkXkXaXkXkXkXkXkXkXkXkXkXkXkXkXkXkXkXkXkXkXkXkXkXkXkXkXkXkXkXkXkXkXkXkXkXkXkXkXkXkXkXkXkXkXkXkXkXkXkXkXkXkXkXkXkXkXkXkXaXaXaXaXaXaXaXaXkXkXkXkXkXkXkXkXaXsXsXsXsXsXsXsXaXaXaXaXaXaXaXaXaXaXaXaXsXsXsXsXlXlXlXlXlXlXlXlXlXaXdXaXsXsXaXaXaXaXaXaXsXsXlXlXsXsXsXsXsXsXsXsXlXlXlXlXlXlXlXlXlXNXNXNXlXlXlXlXlXlXlXlXlXlXlXlXsXsXsXsXsXsXsXsXsXsXsXsXsXsXsXsXsXsXsXsXsXsXsXsXsXsXsXsXsXsXsXsX",
"kXkXkXkXkXkXkXkXkXkXkXkXkXkXkXkXkXkXkXkXkXkXkXkXkXkXkXkXkXkXkXkXaXaXaXkXaXaXaXaXaXaXaXaXkXkXkXkXjXjXjXjXkXkXkXkXkXjXjXjXjXjXjXjXkXkXkXkXkXkXkXkXkXkXkXkXkXkXkXkXkXkXkXkXkXkXkXkXkXkXkXkXkXkXkXkXkXkXkXkXkXkXkXkXkXkXkXkXaXaXkXkXkXkXkXkXkXkXkXkXkXkXkXkXkXkXkXkXkXkXaXaXkXkXkXkXkXkXaXaXaXkXkXkXkXkXkXkXkXkXkXkXkXkXkXkXkXkXaXkXaXaXaXaXaXaXaXaXaXaXaXaXaXaXkXkXaXaXkXkXkXkXlXkXkXkXlXkXkXkXkXkXlXkXkXkXkXkXkXkXlXlXkXlXlXlXlXlXlXlXlXlXlXlXlXlXsXsXsXsXaXaXaXaXaXaXaXaXsXsXsXsXsXsXsXsXsXsXsXsXlXaXaXsXlXsXsXsXsXsXsXsXsXlXlXlXsXsXsXsXsXsXsXsXlXlXlXlXlXlXlXlXlXlXlXlXlXlXlXlXlXlXlXlXlXlXlXlXsXsXsXsXsXsXsXsXsXsXsXsXsXsXsXsXsXsXsXlXlXlXsXsXsXsXsXsXsXsXsXsX",
"kXkXkXkXkXkXkXkXkXkXkXkXkXkXkXkXkXkXkXkXkXkXkXkXkXkXkXkXkXkXkXkXkXkXkXkXkXkXkXkXaXaXaXaXkXkXkXkXkXkXkXkXkXkXkXkXkXkXkXkXkXkXkXkXkXkXkXkXkXkXkXkXkXkXkXkXkXkXkXkXkXkXkXkXkXkXkXkXkXkXkXkXkXkXkXkXkXaXkXkXkXkXkXkXkXkXkXkXaXaXkXkXkXkXkXkXkXkXkXkXkXkXkXkXkXkXkXkXkXkXaXaXkXkXkXkXkXkXaXaXkXkXkXkXkXkXkXkXkXkXkXkXkXkXkXkXkXkXkXkXaXaXaXaXaXkXaXaXaXaXaXaXaXaXkXaXlXlXlXlXlXlXlXlXlXlXlXlXlXlXlXlXlXlXlXlXkXlXlXlXlXkXlXlXlXlXlXlXlXlXlXlXlXlXlXlXsXsXsXsXaXaXaXaXBXaXaXaXsXsXsXsXsXsXsXsXsXsXsXsXlXaXaXsXlXsXaXsXsXsXsXsXlXlXlXlXlXlXlXlXlXlXlXlXlXlXlXlXlXlXlXlXlXlXlXlXlXlXlXlXlXlXlXlXlXlXlXlXNXNXNXNXNXNXNXNXsXsXsXsXsXsXsXsXsXsXNXlXlXlXlXsXsXsXsXsXsXsXsXsX",
"kXkXkXkXkXkXkXkXkXkXkXkXkXkXkXkXkXkXkXkXkXkXkXkXkXkXkXkXkXkXkXkXkXkXkXkXkXkXkXkXkXkXkXkXkXkXkXkXkXkXkXkXkXkXkXkXkXkXkXkXkXkXkXkXkXkXkXkXkXkXkXkXkXkXkXkXkXkXkXkXkXkXkXkXkXkXkXkXlXlXkXkXkXkXkXkXkXkXkXkXkXkXkXkXkXkXkXkXkXkXkXkXkXkXkXkXkXkXkXkXaXkXaXkXkXkXkXkXkXkXkXkXkXkXkXkXkXkXkXkXkXkXkXkXkXkXkXkXkXkXkXkXkXkXkXkXkXkXkXkXaXaXaXaXaXaXaXaXaXaXaXaXaXaXaXaXlXlXlXlXlXlXlXlXlXlXlXlXlXlXlXlXNXNXNXNXNXNXNXNXNXlXlXlXlXlXNXNXlXlXlXlXlXlXlXlXsXsXsXsXsXsXsXaXBXBXaXaXsXsXsXsXsXsXsXsXsXsXaXaXlXdXdXlXlXsXaXlXsXsXsXlXlXlXlXlXlXlXlXlXlXlXlXlXlXlXlXlXlXlXlXlXlXlXlXlXlXlXlXlXlXlXlXlXlXlXlXlXsXsXsXsXsXsXlXsXsXsXsXsXsXsXsXsXsXsXsXsXlXsXsXsXsXsXsXsXsXsXsXsX",
"kXkXkXkXkXkXkXkXkXkXkXkXkXkXkXkXkXkXkXkXkXkXkXkXkXkXkXkXkXkXkXkXkXkXkXkXkXkXkXkXkXkXkXkXkXkXkXkXkXkXkXkXkXkXkXkXkXkXkXkXkXkXkXkXkXkXkXkXkXkXkXkXkXkXkXkXkXkXkXkXkXkXkXkXkXkXkXkXlXlXkXkXkXkXkXkXkXkXkXkXkXkXkXkXkXkXkXkXkXkXkXkXkXkXaXaXkXkXkXkXkXaXaXkXkXkXkXkXkXkXkXkXkXkXkXkXkXkXkXkXkXkXkXkXkXkXkXkXkXkXkXkXkXkXkXkXkXkXkXkXaXaXaXaXaXaXaXaXaXaXaXaXaXaXaXaXlXlXlXlXlXlXlXlXlXlXlXlXlXlXlXlXlXNXlXNXlXNXlXNXsXaXaXaXsXaXsXsXsXaXaXsXsXsXaXaXaXsXsXsXsXsXsXsXBXaXaXaXsXsXsXsXsXsXsXsXsXsXaXsXlXdXdXlXlXsXaXlXsXsXsXlXlXlXlXlXlXlXlXlXlXlXlXlXlXlXlXlXlXlXlXlXlXsXlXsXlXsXlXsXlXNXlXNXlXNXlXNXsXsXsXsXsXsXsXsXNXMXNXMXsXsXsXsXsXsXsXsXsXsXsXsXsXsXsXsXsXsXsXsX",
"kXkXkXkXkXkXkXkXkXkXkXkXkXkXkXkXkXkXkXkXkXkXkXkXkXkXkXkXkXkXkXkXkXkXkXkXkXkXkXkXkXkXkXkXkXkXkXkXkXkXkXkXkXkXkXkXkXkXkXkXkXkXkXkXkXkXkXkXkXkXkXkXkXkXkXkXkXkXkXkXkXkXkXkXkXkXkXkXkXkXkXlXlXlXkXkXkXkXkXkXkXkXkXkXkXkXlXlXlXkXkXkXkXkXkXkXkXkXkXkXkXkXkXkXkXkXkXlXkXlXlXlXkXkXkXkXkXlXlXlXkXkXkXkXlXlXlXlXlXlXlXlXlXlXlXlXlXlXlXlXlXlXlXlXlXkXlXlXlXlXlXlXlXlXlXlXlXlXlXlXlXlXlXlXlXNXlXNXlXNXlXNXlXNXlXNXlXNXlXNXlXlXlXNXlXNXlXlXsXsXsXsXsXsXsXNXNXsXsXsXsXsXsXsXsXMXaXsXNXNXNXsXsXsXsXsXsXsXaXsXsXsXsXNXNXNXsXsXsXsXsXsXsXlXsXlXsXsXsXsXsXsXsXsXsXsXsXsXsXsXsXsXsXsXsXsXsXsXsXsXsXsXsXsXsXsXlXsXsXMXsXMXsXsXsXsXsXsXsXsXsXsXsXsXsXsXsXsXsXsXsXsXsXsXsXsXsXsXMXMX",
"kXkXkXkXkXkXkXkXkXkXkXkXkXkXkXkXkXkXkXkXkXkXkXkXkXkXkXkXkXkXkXkXkXkXkXkXkXkXkXkXkXkXkXkXkXkXkXkXkXkXkXkXkXkXkXkXkXkXkXkXkXkXkXkXkXkXkXkXkXkXkXkXkXkXkXkXkXkXkXkXkXkXkXkXkXkXkXkXkXkXkXkXlXlXlXlXkXkXkXkXkXkXkXkXkXkXlXlXkXkXkXkXkXkXkXkXkXkXlXlXkXkXkXkXkXkXkXlXkXlXlXlXkXkXkXkXkXlXlXlXkXkXkXkXlXlXlXlXlXlXlXlXlXlXlXlXlXlXlXlXlXlXlXlXlXkXkXlXlXlXlXlXlXkXlXlXlXlXlXlXlXlXlXlXlXlXlXlXlXlXlXlXlXlXlXlXlXlXlXlXlXlXlXlXlXlXlXlXsXsXsXsXsXsXNXNXNXsXsXsXsXsXsXsXsXsXsXsXNXNXNXsXsXsXsXsXsXsXaXaXsXsXMXNXNXNXsXsXsXsXsXsXsXsXsXlXsXsXsXsXsXsXsXsXsXsXsXsXsXsXsXsXsXsXsXsXsXsXsXsXsXsXsXsXsXsXsXsXMXMXMXMXsXsXsXsXsXsXsXsXsXsXsXsXsXsXsXsXsXsXsXsXsXsXsXsXsXsXMXMX",
"kXkXkXkXkXkXkXkXkXkXkXkXkXkXkXkXlXkXlXlXlXlXlXlXlXlXkXlXkXkXkXkXlXlXlXlXkXkXkXkXlXlXlXlXkXkXkXkXlXlXlXlXkXkXlXlXlXlXlXlXkXkXkXkXlXlXlXlXkXkXkXkXkXkXlXlXlXlXlXlXkXkXkXkXlXlXlXlXkXkXkXkXlXlXlXlXlXlXlXlXlXlXlXlXlXlXlXlXlXlXlXlXlXlXlXlXlXlXlXlXlXlXkXkXkXkXkXkXkXkXlXlXkXkXkXkXkXkXlXlXkXkXkXkXlXlXlXlXlXlXlXlXlXlXlXlXlXlXlXlXlXlXlXlXlXlXlXlXlXlXlXlXlXlXlXlXlXlXlXlXlXlXlXlXlXlXlXlXlXlXlXlXlXlXlXlXlXlXlXlXlXlXlXlXlXlXlXlXsXsXsXsXsXsXNXNXNXNXsXsXsXsXsXsXNXsXsXsXNXNXNXNXsXsXsXsXsXaXaXaXsXsXMXNXNXNXlXsXsXsXsXlXsXsXsXFXlXNXNXNXNXNXNXNXNXNXNXNXNXNXNXNXMXMXMXMXMXMXsXsXsXsXsXsXvXvXvXsXsXsXsXsXsXsXsXsXsXsXsXsXsXsXsXsXsXsXsXsXsXsXsXsXsXsXsXsXMXMXMXCX",
"kXkXkXkXkXkXkXkXkXkXkXkXkXkXkXkXlXlXlXlXlXlXlXlXlXlXlXlXkXkXkXkXlXlXlXlXkXkXkXkXlXlXlXlXkXkXkXkXlXlXlXlXkXkXlXlXlXlXlXlXkXkXkXkXlXlXlXlXkXkXkXkXkXkXlXlXlXlXlXlXkXkXkXkXlXlXlXlXkXkXkXlXlXlXlXlXlXlXlXlXlXlXlXlXlXlXlXlXlXlXlXlXlXlXlXlXlXlXlXlXlXlXlXlXlXlXlXlXlXlXlXlXlXlXlXlXlXlXlXlXlXlXlXlXlXlXlXlXlXlXlXlXlXlXlXlXlXlXlXlXlXlXlXlXlXlXlXlXlXlXlXlXlXlXlXlXlXlXlXlXlXlXlXlXNXNXNXNXNXNXNXNXNXNXNXNXNXlXNXNXlXlXlXlXlXlXlXsXsXsXsXsXsXsXNXNXNXNXsXsXsXsXsXsXNXsXsXsXNXNXNXNXsXsXsXsXsXsXaXaXsXsXsXNXNXNXlXlXlXlXlXlXsXsXsXFXlXNXNXNXNXNXNXNXNXNXNXNXNXNXNXMXMXMXMXMXMXMXsXsXsXsXsXsXvXvXvXvXsXsXsXsXsXsXsXsXsXsXsXsXsXsXsXsXsXsXsXsXsXsXsXsXsXsXsXMXMXMXMXCX",
"kXkXlXlXlXlXkXkXkXkXlXlXlXlXlXlXlXlXlXlXlXlXlXlXlXlXkXkXkXlXlXkXlXlXlXlXlXlXlXlXlXlXlXlXlXlXlXlXlXlXkXlXlXlXlXlXlXlXlXlXkXkXkXlXlXlXlXlXlXlXlXlXlXlXlXlXlXlXlXlXlXlXlXlXlXlXlXlXlXlXlXlXlXlXlXlXlXlXlXlXlXlXlXlXlXlXlXlXlXlXlXlXlXlXlXlXlXlXlXlXlXlXlXlXlXlXkXkXlXlXlXlXlXlXlXlXlXlXlXlXlXlXlXlXNXNXNXNXNXNXNXNXNXNXNXNXNXNXNXNXNXNXNXNXNXNXNXNXNXNXNXNXNXNXNXNXlXlXlXlXlXlXlXlXNXNXNXNXNXNXNXNXNXNXNXNXNXNXNXNXNXNXNXNXNXNXNXNXsXsXsXsXsXsXsXMXNXMXsXsXsXsXsXsXMXsXsXsXMXMXMXMXsXsXsXsXsXsXsXsXsXsXsXsXsXsXMXCXsXsXsXsXCXCXCXFXMXMXMXMXMXMXMXMXMXMXMXMXMXMXMXMXMXMXMXMXMXCXCXCXMXMXCXCXMXCXvXvXMXMXMXMXMXMXMXCXMXMXMXMXCXCXCXCXMXMXMXMXMXMXMXMXMXMXMXsXsXsXCXCX",
"lXkXlXlXkXkXkXkXlXlXlXlXlXlXkXkXlXlXlXlXlXlXlXlXlXlXlXlXlXlXlXlXlXlXlXlXlXlXlXlXlXlXlXlXlXlXlXlXlXlXlXlXlXlXlXlXlXlXlXlXlXlXlXlXlXlXlXlXlXlXlXlXlXlXlXlXlXlXlXlXlXlXlXlXlXlXlXlXlXlXlXlXlXlXlXNXlXlXlXlXlXlXlXlXlXlXlXlXlXlXlXlXlXlXlXlXlXlXlXlXNXNXlXlXlXlXlXlXlXlXlXlXlXlXlXlXlXlXlXlXlXlXlXlXNXNXNXNXNXNXNXNXNXNXNXNXNXNXNXNXNXNXNXNXNXNXNXNXNXNXNXNXNXNXNXNXNXNXNXNXNXNXNXNXNXNXNXNXNXNXNXNXNXNXNXNXNXNXNXNXNXNXNXNXNXNXNXMXMXsXsXsXsXsXMXMXNXMXsXsXsXsXsXsXMXMXsXMXMXNXMXMXsXsXsXsXsXsXsXsXsXsXsXsXsXsXMXMXsXMXMXsXFXFXFXFXMXMXMXMXMXMXMXMXMXMXMXMXMXMXMXMXMXMXMXMXMXMXMXCXMXMXCXCXMXvXvXvXCXCXCXCXMXMXCXCXCXMXMXMXCXCXCXCXCXCXMXMXCXMXCXCXMXMXMXMXsXsXCXCX",
"kXlXlXlXkXkXkXkXlXlXkXkXkXkXkXlXkXkXkXkXlXlXlXlXlXkXkXkXlXlXlXlXlXlXlXlXlXlXlXlXlXlXlXlXlXlXlXlXBXBXlXlXlXlXlXlXlXlXlXlXlXlXlXlXlXlXlXlXlXlXlXlXlXlXlXlXlXlXlXlXlXlXlXlXlXlXlXlXlXlXlXlXlXNXNXNXlXlXlXlXlXlXlXlXlXlXlXlXlXlXlXlXlXlXlXlXlXlXlXlXlXlXlXlXlXlXlXlXlXlXlXlXlXlXlXlXlXlXlXlXlXlXlXlXNXNXNXNXNXNXNXNXNXNXNXNXNXNXNXNXNXNXNXNXNXNXNXNXNXNXNXNXNXNXNXNXNXNXNXNXNXNXNXNXNXNXNXNXNXNXNXNXNXMXMXMXCXMXMXMXsXsXMXMXCXCXsXsXsXMXsXsXMXMXMXMXFXCXsXsXsXsXMXsXMXMXsXMXMXCXMXMXsXsXsXsXsXsXsXsXsXsXsXsXMXMXCXCXvXvXsXCXCXCXbXFXMXMXCXCXMXCXMXMXCXCXCXCXMXMXMXMXMXMXMXMXCXCXCXCXCXCXMXNXCXCXvXCXCXCXCXCXsXsXsXCXCXCXsXsXCXCXCXCXCXsXCXCXsXCXMXMXCXCXCXCXsXvXsXsX",
"lXlXlXlXlXlXlXlXlXlXlXlXlXlXlXlXlXlXlXlXlXlXlXlXkXkXkXkXlXlXlXlXlXlXlXlXlXlXlXlXlXlXlXlXlXlXlXlXBXBXlXlXlXlXlXlXlXlXlXlXlXlXlXlXlXlXlXlXlXlXlXlXlXlXlXlXlXlXlXlXlXlXlXlXlXlXlXlXlXlXlXlXNXNXNXNXNXNXNXNXNXNXNXNXNXNXNXNXNXNXNXNXlXlXlXlXlXlXlXlXNXNXNXNXNXNXNXNXNXNXNXNXNXNXNXNXNXNXNXNXNXNXNXNXNXNXNXNXNXNXNXNXNXNXNXNXNXNXNXNXNXNXNXNXNXNXNXNXNXNXNXNXNXNXNXNXNXNXNXNXNXNXNXNXNXNXNXNXNXNXNXMXMXMXMXMXMXMXMXMXsXsXMXMXMXCXsXsXMXMXsXsXMXMXMXMXFXCXsXsXsXMXMXsXMXMXsXMXMXCXMXMXMXsXsXsXsXsXsXsXsXsXsXsXMXMXCXCXCXCXCXCXCXCXFXFXCXMXCXCXCXCXMXMXCXCXCXCXMXMXMXMXMXMXMXCXCXCXCXCXMXMXMXNXCXCXvXvXCXCXCXCXsXsXsXCXCXCXsXsXMXCXCXCXCXCXCXCXCXCXMXMXCXCXCXCXsXvXsXsX",
"lXlXlXlXlXlXlXlXlXlXlXlXlXlXlXlXlXlXlXlXlXlXlXlXlXlXlXlXlXlXlXlXlXlXlXlXlXlXlXlXlXlXlXlXlXlXlXlXlXlXlXlXlXlXlXlXlXlXlXlXlXlXlXlXlXlXlXlXlXlXlXlXlXlXlXlXlXlXlXlXNXNXNXNXNXNXNXNXNXNXNXNXNXNXNXNXlXlXlXlXlXlXlXlXlXlXlXlXlXlXlXlXNXNXNXNXNXNXNXNXNXNXNXNXNXNXNXNXlXlXlXlXlXlXlXlXlXlXlXlXlXlXlXlXNXNXNXNXNXNXNXNXNXNXNXNXNXNXNXNXNXMXMXMXMXMXMXMXMXMXMXMXMXMXMXMXMXMXMXMXMXMXMXMXNXNXNXNXNXNXNXNXNXCXCXCXMXMXMXMXCXCXCXMXMXMXMXMXMXMXMXCXCXMXMXMXMXMXMXMXMXMXMXMXCXMXMXMXMXMXMXMXsXCXCXMXMXMXMXMXMXMXMXMXMXMXCXCXCXCXvXvXvXvXCXCXCXCXCXMXCXCXFXFXMXMXMXMXCXCXCXCXMXCXMXMXCXMXCXCXCXCXCXCXCXCXCXCXCXCXCXCXCXCXCXCXCXCXCXCXCXCXCXCXCXCXCXCXCXCXCXCXCXCXCXCXCXCXCXCX",
"lXlXlXlXlXlXlXlXlXlXlXlXlXlXlXlXlXlXlXlXlXlXlXlXlXlXlXlXlXlXlXlXlXlXlXlXlXlXlXlXlXlXlXlXlXlXlXlXlXlXlXlXlXlXlXlXlXlXlXlXlXlXlXlXlXlXlXlXlXlXlXlXlXlXlXlXlXlXlXlXNXNXNXNXNXNXNXNXNXNXNXNXNXNXNXNXlXlXlXlXlXlXlXlXlXlXlXlXlXlXlXlXNXNXNXNXNXNXNXNXNXNXNXNXNXNXNXNXlXlXlXlXlXlXlXlXlXlXlXlXlXlXlXsXNXNXNXNXNXNXNXNXNXNXNXNXNXNXNXMXMXMXMXMXMXMXMXMXMXMXMXMXMXMXMXMXMXMXMXMXMXMXMXMXNXNXNXNXNXNXMXMXMXCXCXCXMXMXMXMXCXCXCXCXMXMXMXMXMXMXMXMXMXMXMXMXMXMXMXMXMXMXMXMXCXMXMXMXMXMXCXMXMXCXCXMXMXMXCXMXMXMXMXMXMXMXCXCXCXCXvXCXvXvXFXFXCXCXCXCXCXCXCXCXMXMXMXMXCXCXCXCXCXCXMXMXCXCXCXCXCXCXCXCXCXCXCXCXCXCXCXCXCXCXCXCXCXCXCXCXCXCXCXCXCXCXCXCXCXCXCXCXCXCXCXCXCXCXCXMX",
"lXlXlXlXlXlXlXlXlXlXlXlXlXlXlXlXlXlXlXlXlXlXlXlXlXlXlXlXlXlXlXlXNXNXNXNXNXNXNXNXNXNXNXNXNXNXNXNXNXNXNXNXlXlXlXlXlXlXlXlXlXlXlXlXlXlXlXlXlXlXlXlXlXlXlXlXlXlXlXlXNXNXNXNXNXNXNXNXNXNXNXNXNXNXNXNXlXMXNXNXNXNXlXNXNXNXNXNXNXNXMXMXNXNXNXNXNXNXNXNXNXNXNXNXNXNXNXNXNXNXNXNXNXNXMXNXNXNXNXNXMXNXNXNXNXMXMXMXMXMXMXMXMXMXMXNXMXMXMXMXNXMXMXMXMXMXMXMXMXMXMXMXMXMXMXMXMXMXMXMXMXMXMXMXMXMXMXMXMXMXMXMXMXCXCXCXCXCXCXCXCXCXCXCXCXCXCXCXMXCXMXMXvXCXCXCXvXsXCXCXMXMXsXvXCXCXsXCXCXCXCXCXsXCXCXsXsXCXCXsXsXMXMXMXCXCXCXCXCXCXCXCXCXCXCXCXCXCXCXCXCXCXCXCXCXCXCXCXCXCXCXCXCXCXMXCXCXCXCXCXCXCXCXCXCXCXCXCXCXCXCXCXCXCXCXCXCXCXCXCXCXCXCXCXMXMXMXMXMXMXMXMXCXCXCXCXCXCXMXMX",
"lXlXlXlXlXlXlXlXlXlXlXlXlXlXlXlXlXlXlXlXlXlXlXlXlXlXlXlXlXlXlXlXNXNXNXNXNXNXNXNXNXNXNXNXNXNXNXNXNXNXNXNXNXNXNXNXlXlXlXlXlXlXlXlXlXNXNXNXNXNXNXNXNXNXNXNXNXNXNXNXNXNXNXNXNXNXNXNXNXNXNXNXNXNXNXNXNXNXNXMXNXNXlXlXNXNXNXNXNXNXNXNXNXNXNXNXNXNXNXNXNXNXNXNXNXNXNXNXNXNXNXNXNXNXNXNXNXNXNXNXNXNXNXNXNXNXNXNXNXNXNXNXNXNXNXNXNXNXNXNXMXMXMXMXMXMXMXMXMXMXMXMXMXMXMXMXMXMXMXMXMXMXMXMXMXMXMXMXMXMXMXMXCXCXCXCXCXCXCXCXCXCXCXCXCXCXCXCXMXMXMXsXCXCXCXCXsXsXCXCXCXCXsXvXCXCXCXCXCXCXCXCXsXCXCXsXsXCXCXsXCXMXMXMXCXCXCXCXCXCXCXCXCXCXCXCXCXCXCXCXCXCXCXCXCXCXCXCXCXCXCXCXCXCXCXCXCXCXCXCXCXCXCXCXCXCXCXCXCXCXCXCXCXCXCXCXCXCXCXCXCXCXCXCXCXCXCXCXCXCXCXCXCXCXCXCXCXCXMXMX",
"NXNXNXNXNXNXNXNXNXNXNXNXNXNXNXNXlXlXlXlXlXlXlXlXlXlXlXlXlXlXlXNXNXNXNXNXNXNXNXNXNXNXNXNXNXNXNXNXNXNXNXNXNXNXNXNXlXlXlXlXlXlXlXlXlXlXlXlXlXlXlXlXlXlXlXlXlXlXlXlXNXNXNXNXNXNXNXNXNXNXNXNXNXNXNXNXNXMXMXMXMXMXMXMXMXMXMXMXMXMXMXMXMXMXMXMXMXMXMXMXMXMXMXMXMXMXMXMXMXMXMXMXMXMXMXMXMXMXMXMXMXMXMXMXNXNXNXNXNXNXNXNXNXNXNXNXNXNXNXNXMXMXMXMXMXMXMXMXMXMXMXMXMXMXMXMXMXMXMXMXMXMXMXMXMXMXMXMXMXMXMXMXCXCXCXCXCXCXCXCXCXCXCXCXCXCXCXCXMXMXMXMXMXMXMXMXMXCXCXCXCXCXCXCXCXCXCXCXCXCXCXCXvXCXCXvXvXCXCXMXCXCXCXCXCXCXCXCXCXCXCXCXCXCXCXCXCXCXCXCXCXCXCXCXCXCXCXCXCXCXCXCXCXCXCXCXCXCXCXCXCXCXCXCXCXCXCXCXCXCXCXCXCXCXCXCXCXCXCXCXCXCXCXCXCXCXCXCXCXCXCXCXCXCXCXCXCXCXCXCX",
"NXNXNXNXNXNXNXNXNXNXNXNXNXNXNXNXlXlXlXlXlXlXlXlXlXlXlXlXlXlXlXNXNXNXNXNXNXNXNXNXNXNXNXNXNXNXNXNXNXNXNXNXNXNXNXNXNXlXlXlXFXFXFXFXNXNXNXNXNXNXNXNXNXNXNXNXNXNXNXNXNXNXNXNXNXNXNXNXNXNXNXNXNXNXNXNXNXMXMXMXMXMXMXMXMXMXMXMXMXMXMXMXMXMXMXMXMXMXMXMXMXMXMXMXMXMXMXMXMXMXMXMXMXMXMXMXMXMXMXMXMXMXMXMXNXNXNXNXNXNXNXNXNXNXNXNXNXNXNXMXMXMXMXMXMXMXMXMXMXMXMXMXMXMXMXMXMXMXMXMXMXMXMXMXMXMXMXCXMXMXMXMXCXCXCXCXCXCXCXCXCXCXCXCXCXCXCXCXCXCXCXCXCXCXCXCXCXCXCXCXCXCXCXCXvXCXCXCXCXCXCXvXvXCXCXvXCXCXCXvXCXCXCXCXCXCXCXCXCXCXCXCXCXCXCXCXCXCXCXCXCXCXCXCXCXCXCXCXCXCXCXCXCXCXCXCXCXCXCXCXCXCXCXCXCXCXCXCXCXCXCXCXCXCXCXCXCXCXCXCXCXCXCXCXAXAXAXCXAXAXAXAXCXCXCXCXCXCXCXCX",
"NXNXNXNXNXNXNXNXNXNXNXNXNXNXNXNXlXNXNXNXNXNXNXNXNXNXNXNXNXNXNXNXNXNXNXNXNXNXNXNXNXNXNXNXNXNXNXNXNXNXNXNXNXNXNXNXNXNXNXNXNXNXFXFXNXNXNXNXNXNXNXNXNXNXNXNXNXNXNXNXNXNXNXNXNXNXNXNXNXNXNXNXNXNXNXNXFXFXFXFXNXFXFXFXNXNXNXNXFXFXFXFXMXMXMXMXMXMXMXMXMXMXMXMXMXMXMXNXMXNXNXNXNXNXNXMXNXNXNXNXNXNXNXNXCXCXCXCXCXCXCXCXCXCXCXCXCXCXCXCXFXCXCXCXCXCXCXCXCXCXCXCXCXCXCXCXMXMXMXMXMXMXMXMXMXMXMXMXMXMXMXMXCXCXCXCXCXCXCXCXCXCXCXCXCXCXCXCXCXCXCXCXCXCXCXCXCXCXCXCXCXCXCXCXvXvXCXCXCXCXCXvXvXCXCXvXvXCXCXvXMXCXCXCXCXCXCXCXCXCXCXCXCXCXCXCXCXCXCXCXCXCXCXCXCXCXCXCXFXFXCXCXCXCXCXCXCXCXCXCXCXCXCXCXCXCXCXCXCXCXCXCXCXCXCXCXCXCXCXCXCXCXCXCXCXAXAXAXCXCXCXCXCXCXCXCXVXVXVXCX",
"NXNXNXNXNXNXNXNXlXNXlXNXlXNXlXlXlXNXlXNXlXNXlXNXlXNXlXNXlXNXlXNXNXNXNXNXNXNXNXNXNXNXNXNXNXNXNXNXNXNXNXNXNXNXNXNXNXNXNXNXNXNXFXFXNXNXNXNXNXNXNXNXNXNXNXNXNXNXNXNXNXNXNXNXNXNXNXNXNXNXNXNXNXNXNXNXFXFXFXFXNXNXFXFXFXFXNXFXFXFXFXFXMXMXMXMXMXMXMXMXMXMXMXMXMXMXMXNXNXNXNXNXNXNXNXNXNXNXNXNXNXNXNXNXCXCXCXCXCXCXCXCXCXCXCXCXCXCXCXCXCXCXCXCXCXCXCXCXCXCXCXCXCXCXCXCXMXMXMXMXMXMXMXMXMXMXMXMXMXMXMXCXCXCXCXCXCXCXCXCXCXCXCXCXCXCXCXCXCXCXCXCXCXCXCXCXCXCXCXCXCXCXCXCXvXvXCXCXCXCXCXCXvXCXCXvXvXCXCXMXvXCXCXCXCXCXCXCXCXCXCXCXZXCXCXCXCXCXCXCXCXFXCXCXCXCXCXCXGXFXAXFXCXCXCXCXCXCXCXCXCXCXCXCXCXCXCXCXCXCXCXCXCXCXCXCXCXCXCXCXCXCXCXCXAXAXAXAXAXAXCXCXVXCXCXCXVXVXVXCX",
"lXlXlXlXlXlXlXlXlXlXlXlXsXlXlXlXNXNXNXNXNXNXNXNXNXNXNXNXNXNXNXNXNXNXFXNXFXNXNXNXNXNXNXNXNXNXNXNXNXNXFXNXFXFXFXFXFXFXFXFXFXFXFXFXFXFXFXFXCXCXNXNXNXNXCXCXNXFXFXFXNXNXNXNXNXNXNXNXNXNXNXNXNXNXNXNXFXCXMXMXMXMXMXMXCXCXCXMXMXMXCXCXMXCXMXCXCXCXCXMXMXMXMXCXCXCXCXFXMXMXNXNXNXNXNXNXNXNXNXNXNXNXNXNXFXFXFXFXFXFXFXFXCXCXCXCXCXCXCXCXFXFXFXFXFXFXFXFXFXFXFXFXFXFXFXFXFXFXFXFXFXCXCXCXFXFXFXFXFXFXFXCXCXCXCXCXCXCXCXCXCXCXCXCXCXCXCXCXCXCXCXCXCXCXCXCXCXCXCXCXCXCXCXCXCXCXCXCXAXAXCXCXCXCXCXCXCXCXCXCXvXCXCXCXCXCXCXCXCXCXCXCXCXCXCXCXCXCXCXCXZXCXCXCXCXCXCXCXCXCXZXCXCXCXCXCXAXAXAXAXCXCXCXCXCXAXAXAXCXCXCXCXCXCXCXCXCXCXCXCXCXCXCXCXAXAXAXAXAXAXAXAXVXVXVXVXVXVXVXVX",
"lXlXlXlXlXlXlXlXlXlXsXsXsXsXlXlXNXNXNXNXNXNXNXNXNXNXNXNXNXNXNXNXNXNXNXNXNXNXNXNXNXNXNXNXNXNXNXNXFXNXFXFXNXNXFXFXFXFXNXNXFXFXFXFXNXNXFXFXCXCXNXNXNXNXCXFXNXNXFXFXFXFXFXFXNXNXNXNXNXFXFXFXNXNXNXFXMXCXMXMXMXMXMXMXCXCXMXMXMXMXCXCXMXMXMXMXCXCXCXCXMXMXCXCXCXCXCXFXMXNXNXNXNXNXNXNXNXNXNXFXNXNXNXMXFXFXFXFXFXFXFXFXFXFXFXFXFXFXFXFXFXFXFXFXFXFXFXFXFXFXFXFXFXFXFXFXCXCXFXFXCXCXCXCXFXFXFXFXFXFXFXCXCXCXCXCXCXCXCXCXCXCXCXCXCXCXCXCXCXCXCXCXCXCXCXCXCXCXCXCXCXCXCXCXCXCXCXCXAXAXCXCXCXCXCXCXCXCXCXCXCXCXCXCXCXCXCXCXCXCXCXAXCXCXCXCXCXCXCXCXCXZXCXCXCXCXCXCXCXCXZXZXCXCXCXCXAXAXAXAXCXCXCXCXCXAXAXAXCXCXCXCXCXCXCXCXCXCXCXCXCXCXCXCXAXAXAXAXAXAXAXAXVXVXVXVXVXVXVXVX",
"lXlXlXlXlXlXlXlXlXlXlXlXsXsXsXlXNXNXNXNXNXNXNXNXNXNXNXNXNXNXNXNXNXNXNXNXNXNXNXNXNXNXNXNXNXNXNXNXNXNXNXNXlXlXlXlXFXNXlXlXlXlXNXlXNXNXNXNXFXFXFXNXFXFXCXCXNXNXNXNXFXFXFXFXFXFXFXFXFXFXFXFXFXFXFXFXCXCXCXCXCXCXCXCXCXCXCXCXCXCXCXCXMXMXMXMXMXMXCXMXFXMXMXMXCXCXFXFXMXMXMXFXNXNXNXMXFXFXFXFXFXFXFXFXFXCXCXCXCXCXCXCXCXCXCXCXCXCXCXCXCXCXCXCXCXCXCXCXCXCXCXCXCXCXCXCXCXCXCXCXCXCXCXCXCXCXFXFXFXFXCXCXCXCXCXCXCXCXCXCXCXCXCXCXCXCXCXCXCXCXCXCXCXCXCXCXCXCXCXCXCXCXCXCXCXCXCXCXAXAXCXCXCXCXCXCXCXCXCXCXCXCXCXCXCXCXCXCXAXAXAXAXCXAXCXCXCXCXCXCXZXZXZXZXZXZXCXCXCXCXCXCXCXCXCXCXAXCXAXAXCXCXCXCXCXCXAXAXCXCXCXCXAXAXAXAXCXCXCXCXCXCXCXCXAXCXCXCXAXAXAXAXCXCXCXCXCXCXCXCX",
"NXNXNXNXNXNXNXNXlXlXlXlXFXFXFXFXNXNXNXNXNXNXNXNXNXNXNXNXNXNXNXNXNXNXNXNXNXNXNXNXNXNXNXNXNXNXNXNXFXFXFXFXNXNXNXNXFXFXFXNXNXFXFXFXNXNXNXNXFXFXNXNXFXFXFXFXNXNXNXNXFXCXFXCXFXCXFXCXFXCXFXCXFXCXFXCXCXCXCXCXCXCXCXCXCXCXCXCXCXCXCXCXCXCXCXCXCXCXCXCXFXCXMXMXCXCXFXFXMXMXFXFXFXFXNXFXFXFXFXFXFXFXFXFXCXCXCXCXCXCXCXCXFXFXFXFXFXFXFXFXFXFXFXFXFXFXFXFXFXFXFXFXFXFXFXFXCXCXCXCXCXCXCXCXCXFXCXFXFXFXCXCXCXCXCXCXFXFXFXFXCXCXCXCXCXCXCXCXCXCXCXCXCXCXCXCXCXCXCXCXCXCXCXZXAXCXCXCXAXAXCXCXCXCXCXCXCXCXCXCXCXCXCXCXCXCXCXCXAXAXAXAXAXAXCXCXGXGXGXGXAXAXGXGXZXZXZXZXCXCXCXZXCXCXCXCXCXCXAXAXCXCXCXCXCXCXAXAXCXCXCXCXAXAXAXAXCXCXCXCXCXCXCXCXAXCXCXCXAXAXAXAXCXAXCXCXCXCXCXCX",
"NXNXNXNXNXNXNXNXNXNXFXlXlXlXlXlXNXNXNXNXNXNXNXNXNXNXNXNXNXNXNXNXFXNXNXNXNXNXNXNXFXFXFXFXNXNXNXNXFXFXFXFXFXFXFXFXFXFXFXFXFXFXFXFXFXCXCXCXCXCXCXCXCXCXCXFXFXFXCXCXCXCXCXCXCXCXCXCXCXCXCXCXCXCXCXCXCXCXCXCXCXCXCXCXCXCXCXCXCXCXCXCXFXFXFXFXCXCXCXCXCXCXCXCXCXCXFXFXFXFXFXFXFXFXFXFXFXFXFXFXFXFXFXFXCXCXCXCXCXCXCXCXFXFXFXFXFXFXFXFXFXFXFXFXFXFXFXFXFXFXFXFXFXFXFXFXFXCXCXCXCXCXCXCXCXCXFXFXFXFXCXCXFXFXFXFXCXCXCXCXCXCXCXCXCXCXCXCXCXCXCXCXCXCXCXCXCXCXCXCXCXCXCXCXAXCXCXAXAXCXCXCXCXCXAXCXCXCXCXAXCXCXCXAXAXAXCXCXCXCXCXAXAXAXAXAXGXGXGXGXCXCXCXCXCXCXCXCXCXCXCXCXCXCXCXCXCXCXCXCXCXCXCXCXCXCXCXCXCXCXCXCXAXAXAXCXAXAXAXCXCXCXCXCXCXVXVXVXVXVXCXCXCXCXAXAXAXZXZXZX",
"NXNXNXNXNXNXNXNXNXNXlXlXlXlXlXsXNXNXNXNXNXNXNXNXNXNXNXNXNXNXNXNXFXFXFXFXNXNXNXFXFXFXNXFXNXNXNXNXFXFXFXFXFXFXFXFXFXFXFXFXFXFXFXFXFXFXCXCXCXCXCXCXCXCXCXCXFXFXCXCXCXCXCXCXCXCXCXCXCXCXCXCXCXCXCXCXCXCXCXCXCXCXCXCXCXCXCXCXFXCXCXCXFXFXFXFXFXCXCXCXCXCXCXCXCXFXFXFXFXFXFXFXFXFXFXFXFXFXFXFXFXFXFXFXFXFXFXFXFXFXFXFXFXFXFXFXFXFXFXFXFXFXFXFXFXFXFXFXFXFXFXFXFXFXFXFXFXFXCXCXCXCXCXCXCXCXFXFXFXFXCXCXFXFXFXFXCXCXCXCXCXCXCXCXCXCXCXCXCXCXCXCXCXCXCXCXCXCXCXCXCXGXGXAXAXCXCXAXAXAXCXCXCXCXAXAXCXCXCXAXCXCXAXAXCXCXCXCXCXCXAXAXAXAXAXAXGXGXGXGXFXCXCXCXCXCXCXCXCXCXCXCXCXCXCXCXCXCXCXCXCXCXCXCXCXCXCXCXCXCXCXCXAXAXCXCXAXAXCXCXCXCXCXCXVXVXVXVXVXVXCXCXCXAXAXAXZXZXZXZX",
"NXNXNXNXNXNXNXNXFXFXFXFXsXsXsXsXNXMXCXCXCXCXCXCXCXCXCXCXCXCXCXCXFXFXFXFXCXCXCXCXFXFXFXFXCXCXCXCXCXCXCXCXFXFXCXCXFXFXCXCXCXCXCXCXFXFXCXFXCXCXFXFXCXCXCXCXFXFXCXCXCXCXCXCXCXCXCXCXCXCXCXCXCXCXCXCXFXFXFXFXFXFXFXFXFXFXFXFXFXFXFXFXFXFXFXFXCXCXCXCXCXCXCXCXCXCXFXFXCXCXFXFXGXGXGXFXGXGXGXGXGXGXGXGXFXFXFXFXFXFXFXFXFXFXFXFXFXFXFXFXFXFXFXFXFXFXFXFXFXFXFXFXFXFXFXFXFXFXFXFXCXCXCXCXCXCXCXFXFXCXCXCXFXCXAXAXAXAXAXAXAXAXAXAXAXAXCXCXCXCXCXCXCXCXCXAXAXCXCXCXAXAXAXAXCXAXAXAXAXAXAXVXAXAXAXAXAXCXAXAXAXAXAXAXAXAXAXCXAXAXAXAXAXAXAXAXAXAXAXAXAXAXZXZXZXCXCXCXAXAXAXAXCXCXCXCXCXCXCXCXCXCXCXCXCXCXCXCXAXAXAXAXAXAXAXAXAXAXAXAXCXCXAXCXVXVXVXVXVXVXAXAXAXAXbXbXbXbXZXZX",
"NXNXNXNXNXNXFXFXFXFXFXFXsXsXsXFXCXCXCXCXCXCXFXFXCXCXCXCXCXCXFXFXCXCXCXCXMXMXMXMXFXFXFXFXCXCXCXCXCXCXCXCXCXCXCXCXCXCXCXCXCXCXCXCXFXFXFXFXCXCXCXCXCXCXCXCXFXFXCXCXCXCXCXCXCXCXCXCXCXCXCXCXCXCXCXCXFXFXFXFXFXFXFXFXFXFXFXFXFXFXFXFXFXFXFXFXCXCXCXCXCXCXCXCXCXCXFXFXCXFXFXFXGXGXGXGXGXGXGXGXGXGXGXGXFXFXFXFXFXFXFXFXFXFXFXFXFXFXFXFXFXFXFXFXFXFXFXFXFXFXFXFXFXFXFXFXCXCXCXCXCXCXCXCXCXCXCXCXCXCXCXCXCXCXAXAXAXAXAXAXAXAXAXAXAXAXCXCXAXAXAXAXAXAXAXAXAXCXCXAXZXZXAXAXAXAXAXAXAXAXAXVXAXAXAXAXAXAXAXAXAXAXAXAXAXAXAXCXAXAXAXAXAXAXAXAXAXAXAXAXAXAXZXZXCXCXCXCXAXAXAXAXCXCXCXCXCXCXCXCXCXCXCXCXCXCXCXCXAXAXAXAXAXAXAXAXAXAXAXAXCXCXCXVXVXVXVXVXVXVXAXAXvXvXbXbXbXbXbXZX",
"NXNXNXNXFXFXFXFXFXlXsXFXFXlXFXFXCXCXCXCXFXFXFXFXFXCXCXCXCXCXCXCXCXCXCXCXCXCXCXCXCXCXCXCXCXCXFXCXFXFXFXFXFXFXFXFXFXFXFXFXFXFXFXFXFXFXFXFXFXFXFXFXFXFXFXFXFXFXFXFXCXCXCXCXCXCXCXCXCXCXCXCXCXCXCXCXCXCXCXCXFXCXCXCXCXCXCXCXFXCXCXCXCXCXCXCXCXCXCXCXCXCXCXFXCXFXFXFXCXCXCXCXFXFXFXFXCXCXCXFXFXCXCXCXGXGXGXGXGXGXGXGXGXGXGXGXGXGXGXGXGXGXGXGXGXGXGXGXGXGXGXGXGXGXGXGXGXGXGXGXGXGXGXGXGXGXGXGXGXGXGXGXCXAXAXAXCXCXCXCXCXCXCXCXCXCXCXCXAXAXAXAXAXAXAXAXAXAXAXAXAXAXAXAXHXCXAXvXHXAXAXCXHXdXCX1XAXCXCXAXAXAXAXAXAXAXAXAXAXAXAXAXAXAXAXAXZXZXZXZXZXZXZXZXCXCXCXCXAXAXCXCXAXAXAXAXAXAXAXAXAXAXAXAXAXAXAXAXAXAXAXAXAXAXAXAXAXAXAXAXAXAXAXAXVXVXVXVXZXVXAXAXSXcXZXSXAXZXSXZX",
"NXNXNXNXFXFXFXFXHXFXFXFXFXlXsXFXCXCXCXCXFXFXFXFXFXFXCXCXCXCXCXCXCXCXCXCXCXCXCXCXCXCXCXCXCXCXFXFXFXFXFXFXFXFXFXFXFXFXFXFXFXFXFXFXCXCXCXFXCXCXCXCXCXCXCXCXFXFXFXFXCXCXCXCXCXCXCXCXCXCXCXCXCXCXCXCXCXCXCXCXFXFXCXCXCXCXCXCXFXFXCXCXCXCXCXCXCXCXCXCXCXCXFXFXCXCXFXFXCXCXCXCXFXFXFXFXCXCXCXCXCXCXCXCXGXGXGXGXGXGXGXGXGXGXGXGXGXGXGXGXGXGXGXGXGXGXGXGXGXGXGXGXGXGXGXGXGXGXGXGXGXGXGXGXGXGXGXGXGXGXGXGXCXAXAXAXCXCXCXCXCXCXAXCXCXCXCXCXAXAXAXAXAXAXAXAXAXAXGXAXAXAXAXAXAXCXAX1XAXHXHXvXvXCXAXCXdXAXVXHXAXAXAXAXAXAXAXAXAXAXAXAXAXAXAXAXZXZXZXZXZXZXZXZXCXCXCXCXAXAXCXCXAXAXAXAXAXAXAXAXAXAXAXAXAXAXAXAXAXAXAXAXAXAXAXAXAXAXAXAXAXAXAXAXVXVXVXVXZXZXAXZXvXKXSXvXJXcX2XvX",
"GXFXFXNXlXsXFXFXsXsXsXsXFXFXFXFXFXCXCXCXCXCXCXCXCXCXCXCXCXCXCXCXFXCXCXCXFXCXFXFXFXCXFXFXCXFXFXFXFXFXFXFXFXFXFXFXCXCXCXCXCXCXFXFXFXCXCXCXCXCXCXCXCXCXCXCXCXCXCXCXCXCXCXCXCXCXCXCXCXCXCXCXCXCXCXCXCXCXCXCXFXFXFXFXFXFXCXCXFXFXFXFXCXCXCXCXCXCXFXFXCXFXFXFXCXCXCXFXGXCXAXAXCXCXCXCXCXCXCXCXAXAXAXAXGXGXGXGXGXGXGXGXGXGXGXGXGXGXGXGXGXGXGXGXGXGXGXGXGXGXGXGXGXGXGXGXGXGXGXGXGXGXGXGXGXGXGXGXFXGXGXGXCXAXAXAXAXAXAXAXAXAXAXAXAXAXAXAXAXAXAXAXAXAXAXAXAXAXAXAXAXAXZXAXCXAXHXVXAXCXAXCXvXCXAXVX1XAXvXAXZXZXZXZXZXZXZXZXAXAXAXAXAXAXAXAXAXAXAXAXAXZXZXZXCXCXAXAXAXAXCXCXZXZXZXZXAXAXAXAXAXAXAXAXAXAXAXAXAXAXZXAXAXAXAXAXAXAXAXAXAXAXAXVXVXVXVXVXVXVXVXVXcXSXSXcXcXVXSXJX",
"sXsXFXFXFXbXbXsXGXFXFXFXFXFXsXsXFXCXCXCXCXCXCXCXCXCXCXCXCXCXCXCXCXCXCXCXCXCXFXFXFXFXFXFXCXFXFXFXCXCXCXCXCXCXFXFXCXCXCXCXCXCXCXCXCXCXCXCXCXCXCXCXCXCXCXCXCXCXCXCXCXCXCXCXCXCXCXCXCXCXCXCXCXCXCXCXCXCXCXCXCXCXCXCXCXCXCXCXCXCXCXCXFXCXCXCXFXFXFXFXCXFXFXFXCXCXCXCXCXCXAXAXAXCXCXCXCXCXCXCXAXCXAXAXGXGXGXGXGXGXGXGXGXGXGXGXGXGXGXGXGXGXGXGXGXGXGXGXGXGXGXGXGXGXGXGXGXGXGXGXGXGXGXGXGXGXGXGXGXGXGXAXAXAXAXAXAXAXAXAXAXAXAXAXAXAXAXAXAXAXAXAXAXAXAXAXAXAXAXAXAXAXZXZXAXCXvXAXZXvXAXAXZXvXVX1XvXAXVXZXZXZXZXZXZXZXZXZXAXAXAXAXAXAXAXAXAXAXAXAXAXAXZXZXCXCXAXAXAXAXCXCXZXZXZXZXAXAXAXAXAXAXAXAXAXAXAXAXAXAXAXAXZXZXAXAXAXAXAXAXAXAXAXVXVXVXVXVXVXVXVXVXSX3XcXVXVXVXVX3X",
"FXGXHXJXHXHXFXsXGXFXFXFXFXFXFXFXCXFXFXFXFXFXFXFXFXFXFXFXFXFXFXFXFXFXFXFXFXFXFXFXFXFXFXFXFXFXFXFXCXCXCXCXCXCXCXCXCXCXCXCXCXCXCXCXCXCXFXCXCXCXFXCXCXCXCXCXCXCXCXCXCXCXCXCXCXCXCXCXCXCXCXCXCXCXCXCXCXCXCXCXCXCXCXCXCXCXCXCXCXCXCXCXCXCXCXCXCXCXCXCXCXCXCXCXCXCXCXCXAXAXAXAXAXAXAXAXAXAXAXAXAXAXAXAXGXGXGXGXGXGXGXGXGXGXGXGXGXGXGXHXGXGXGXGXGXGXGXGXGXGXGXGXGXGXGXGXGXGXGXGXGXGXGXGXGXGXGXGXGXGXHXGXAXAXAXAXAXAXAXAXAXAXAXAXAXAXAXAXAXAXAXAXAXAXAXAXAXAXAXAXZXZXZXZXZXAX1XVXZXZXSXvXVX1XZX1XcXvXZXSXZXZXZXZXZXZXZXZXZXZXZXZXZXZXZXAXZXAXAXAXAXAXAXAXAXAXAXAXAXAXAXAXZXZXZXZXZXZXZXZXZXZXZXZXZXZXZXZXAXAXZXZXZXZXVXVXAXAXZXZXZXZXVXVXAXZXcXcXcXcXVXVXVXDX3X3XDX<XR R ",
"<X<X<X<X2XdXFXHXFXGXGXFXFXFXFXFXFXFXFXFXFXFXFXFXFXFXFXFXFXFXFXFXFXFXFXFXFXFXFXFXFXFXFXFXFXFXFXFXCXCXCXCXCXCXCXCXCXCXCXAXCXCXCXCXFXFXFXFXFXFXFXFXCXCXAXAXCXCXCXCXCXCXCXCXCXCXCXCXCXCXCXCXCXCXCXCXCXCXCXCXCXCXCXCXCXCXCXCXCXCXCXCXCXCXCXCXCXCXCXCXCXCXCXCXCXCXCXCXAXAXAXAXAXAXAXAXAXAXAXAXAXAXAXAXGXGXGXGXGXGXGXGXGXGXGXGXGXGXGXGXGXGXGXGXGXGXGXGXGXGXGXGXGXGXGXGXGXGXGXGXGXGXGXGXGXGXGXGXGXGXHXHXAXAXAXAXAXAXAXAXAXAXAXAXAXAXAXAXAXAXAXAXAXAXAXAXAXAXAXAXZXZXZXZXZXKXZXZXvXZXJXcXVX3XZX:X2X2XVXVXZXZXZXZXZXZXZXZXZXZXZXZXZXZXZXZXZXZXAXAXAXAXAXZXAXAXAXAXAXAXAXAXZXZXZXZXZXZXZXZXZXZXZXZXZXZXZXZXAXAXZXZXZXZXVXVXAXAXZXZXZXZXVXVXZXZXVXVXcXcXVXVX3XDXDX3X:XR & $ ",
"L I L ~ 2.x.2XdXdXbXGXFXFXFXFXFXFXFXFXFXFXFXFXFXFXFXFXFXFXFXFXFXFXFXFXFXFXFXFXFXFXFXFXFXFXFXFXFXGXAXAXAXAXAXFXCXGXGXGXGXGXGXGXGXAXAXAXAXAXAXAXAXAXAXAXAXAXAXAXGXCXFXFXFXFXFXFXFXFXFXFXFXFXFXFXFXGXCXCXCXCXAXAXAXAXAXAXCXCXCXCXAXCXCXCXCXCXCXCXCXCXCXCXCXCXCXCXCXAXAXAXAXAXAXAXAXAXAXAXAXAXAXAXAXGXGXAXAXGXGXGXGXAXAXAXAXGXGXGXGXAXAXAXAXGXGXAXAXGXGXGXGXAXAXAXAXGXGXAXAXGXGXGXGXAXAXAXAXGXGXAXAXAXAXAXAXAXAXAXAXAXAXAXAXAXAXAXAXAXAXAXAXAXAXAXAXAXAXZXZXZXZXZXZXcXJX3XSXcXvXSXSXZX3X2XT ) <XSXcXZXZXZXZXZXZXZXZXZXZXZXZXZXZXZXZXZXZXZXAXAXAXAXZXAXAXAXAXAXAXAXAXZXZXZXZXZXZXZXZXZXZXZXZXZXZXZXZXZXcXcXcXZXZXZXVXcXcXcXcXZXZXZXVXZXZXZXVXcXVXVXVXcX3X4Xc.F , y , ",
"~ ^ ^ <.<.<.:.! 4.x.<X2XdXsXFXFXFXGXGXGXGXGXFXFXGXFXGXFXFXFXFXFXFXFXGXFXFXFXFXFXGXGXGXGXFXFXGXGXGXGXGXGXGXGXGXGXGXGXGXGXGXGXGXGXAXAXAXAXAXAXAXAXAXAXAXAXAXAXAXGXGXGXFXFXFXFXFXFXFXFXFXGXGXGXFXFXGXAXAXAXAXAXAXAXAXAXAXAXAXAXAXAXCXCXCXCXCXCXCXCXCXCXCXCXCXCXCXCXAXAXAXAXAXAXAXAXAXAXAXAXAXAXAXAXGXGXAXAXHXGXGXAXAXAXAXAXGXGXGXAXAXAXAXAXGXGXAXAXHXGXGXAXAXAXAXAXGXGXAXAXHXGXGXAXAXAXAXAXGXGXGXAXAXAXAXAXAXAXAXAXAXAXAXAXAXAXAXAXAXAXAXAXAXAXAXAXAXAXZXZXZXZXZXZXcX<Xl.3XJXVXVXZXcX1X4.o i <XKXSXSXZXZXZXZXZXZXZXZXZXZXZXZXZXZXZXZXZXZXZXZXAXZXAXZXAXZXAXAXAXAXVXAXAXAXAXAXZXZXZXZXZXZXZXZXZXZXZXZXcXcXcXZXZXZXZXcXVXVXVXVXVXVXVXVXVXVXVXVXVXVX3XDX3Xl.u t i , , ",
"U U U U ~ ~ ~ ~ ! <.2.<.:.<.K.dXHXGXGXGXGXAXGXHXHXGXCXFXGXGXGXFXGXGXGXGXGXGXGXGXFXFXFXGXFXGXFXGXGXGXGXFXGXGXGXGXGXGXGXGXGXGXGXGXAXAXAXHXHXHXAXAXAXAXAXAXAXAXAXAXGXGXGXGXGXGXGXGXGXGXGXGXGXGXGXGXAXAXAXAXAXAXAXAXAXAXAXAXAXAXAXAXGXGXGXGXGXGXGXGXGXGXGXGXGXGXGXAXAXAXAXAXAXAXAXAXAXAXAXAXAXAXAXAXAXAXAXAXAXAXAXAXAXAXAXAXAXAXAXAXAXAXAXAXAXAXAXAXAXAXAXAXAXAXAXAXGXGXGXAXAXGXGXGXGXGXGXGXGXGXAXAXAXAXAXAXAXAXAXZXZXZXZXZXZXZXZXZXAXAXAXZXZXZXZXZXZXZXZXZXZXZXZXZX1XY I <XJXKXcXcXcX1X) . q 2XSXJXZXZXZXZXSXSXSXSXZXZXZXZXZXZXZXZXZXZXZXZXcXVXZXZXZXZXZXVXcXVXVXVXAXCXVXVXVXAXAXAXZXVXZXZXZXZXSXZXZXZXZXZXZXZXZXZXVXVXSXVXVXVXVXcXVXDXVX3XcXVXVX3X:XR t , t t y t ",
"U U U U ~ ~ ! :.U U U M v g b ~ K.2XvXGXZXvXvXAXvXAXJXJXHXCXFXGXGXGXGXGXGXGXGXGXFXFXFXGXGXGXGXGXFXFXFXFXGXGXGXGXGXGXGXGXGXGXGXGXAXAXAXAXGXGXAXGXAXAXAXAXGXGXAXAXAXAXAXAXAXAXAXAXAXAXAXAXAXAXAXAXAXAXAXAXAXAXAXAXAXAXAXAXAXAXAXAXGXGXGXGXGXGXGXGXGXGXGXGXGXGXGXAXAXAXAXAXAXAXAXAXAXAXAXAXAXAXAXAXAXGXAXAXAXAXAXAXAXAXAXAXAXAXAXAXAXAXAXAXAXAXAXAXAXAXAXAXAXAXAXAXHXHXGXGXAXAXGXGXGXGXGXGXGXGXAXAXAXAXAXAXAXAXAXZXZXZXZXZXZXZXZXZXAXAXAXZXZXZXZXZXZXZXZXZXZXZXZXZXi o t 2XcXcX3XDXKX5XR * q 1XSXVXZXZXZXZXSXSXSXSXZXZXZXZXZXZXZXZXZXZXZXZXVXVXZXZXZXZXZXcXcXcXVXVXCXCXVXCXVXVXAXAXVXVXZXZXSXSXSXZXZXZXZXZXZXZXZXZXSXSXDX3X3X3XVXVX3X3X3XVXDX6X<X) F i y y t t t , ",
"U U U U U ~ ! <.M v v v v v j v 4 m 4.2XZXJXJXAXHXAXbXCXGXHXHXGXGXGXGXGXGXGXGXGXGXGXFXFXFXGXGXGXGXGXGXGXGXGXGXGXGXGXGXGXGXGXGXGXAXAXGXGXGXGXGXGXGXGXGXGXGXGXAXGXAXAXAXAXAXAXAXAXAXAXAXAXAXAXAXAXAXAXAXAXAXAXAXAXAXAXAXAXAXAXAXAXAXAXAXAXAXAXAXAXGXAXAXAXAXAXAXAXAXAXAXAXAXAXAXAXAXAXAXAXAXAXAXAXAXAXAXAXAXAXAXAXAXAXAXAXAXAXAXAXAXAXZXZXAXAXAXAXAXAXZXAXZXZXAXAXAXAXAXAXAXAXZXZXAXAXZXZXZXZXZXAXAXAXAXAXZXAXZXZXZXZXZXZXZXZXZXZXZXAXZXZXZXZXZXZXZXZXZXZXZXZXZXZXi X X / KXDXcX:X5.) Y i . :XVXcXVXZXZXZXSXSXSXSXZXZXZXZXZXZXZXZXZXZXZXZXVXVXVXVXVXVXZXcXcXcXcXcXCXVXVXVXAXAXAXAXZXZXZXZXSXSXSXZXZXZXZXZXZXZXZXZXSXVXcXcXDXDXVX3X3XVXDX3X2Xl.G t & y u t , t t , ",
"v v v v v v b U U v g v v v g f m k k ~ x.2XvXZXvXAXJXHXGXGXGXGXGXGXGXGXGXGXGXGXGXGXFXFXGXGXGXGXGXGXGXGXGXGXGXGXGXGXGXGXGXGXGXGXAXAXGXGXGXGXGXGXGXGXGXGXGXGXGXGXAXAXAXGXAXAXAXAXAXAXAXAXAXAXAXAXAXAXGXGXAXAXAXAXAXAXGXGXAXAXAXAXAXAXAXAXAXAXAXAXAXAXAXAXAXAXAXAXAXAXAXAXAXAXAXAXAXAXAXAXAXAXAXAXAXAXAXAXAXAXAXAXAXAXAXAXAXAXAXAXAXAXAXZXAXAXAXAXAXAXAXAXZXZXZXAXAXAXAXAXAXAXZXZXAXAXZXZXZXZXZXAXAXAXAXAXAXAXZXZXZXZXZXZXZXZXZXZXAXAXZXZXZXZXZXZXZXZXZXZXZXZXZXVX2XT X # 1X3X5X:X.   & c.i 3XKX3XVXZXZXZXZXSXSXSXZXZXZXZXZXZXZXZXZXZXZXZXVXVXVXVXVXVXVXcXcXcXcXcXVXVXVXVXAXZXVXVXZXZXZXZXSXSXSXSXZXZXZXVXZXZXVXVXVXJXJXDX3X3XcXVXDX3X<X) F t t i i i t & - , t t ",
"j j j k f j v m L b k f k j k j b s k I ^ l.2XKXKXJXZXbXGXHXHXGXGXGXGXGXGXGXGXGXGXGXGXGXGXGXGXGXGXGXGXGXGXGXGXGXGXGXGXGXGXGXGXGXGXGXGXGXGXGXGXGXHXHXAXAXAXAXGXGXGXGXGXGXGXGXGXGXAXGXGXGXGXGXGXGXGXGXGXGXGXGXGXGXGXGXGXGXGXGXGXGXGXAXAXAXGXGXGXGXGXGXAXAXAXAXAXAXZXZXZXZXAXAXAXAXZXZXZXZXZXZXZXAXAXAXAXAXAXAXAXAXZXZXAXZXAXAXAXAXZXZXZXZXZXZXZXZXAXAXZXZXHXZXAXAXZXZXZXZXAXZXZXAXZXZXZXZXZXZXZXZXAXAXAXAXZXZXZXZXZXZXZXZXZXZXZXZXAXAXZXZXZXZXZXZXZXZXZXZXZXZXZXVXKXc.X * 5XcXY Y &   i 3XF :X3XcXcXcXZXZXZXZXSXSXSXSXZXZXZXZXZXZXZXZXZXZXZXVXZXZXVXVXZXcXcXcXcXcXVXVXVXVXZXZXZXZXSXSXSXSXSXSXSXSXZXVXVXVXZXVXVXVXVXVXcXcXcXVXVX3X:X) F t t i t t t t - t y - - A ",
"m m v v v b m L I m b v v b I L m L ^ 4.^ ~ 4.K.vXvXvXbXHXGXJXHXGXGXGXGXGXGXGXGXGXGXGXGXGXGXGXGXGXGXGXGXGXGXGXGXGXGXGXGXGXGXGXAXGXAXGXGXGXGXGXGXGXHXAXAXGXGXGXGXGXGXGXGXGXGXGXGXAXAXGXGXGXGXGXGXGXGXGXGXGXGXGXGXGXGXGXGXGXGXGXGXGXGXGXAXGXGXGXGXGXGXAXAXAXAXAXAXZXZXZXZXAXAXAXAXAXAXZXZXZXZXZXZXAXAXAXAXAXAXAXAXZXZXZXZXAXAXZXZXZXAXZXZXZXZXZXZXAXAXZXZXZXZXAXAXZXZXZXZXAXAXAXAXAXAXZXZXZXZXZXZXAXAXAXAXZXZXZXZXZXZXZXZXZXZXZXZXZXAXZXZXZXZXZXZXZXZXZXZXZXZXZXVXcXcX<X) 3XKX_ F H . y <Xi :XJXVXcXcXVXZXZXZXZXZXSXSXZXZXZXZXZXZXZXZXZXZXZXZXZXZXZXZXZXcXcXcXcXcXVXcXcXVXVXZXZXZXZXZXZXZXZXZXZXZXVXVXVXcXVXVXcXcXcXcXVXSXSX1Xx.^ i t t y i i & * - t & t < * - R ",
"L m v j j b m m L U U L m m I L ^ ^ 1.4.^ ^ ^ / ^ <XZXKXJXvXbXJXGXAXAXAXAXAXAXAXAXAXAXAXAXAXAXAXAXAXAXAXAXAXAXAXAXAXAXAXAXAXAXAXZXZXAXAXAXAXZXZXAXAXAXAXZXZXZXAXZXZXZXZXAXAXAXAXAXAXZXZXZXZXAXAXAXAXAXAXZXZXAXAXAXAXAXAXAXAXZXZXAXAXAXAXAXAXAXAXAXAXAXAXZXZXZXZXZXZXZXZXZXZXZXZXZXZXZXZXZXZXZXZXAXAXAXAXAXAXAXAXZXZXZXZXZXZXZXZXZXZXZXZXZXZXZXZXZXZXZXZXZXZXZXZXZXZXZXZXZXZXZXZXZXZXZXZXZXZXZXZXZXZXZXZXZXZXZXZXZXZXZXZXZXZXSXZXZXZXZXZXZXZXZXZXZXZXZXZXSXZXZXZXDXSXcXR 5XJX5XF # * ) 2Xq l.SX3XcXcXcXcXVXVXZXZXZXZXSXSXZXZXZXZXZXZXZXZXVXVXZXZXZXZXZXcXcXcXcXcXcXcXcXcXSXSXZXZXZXZXVXVXZXZXZXZXZXZXVXcXVXcXcXcX3XVXSX1Xx.Y t * & 2 t , * o $ t t y t t , * t _ ",
"^ U m b b I I L I U ^ ^ ~ ~ ~ ^ ^ 4.x.5.4.4.4.^ ^ 4.x.2XvXJXJXHXGXAXAXAXAXAXAXAXAXAXAXAXAXAXAXAXAXAXAXAXAXAXAXAXAXAXAXAXAXAXAXAXZXZXZXAXAXAXZXZXAXAXAXAXZXZXAXAXZXZXAXAXAXAXAXAXAXAXAXZXZXZXAXAXAXAXAXAXZXZXAXAXAXAXAXAXAXAXZXZXAXAXAXAXAXAXAXAXAXAXAXAXZXZXZXZXZXZXZXZXZXZXZXZXZXZXZXZXZXZXZXZXAXAXAXAXAXAXAXAXZXZXZXZXZXZXZXZXZXZXZXZXZXZXZXZXZXZXZXZXZXZXZXZXZXZXZXZXZXZXZXZXZXZXZXZXZXZXZXZXZXZXZXZXZXZXZXZXZXZXZXZXZXZXSXZXZXZXZXZXZXZXZXZXZXZXZXZXSXZXZXVXDXcXDX:X:X3XDX5.q X Y <Xi ) VXSXcXcXcXcXVXVXVXZXZXZXSXSXZXZXZXZXZXZXZXZXVXVXZXZXZXZXZXVXcXcXcXcXcXcXcXcXSXSXZXZXvXvXcXcXcXcXcXcXVXVXVXcXcXcXcXcXSX<X) H r i k i t * * & t & * * & t - t u - y _ ",
"b <.^ m I U m L L ^ <./ 4.4.^ <.~ 4.x.x.x.5.4.) ^ / ~ ) x.vXSXZXJXZXvXZXJXJXZXHXHXHXHXAXAXAXHXHXCXCXAXAXAXAXAXAXHXGXAXGXHXHXCXCXZXZXAXAXAXAXZXZXZXZXAXAXAXAXZXZXAXAXZXZXZXZXAXAXAXAXAXAXZXZXAXAXAXAXAXAXAXAXAXAXZXZXAXAXAXAXZXZXZXZXZXZXZXZXZXZXZXZXZXZXZXZXZXZXZXZXZXZXZXZXZXZXZXZXZXZXZXZXZXZXZXAXZXZXZXZXZXZXZXZXZXZXZXZXZXZXZXZXZXZXZXZXZXZXZXZXZXZXZXZXZXZXZXZXZXZXZXZXZXZXZXZXZXZXZXZXZXZXZXZXZXZXZXZXZXZXSXSXSXSXSXSXSXZXZXZXZXZXZXZXZXZXZXZXVXDXVXVXSXDXDX3X3X2X5X:XKXDX5.. G <Xt F :XVXSX3XSXcXSXSXVXVXVXVXSXSXSXSXVXVXZXZXZXZXZXZXZXZXZXZXZXVXcXcXcXcXcXcXVXVXVXcXvXvXAXvXvXcXSXSXcX3XcXSXVX3XVXDX2Xc.R i q i t t k q t & * * t i * * $ u - - - @ u l.",
"<.~ U I m ~ ^ U P P P L ^ ~ m P P ^ 4.4.5.5.4.^ 4.) P k k / 2XJXJXJXvXvXAXZXGXHXAXCXCXHXJXHXCXCXHXHXHXHXHXHXAXAXGXAXAXAXGXHXHXHXZXZXAXAXAXAXZXZXZXZXAXAXAXZXZXZXAXAXZXZXZXZXAXAXAXAXAXAXZXZXAXAXAXAXZXZXAXAXAXAXZXZXAXAXAXAXZXZXZXZXZXZXZXZXZXZXZXZXZXZXZXZXZXZXZXZXZXZXZXZXZXZXZXZXZXZXZXZXZXZXZXAXZXZXZXZXZXZXZXZXZXZXZXZXZXZXZXZXZXZXZXZXZXZXZXZXZXZXZXZXZXZXZXZXZXZXZXZXZXZXZXZXZXZXZXZXZXZXZXZXZXZXZXZXZXZXSXSXSXSXSXSXSXSXZXZXZXZXZXZXZXZXZXVXDXDXSXVXVXDX3XcX3X5Xc.5.:X_ 4X_ _ 5.H *   ) cXcXSXcXcXcXcXSXVXVXZXSXSXZXZXZXZXZXZXZXZXVXcXcXcXcXVXZXVXcXcXcXcXcXcXcXcXcXvXvXvXcXZXcX3X3X3XDX1X3XDXDX3Xc.R r i q & t q t k q t & & * * & # $ O y F y y $ A c.",
"4.P P ^ U ~ ^ P m k k m ^ ^ L P P ^ 4.4.4.4.4.) ) / ^ I H z ^ l.1XAXKXJXSXZXZXZXJXZXAXAXAXCXZXJXAXAXAXAXAXAXAXAXAXZXZXZXAXAXZXHXZXZXZXZXAXAXAXZXZXZXAXAXAXAXZXZXAXAXAXAXZXZXZXZXZXZXAXAXZXZXZXZXZXZXZXZXZXZXAXAXZXZXZXZXAXAXAXZXZXZXZXZXZXZXZXZXZXZXZXZXZXZXZXZXZXZXZXZXZXZXZXZXZXZXZXZXZXZXZXZXZXZXZXZXZXZXZXZXZXZXZXZXSXSXSXSXZXZXZXZXZXZXZXZXZXZXZXZXZXZXZXZXZXZXZXZXZXZXZXZXZXZXZXZXZXZXZXZXZXZXZXZXSXSXSXSXSXSXSXSXSXSXSXSXZXZXZXZXZXZXZXZXSXDXDXDXVXVXDXVXcXDX3XDX4X_ H R 3X) F R i * . . :XVXDXcX3XVXcXVXVXVXVXVXVXVXVXVXcXcXcXcXcXcXcXcXvXcXcXcXVXcXcXcXcXcXcXcXcXVXAXAXvXVXVXZXVXVX3X3XDX1X:Xl.R t & i i q * i i & t t t t q & * $ $ * # A _ R D y A c.",
"^ 1.^ ^ ^ I j L z a j P 1.4.^ ^ P ^ 4.4.4.) ) 4.4.^ / ^ ^ I I I ~ 4.<XvXAXSXJXZXAXZXHXHXHXAXAXZXZXAXAXZXHXHXHXZXAXAXZXHXHXAXAXAXZXZXZXZXAXAXAXAXZXZXAXAXAXAXZXZXAXAXAXAXZXZXZXZXZXZXZXAXZXZXZXZXZXZXZXZXZXAXAXAXZXZXZXZXAXAXAXZXZXZXZXZXZXZXZXZXZXZXZXZXZXZXZXZXZXZXZXZXZXZXZXZXZXZXZXZXZXZXZXZXZXZXZXZXZXZXZXZXZXZXZXZXSXSXSXSXZXZXZXZXZXZXZXZXZXZXZXZXZXZXZXZXZXZXZXZXZXZXZXZXZXZXZXZXZXZXZXZXZXZXZXZXSXSXSXSXSXSXSXSXSXSXSXSXSXZXZXZXZXZXZXZXSXDXDXVXVXVXVXVX3XDX3X3X5XR G 5X:XH q & t F     G 3XVXVXcXVXcXcXVXVXVXVXVXVXVXVXcXcXcXvXcXcXcXcXvXvXcXcXcXcXvXvXcXcXcXVXAXAXAXCXvXAXcXvX3X3X3X3X2X) t t i t t t i q * t i q i t & i & * * * $ X   u ) ) u $ * ) ",
"4.4.^ P I k I P P I P ^ / 4.^ P P P ^ 4.4./ ^ ) ) ^ ^ ~ ^ I P ^ ~ T / x.<X1XvXvXAXAXAXvXAXJXZXvXAXAXAXAXAXAXAXAXAXAXCXAXZXHXHXHXZXZXZXZXZXZXZXZXZXZXZXZXZXZXZXZXZXZXZXZXZXZXZXZXZXZXZXZXZXZXZXZXZXZXZXZXZXZXZXZXZXZXZXZXZXZXZXZXZXZXZXZXZXZXZXZXZXZXZXZXZXZXZXZXSXSXSXSXSXSXSXSXSXSXSXSXSXSXSXZXZXZXZXZXZXZXZXZXZXZXSXSXSXSXSXSXSXSXSXSXSXSXSXSXSXSXSXSXZXZXZXZXSXSXSXSXSXSXSXSXSXSXZXZXZXZXSXSXSXSXSXSXSXSXSXSXSXSXSXSXSXSXSXSXZXZXZXZXZXZXSXSXVXVXVXVXVXVXVXVXDX3XJXKX:Xq & R G & . q & .     * 2XVXVXcXVXcXcXcXcXcXVXVXVXVXVXcXcXcXcXcXvXcXvXcXvXvXvXcXcXcXcX3X3XcXVXCXvXdXdXvX1X1XvXDXVX<Xc.i t i i i & & t # q & q H Y F q q G i & & & y # * & R R R A & F ",
"^ I z I a z 4.^ ^ P ^ ~ ~ 1./ ^ P I I ^ 4.4./ / ^ ~ ^ ^ ^ P P T ^ P T T z I / l.2X1XZXZXAXAXZXHXAXAXAXAXZXHXHXHXHXAXAXAXAXAXHXHXZXZXZXZXZXZXZXZXZXZXZXZXZXZXZXZXZXZXZXZXZXZXZXZXZXZXZXZXZXZXZXZXZXZXZXZXZXZXZXZXZXZXZXZXZXZXZXZXZXZXZXZXZXZXZXZXZXZXZXZXZXZXZXZXSXSXSXSXSXSXSXSXSXSXSXSXSXSXSXSXZXZXZXZXZXZXZXZXZXZXSXSXSXSXSXSXSXSXSXSXSXSXSXSXSXSXSXSXZXZXZXZXSXSXSXSXSXSXSXSXSXSXSXSXZXZXSXSXZXZXZXZXZXZXZXZXVXVXSXSXSXSXSXSXZXZXZXZXZXZXVXVXVXVXVXVXVXVX6X6X3XKX3X4X4XH # R * X - #       . o :XVXcX3XVX3XcXcXcXcXcXVXcXcXcXcXcXcXcXvXcXcXcXcXvXvXvXcXVXVXcXVXVXcXvX1X2X2X<X<XK.R.:X:Xl.G $ y t 2 t u i t $ & & & F _ R i * i _ H t - * i t * - ) R _ - D _ ",
"z a k ~ I P x./ P P ^ P P 4.5.4.^ P I ^ ) 4.) ^ ^ ^ T Y P ^ ~ T T T ^ T r k ^ 4.) x.2XVXZXVXvXAXJXHXAXvXvXvXCXCXdXVXAXHXAXAXAXAXZXZXZXZXZXZXZXZXZXZXZXZXZXZXZXZXZXZXZXZXZXZXZXZXZXZXZXZXZXZXZXZXZXZXZXZXZXZXZXZXZXZXZXZXZXZXZXZXZXSXDXSXDXDXDXDXDXDXDXDXSXSXSXSXSXSXSXSXSXSXSXSXSXSXSXSXSXSXSXSXZXZXZXZXZXZXZXZXSXSXSXSXSXSXSXSXSXSXSXSXSXSXSXSXZXSXSXSXZXZXSXSXSXSXSXSXSXSXSXSXSXSXSXSXZXZXZXSXZXZXVXZXVXVXZXVXVXVXSXSXSXSXVXVXZXAXAXAXZXZXVXVXVXVXVXVXVXVX6X6XDX3X3XDX:X) 5.S   G &   .       X c.VX3X3XcX3XVXcXcXcXcXcXcXcXcXcXcXcXcXvXvXcXcXcXvXvXcXcXcXvX3XvX3X1X2X<XK.K.K.K.<Xc./ z t i i u i i y t , , - , $ # A R A * # F ) i t i # t t $ y R A F & G _ ",
"k I I ^ / P 4.4.P P ^ P P 4.5.4.^ ^ ^ T ^ ) 4./ T ^ T Y I ^ ^ ~ P I T Y z ~ l.5.4.I z 4.<X1XvXJXAXvX2X<XK.x.x.c.<X2XAXJXHXAXAXHXZXZXZXZXZXZXZXZXZXZXZXZXZXZXZXZXZXZXZXZXZXZXZXZXZXZXZXZXZXZXZXZXZXZXZXZXZXZXZXZXZXZXZXZXZXZXZXZXZXZXSXVXSXDXDXDXDXDXDXDXDXSXSXSXSXSXSXSXSXSXSXSXSXSXSXSXSXSXSXSXSXZXSXZXZXZXZXZXSXSXSXSXSXSXSXSXSXSXSXSXSXSXSXSXZXSXSXSXSXSXSXSXSXSXSXSXSXSXSXSXSXSXSXSXSXZXSXZXZXZXVXVXVXVXVXVXVXVXVXVXSXZXSXZXcXVXVXVXVXVXVXVXcXcXcXcX3X3X3X3X3X5X) :X) _ :X5.  # &         . . ) VX3XVXcX3XVX3XcXcXcXcXcXcX3XcXcXvXvXvXvXvXvXcXvXvXvXvXvX1X1X<X<XR.x.c.c.R.<X/ / T z i i t * , t y y t t , , * t # # i G H & _ c.u F _ t y y & F R A $ - G ) ",
"k I P ^ 4.^ P P I ^ ^ I I I P ^ 4.4.x.x.4.^ ^ ) ^ T I I R ) / ^ T T T I i z ^ ) / Y z F ^ l.<X1X2XK.l.4.x.K.x./ 4.x.<X2X<Xx.<X1XvXZXcXVXKXJXVXJXZXZXZXZXJXJXJXZXJXZXAXAXAXAXAXHXHXHXZXZXHXZXZXAXHXHXZXHXHXHXZXAXVXHXHXVXVXZXZXVXZXZXZXZXZXZXZXZXZXZXSXSXSXSXSXSXZXZXZXZXSXSXSXSXSXSXSXSXSXSXSXSXSXSXSXSXSXSXSXSXcXSXJXZXAXZXZXcXZXZXZXZXZXZXZXZXcXZXZXZXZXSXSXSXSXSXVXVXVXVXVXVXVXVXVXVXVXVXVXcXVXVXVXVXVXVXVXVXVXVXVXVXVXVXVXVXVXVXVXVXAXAXAXvXvXSXcXcX3X3X6X3X5.R _ G F G _ _ . O y .     . X . 4.SX3XcXcXcXSXcXcXcXcXcXcXcXcX3X3XcXcXvXvXvXvXvXvXvXvXdX2XK.x.c.z.c.R.K.c./ R F i t i u & & t , F y , & y & - & - & - t t q q _ :XF R G y * t - F F F & y ) A ",
"I ^ 4.4.^ z z P P P ~ ^ / ^ P P ^ ^ ) ) ^ ^ ^ ^ Y ^ ) / ^ ^ ^ R P ~ I z H i k ) ) T z k x I T ^ 4.z.x.l.l.x.x.4.4.x.c.4.1.l.x.z.1XJXJXVXZXJXZXVXJXSXZXZXZXZXZXAXAXAXHXHXHXHXHXHXVXVXVXVXAXZXZXHXHXHXHXZXAXHXHXHXHXAXVXAXHXHXZXAXZXZXZXZXZXZXZXZXZXZXSXSXSXSXSXSXSXZXSXSXSXSXSXSXSXSXSXSXSXSXJXSXSXSXSXSXZXZXSXSXSXSXZXZXZXZXZXJXZXZXZXZXZXZXZXZXcXcXZXZXSXSXSXSXSXVXSXVXSXVXSXVXVXVXVXVXSXVXcXcXVXVXVXVXVXZXVXVXVXVXVXVXVXVXVXVXVXVXVXVXAXAXZXAXvXcXcXcX3X3X3X5X:X_ G ; > > O O     X       . X X c.JXvXvXcXcXcXcXcXcXcXcXcXcXvXVXcX3X3XvXvXvXvXvXdX2X2XK.K.z.z.K.K.K.l.( F x H u t - , , , t i t y t y - t $ - & - & & - - q q t Y i Y _ G & # t F , , , $ , # ",
"4.) ^ ^ ~ I z P P I P 4./ P P P T P T ^ ^ ^ ^ ~ I ^ 4.4.^ T R / ^ T F F I H P x.) ~ I F z z m I m ~ 4.z.z.x.z./ 4.K.K.4.1.c.K.l.x.1XJXJXAXZXJXZXZXZXHXHXZXZXZXHXHXHXHXZXAXAXAXAXHXHXHXHXHXHXHXHXZXZXHXZXAXAXHXHXHXAXZXHXHXVXCXHXZXZXZXZXZXZXZXZXSXSXSXSXSXSXSXSXSXSXSXSXSXSXSXSXSXSXSXSXZXZXcXcXSXSXSXSXZXSXSXSXSXZXcXZXVXvXcXSXZXZXZXZXZXcXcXcXcXcXZXZXSXVXSXSXSXSXSXZXSXZXSXZXVXVXVXVXZXZXZXcXZXVXcXcXcXcXcXZXcXcXcXcXcXcXcXcXVXVXVXVXcXvXvXvXvXcX3X3X3X3X5X) _ S : >                     X . * 2XJXcX3XcXcX3XvXcXcXcXcXcXcXcXvX3X3XvXVXVXvXvX<XK.x.x.K.K.K.z.<.( ~ N x t t t , y < = - y i i u t - y - - & - & & & & & & - q H H A R c.l.H X F F , , y & @ O ",
"4.^ P P P I I ^ P I U / ^ P P I P P T T P ^ ^ P P I T ) ) ~ T / 4.I F Y F ^ x.x.^ T P P P I L T ~ T T ~ ^ 4.z.l.1.x.K.K.K.K.x.x./ l.<XZXJXZXZXJXAXZXJXJXJXHXZXZXZXAXAXAXAXHXHXHXAXAXZXZXAXAXAXAXAXAXHXHXAXAXCXCXHXAXAXZXAXVXCXZXZXZXZXZXZXZXZXZXSXSXSXSXSXSXSXSXSXSXSXSXSXSXSXSXSXSXSXSXSXSXSXSXSXSXSXSXSXSXSXSXSXZXZXSXSXVXVXSXZXZXcXZXcXcXcXcXcXcXcXcXcXVXVXVXSXZXZXZXZXZXZXZXVXcXcXVXZXZXZXcXSXcXcXcXcXcXcXcXcXcXcXcXcXcXcXcXVXVXVXVXcXcXcXcXcXcX3XcX3X4Xc.y + >                       . X   F 3XcX3XcXcXcXvXcXcXcXcXcXcXcXvXvXvXCXVXvX1X2X<Xx.x.x.x.x.x.z.4.l s r r t i t & - u S < , y y t u , - , * - t & * * $ & * & & * - u R R _ G y - F & , y & $ - & ",
"^ ~ P ~ ^ P I P P I P ^ / 4.^ k I I T T I I P P I H I ^ ) ^ T T 4.P P R R x.<X5./ ^ ^ ^ ~ I m L T P T ~ P T 1.l.1.4.z.K.K.K.z.4.4.^ 4.2XZXHXGXGXZXGXGXGXZXAXAXAXAXZXHXHXJXHXvX1X1X1XvXAXHXJXJXKXHXHXJXJXJXHXHXHXHXZXCXVXVXSXZXVXZXZXZXZXZXZXZXZXSXSXSXSXSXSXSXSXSXSXSXSXcXZXcXZXSXSXSXZXZXZXAXAXAXAXAXAXcXcXvXvXcXVXVXcXcXVXVXcXZXZXcXcXcXcXcXcXcXcXcXcXcXcXcXcXVXZXZXZXZXZXZXZXZXcXcXcXZXZXZXcXcXcXcXcXcXcXcXbXcXcXcXcXcXcXcXcXVXVXVXcXcXcXcXcXcXcX3X3X3X4X:X; >                         . .   l.VX3X3XcXcXcXcXvXcXcXvXvXvXvXdXHXGXCX1X2X<Xx.x.x.x.x.4.^ I z z r r r t 2 & - - t y u y y y t t y $ - t - - t - & @ * $ * * & # $ - ) ) ) R H F D - y y $ $ & & ",
"4.^ ~ P ~ P I P ~ ~ P P ~ 4./ P I I P T I I P P T ^ T I I ^ / ^ / 4.R H ) <X<X:X) ) ) ^ ~ I m m j m ^ 1.^ P L ~ ^ <.4.l.l.z.z.l.l.4.1.z.<XdXZXJXJXZXZXZXZXZXZXZXZXJXJXHXdX2Xx.1.1.l.x.x.K.K.<X<X1X2X2X2X2X2X1X1X1XHXKXHXCXVXAXZXZXZXZXZXZXZXZXZXZXSXSXSXSXSXSXSXZXSXSXcXcXcXcXZXZXAXZXZXGXZXZXZXZXAXGXZXZXZXAXAXZXSXZXvX3XVXcX3XcXcXcXcXcXcXcXcXcXcXcXcXcXcXcXcXZXZXcXZXcXvXcXcXcXcXcXcXcXZXcXcXcXcXcXcXcXcXcXcXcXcXcXcXcXcXcXcXcX3XcXcXcXcXcXcXcX3X3X3X3X3X5XG > @ O                 . .     * 2XVX3X3XVX3XvXcXvXvXvXvXvXvXvXsXsX1X2X<XK.K.x.x.l./ T k r t q q t i i t & & - - - - - < y t t i y & y H H - t y u & $ $ # & q $ # . & u R R H u A D t $ , $ X - ",
"^ 4.4.^ I k I ^ ~ ^ P I I I ^ 4.^ I I T P I P P ~ ^ ^ I H P ^ ) ^ ^ H q P 5.:X<X) ) ^ ^ P m m I P L P T P ~ ~ P m ~ / / ( <.4.l.4.z.z.4.z.K.2XvXZXZXZXGXJXZXVXvXdXvXdX2Xx.4./ ~ / 1.1.1.<.1.1.4.4.1.1.1.4.4.4.1.c.2XCXHXCX1XVXSXZXZXZXZXZXZXZXZXZXZXSXSXSXSXSXSXbXbXbXcXbXbXZXbXvXvXvXAXGXAXGXGXdXdXdXdXdXdXvXvXvXvXcXVXSXSXVXcXcXcXcXcXcXcXcXcXcXcXcXcXcXcXcXcXcXcXcXcXcXcXcXcXcXcXcXcXcXVXcXcXcXcXcXcXcXcXcXcXcXcXcXcXcXcXcXcXcX3XcX3XcX3XcXcXcXcX3X3X4XDX4X_ O D S               . . .     ) 3X3X3X3XZXvXvXvXvXvXvXvXdXdXdX1XK.K.z.z.c.x.l.4.I k q & t i i t t 2 2 , t u , & - - - y u i i i A F G D H y u u u & $ & * - i q X X # $ A A u u y u $ O & O $ G ",
"I ^ <.^ P I I I ^ ~ I I P I I / 4.T I T P I I I I I P ~ P I P ^ ^ P I H I ) :X<X5.5.4./ ^ P L P I P T P L ^ ( L T T ~ / 1.1.1.2.4.x.l.4.x.x.x.K.vXZXGXJXJXvX2X<XK.K.K.4.( / l.x.z.z.l.1.<./ <.2.1.1.1.1.4.1.( T T ( c.2XAXHXCXVXZXZXZXZXZXZXZXZXZXZXSXSXSXSXSXSXbXbXbXZXZXZXbXZXGXGXvX1X2XK.x.z.l.l.l.z.z.x.x.x.x.x.<X1XVXVXcXcXcXcXcXcXcXcXcXcXcXcXcXcXcXcXcXcXcXcXcXcXcXcXcXcXcXcXcXcXcXcXcXcXcXcXcXcXcXcXcXcXcXcXcXcXcXcXcXcXcXcXcX3XcX3XcXcXcXcXcX3X4X3X4XR O _ G               X       X 1XcX1XcXvXZXvXcXvXvXdXdXdX2X2XK.K.J.z.z.z.z.1.I r 8 r H H u t y i t t t y u u , $ - y u u A F A y F _ _ - - y A t & # * & # & i q $ & # $ A F u , y - & , $ @ R :X",
"P ~ ^ ^ ^ P z k L I I ^ ^ m k z ^ ^ P I ^ P z P z P ~ U U ^ ^ U 4.Y Y I Y R <X:X_ x.:X) 4.P I ^ ^ ^ x.P P T ~ ~ ~ ~ E L ( l.l.<.<.4.z.4.4.z.x.x.x.z.K.2X2XK.l.x.x.l.l.z.l.l.x.x.x.z.2.<./ / <./ <.<.<.<.<.1.1.1./ / ( l.<X1XCXCXvXZXZXVXVXZXZXAXvXbXJXSXvXZXJXvXbXbXcXcXSXHXvXdX2XK.l.1.1.4.4.1.2.2.2.1.l.z.z.l.z.l.l.c.2X3XcXvXZXvXvXcXSXcXcXcXcXcXcXcXcXcXcXVXcXcXcXcXcXcXcXcXcXcXcXcXcXcXcXcXcXcXcXcXVXVXcXcXcXcXcXcXcXcXcXcXcXcXcXcXcXcXcXcXcX3XcX3X3X3X4X* O :X5XO               X     x.cX3X3X3X3XvXvXvXdX1X2XK.J.J.K.K.z.z.2.j.z.1.x r r x i H u u A A D D < t $ % u - - u A u G F G F t , F J A y A A - u $ * & & * * t $ - t , y u y $ $ & $ , $ @ J :X",
"P I I P ^ ^ ~ P P P P ~ P z r k P ^ L z P ~ I I L P ~ P L L ^ ^ P H Y R ) ) :X<X:X:X) H Y H T 5.P 5.<X4.I P T L ~ ~ ~ L E ( 4.4.l.4.2.1.2.2.4.x.l.4.1.4./ ^ / z./ / 1.z.x.z.z.z.4.4.1.2.<.<./ / ! ~ ~ ( 1.1.1./ / / / / l.c.c.c.2X1XVXAXAXAXZXAXJXJXZXvXvXZXJXvXvXbXZXZXvX2X<Xx.4.1.1.2.l.z.l.1.3.2.2.1.2.4.1.1.l.l.l.l.x.<X1XvXvXvXvXvXvXvXvXZXvXcXcXZXZXZXvXcXcXcXcXcXcXVXcXcXcXcX3X3XcXcXVXVXVXVXVXVXVXVXVXcXcXcXcXcXcXcXcXcX3X3XcXcXcX3XvX3X3XcX3X2XKX1XH   . :XDXc.i         . .   . ^ dX2X1X1X1X1XdX1X1X2X<XK.K.K.K.K.z.z.z.l.1.E x r i i i t y y u S y < , y F , = u - , D R y R _ G y & u R _ R A y y y y & $ & - & $ * t y u y y y , & $ - $ & & - J ) ",
"I I I I P ~ ^ 1.P ~ ~ P P z s k m ^ ^ P I P T P I I P U U L L U ^ P I I ) 5.:X:X:X5._ Y ) Y P ) R x.<X5.I I P L ~ ~ ( / ^ L P ^ 1.4.l.x.z.4.4.l.4.4.l.l.4./ / 4.^ / / 4.z.l.4.l.2.2.1.1.1.2.<./ ! ~ ~ ( 1.1.1.1.1.4.1.1.1./ / / l.c.<XK.c.c.x.x.1XvXZXZXGXJXGXHXJXGXvX1X<Xz.1./ <.2.4.z.z.z.2.2.3.3.3.2.2.2.2.<./ 1.l.4.1.4.x.<XdXvXHXHXGXbXvXvXvXvXvXvXvXvXvXcXcXcXcXcXcXcXcXcXcXcXcXcXcXcXcXcXvXvXvXvXVXVXvXvXcXcXcXcX3X3X3X3X3X3XvXvXvXvXvX3X3XcXJXcX1X/ o   . 5.2X1X<Xx.c.~ a o 4 a ~ K.K.K.2X1X1X1X2X2X2X2XK.K.J.J.z.z.j.3.k.1.~ l 8 t i t t y y S y < y u , D J D < A t y * R * F R F G G R G F D u , t y y - @ O $ - - $ u u y t t - & $ $ - $ $ - < D D ",
"P P I I I I P ^ P P P P ~ I z z I ~ 4./ L I T ~ L I I P ^ ^ I k ^ P ^ I Y :X<X:X:X_ H A Y G ) :X5X<X:Xx.^ k x z T T ^ 1.1.~ I m T / 4.l.z.x.x.z.4.l.l.x.x.x.4./ 1.1.1.1.4.1.( / 2.2.1.4.4.1.<.( / / / / ( / 1.l.1.l.l.l.l.4.1.l./ l.l.1./ ^ ^ ^ 1.K.2X2X2X2X<X2XdX1XK.x.1.<./ <.<.<.2.4.z.z.z.3.3.3.3.3.3.2.2.2.<.2.1.2.2.1.1.1.K.2XdXsXvXFXFXFXvXvXvXvXCXGXGXHXAXcXcXcXcXVXcXcXvXVXVXAXVXVXcXvXCXCXVXVXVXVXVXVXcXcXcXcXvXvXvXvXvXvXdXdX1X1XdX1XvXvX1X<XT . o .   / 1X2X1.~ l.z.K.z.K.x.K.K.4.z.z.z.z.z.z.z.z.j.J.z.z.z.j.3.3.z.2.T x x x i t 2 - < - - = = y - , , S , - u - , # G - y J F R R R D & $ , u A A y - * # $ - y y y , - - & $ $ & $ % $ $ , = % = ",
"/ ~ k k I L I I P I m P ~ I k z P I ~ 4.^ P P P ^ U m b U ~ U j k ~ x.5.P x.<X:X) J R _ 5.) c.:X2Xx.4.) ) z x s I L P T ^ ^ ^ ~ P T L N ~ 4.x.x.x.x.l.4.4.z.l.1.1.4.4.1.1.( T ~ 2.1.1.1.4.1.1./ / / / / ( ( 1.1.2.4.1.1.l.l.4.l.1.l.l.1./ / 1.1.^ 4.4.1.4.1.4.z.z.4.1.2.2.2.<.! 2.2.<.<.,.,.<.<.3.3.k.k.k.k.j.z.z.k.2.2.3.j.3.2.<.j.z.J.K.2XdXlXFXFXFXHXHXCX1X2X2X2X1X1X1XdXdXdXdXdXdXdXsXvXvXCXvXvXCXCXvXvXvXvXdXvXvXvX1X1X1XdXdX1X1X1X1XdXdXdXdX1X^ s s . .   . p z.z.z.2.z.z.2.z.z.j.z.J.z.K.j.j.j.j.j.j.z.j.z.j.3.j.j.j.z.z./ x r i i t , < < S < = ; S S = y @ $ * & t - H t t y y _ J R S D u y y u A F F , , t y t t t y y - - - & @ $ - $ % @ @ = % % D ",
"/ ~ z s z m I P P I m P ~ I k k P k I 4./ P L P L L m j b U ^ U k I x.x.4.5.:X:Xc._ 5.:X:X:X5X5X5.R _ R ) T ~ x x z N m I ~ ^ ^ ~ N l m L T ~ / l.x.x.z.l.l.z.z.4.l.4.1.1.( ( 1.l.1.1.4.l.l.4.1.1.1.1.1.l.l.1.1.1.4.1.2.4.4.1.4.1.1.1.1.4.4.4.4.l.4.1./ 2.1.1.1./ / <.2.2.2.<.Q l.3.2.:.Q W W W ,.,.3.3.3.3.j.z.j.3.3.3.2.3.j.k.:.,.,.3.3.j.z.J.2X2X2X2X2XK.K.z.z.l.l.z.z.z.z.z.K.K.K.K.K.2X2X1X1XdXdXdXdXdXdXdXdXdXdXdX1X1XdXdXdXdX1XdXdXdXdXdXsX2XL   4 8 8 g h V J.2.z.z.z.z.K.z.j.J.J.j.j.J.j.j.j.j.j.j.j.j.j.j.j.j.j.j.j.3.L k i t - - < < = S G S S D F F F & - & $ & & F t . - t G D S y < u A A A D D D t , , t t - & - - - & & $ @ @ & $ $ @ @ = % u ' ",
"^ ^ L z z k m ~ P L I L P m s k z z I ~ ~ P P P k j b j v I ~ ^ j k I T 5.) :X:X) _ :X:X:X:X5X:X) R ) R ) / T x s z z z z I P P T L L T T N l x N ~ 1.l.l.4.4.1.z.2.1.1.2.1.4.z.l.l.4.l.l.l.l.l.4.1.4.l.z.z.l.1.1.4.1.1.l.l.2.l.l.1.1.1.1.1.1.1.4.1.<.2.2.2.2.<.1.2.2.2.<.<.<.<.2.3.<.:.:.:.:.,.! ! :.:.,.3.3.3.,.,.3.3.3.j.3.3.3.3.3.3.,.:.>.:.3.3.3.3.3.j.z.J.J.J.z.z.z.z.z.z.j.j.j.j.z.z.K.K.T.2X2X2X2X2X2X2X2XdXdX1X2XdXdXdXdX1X1X1XdX1X2X2X2X2X2Xz.x.x.z.z.j.z.T.j.j.J.J.J.j.j.j.j.n.J.j.3.j.j.j.j.j.j.j.j.j.j.j.j.j.j.3.C k t i , % < D D 1 < J S < S S R F , - $ # # # i i X & * $ - = u u < y u A A u , t , & & , u y & $ & & & $ @ @ $ $ $ @ @ % = u c.",
"^ ^ P I I m z I m L I m m z k k z m z k I ^ ^ b m b j j j b U ^ P P k k 5.Y ) :XG G :X5X5X5X5X:X_ Y R R R ) I x z x s a s z m I T T I z m T T m l l L ~ 1.4.l.l.l.2.4.z.4.1.4.1.1.1.1.l.l.l.4./ 1.1.1.4.1.1.1.1.2.1.2.2.l.l.2.2.l.1.1./ / <.2.2.2.<.2.2.! ! 2.2.2.<.<.( ( <.2.j.3.3.<.:.>.>.Q Q ! ! ! :.:.,.,.3.3.3.3.3.3.j.3.3.3.3.3.3.3.,.3.j.3.3.3.3.3.3.3.j.k.k.k.j.j.z.z.z.J.z.z.z.z.z.j.j.2.j.z.z.J.K.K.K.J.K.K.K.K.K.K.<X2X2X2X2X2X2XK.K.z.K.z.z.K.l.K.J.z.z.J.U.J.j.3.z.J.j.J.j.3.j.j.J.j.j.j.j.j.j.j.j.3.j.j.3.j.z.,.n k & $ & = S J _ _ D G S u F - F D & & * $ & # & t & * # $ G D F y , y D F D y - - , t y F R F & # $ & & $ $ & & @ & % @ % $ - ) ",
"^ ^ ^ j k I ^ j k I I a m k a k j s j k k P ^ m m j a f v j f j ~ P ^ I I R 5.x.) _ :X5X5X5X:X' R R ^ R R I k z m m m l l z j j m m m m m m z z z j s s j P / 4.z.z.z.4.2.1.1.1.1.1.1.1.1.1.1.1.4.1.1.1.4.4.1.1.1.1.1.z.l.l.x.l.<./ ! ! :.:.:.,.:.<.2.<.<.! / <.2.( ! 2.W ! ! 2.! ! ! Q Q Q :.<.Q Q >.>.>.>.>.>.:.>.:.:.,.3.3.3.3.3.,.,.,.3.3.,.3.3.3.3.3.3.3.3.3.3.3.3.j.j.J.J.z.z.j.j.j.j.j.j.z.z.z.z.z.z.J.J.z.z.J.z.z.z.J.J.J.J.J.z.J.z.z.z.z.z.z.J.J.z.z.z.J.J.J.J.J.J.J.J.J.J.J.z.j.j.z.z.j.j.j.j.j.j.z.z.z.z.3.z.l.T T z t A - u u F c._ c.J G D G D A y i y t * - * & q t A * X y G R R F F D A y < = = < S - , J R ) R - & $ & $ O O $ $ & @ $ @ = u ' ",
"z L ^ L b a I <.L P L k I s 0 s k s k k s I U m I I j 0 f j j j I L ^ L I ^ 5.5.5._ 5X5X5X5X) J ) R ) l.^ z 8 s j j j j j j j k j j j j j s s s k k k j j z m N U ~ <.2.4.4.4.4.4.4.4.4.1.1.1.1.4.1.1.1.1.4.1.1.2.2.1.l.2.2.l.2./ ! Q Q Q >.:.:.:.:.>.Q Q ! / <.<.( ! 2.Q ! ! <.! ! ! Q Q Q >.:.>.Q >.>.>.>.>.>.Q Q Q Q >.:.>.>.,.:.:.:.,.,.,.:.,.,.,.,.,.,.,.,.3.3.3.3.3.3.j.j.z.z.z.z.j.j.j.j.z.J.J.J.J.J.J.J.J.J.J.J.J.J.J.J.J.J.J.J.U.U.J.U.J.J.J.U.U.J.J.J.J.J.J.z.j.3.3.j.3.3.3.3.3.3.z.z.j.j.z.z.z.z.z.j.j.z.l.4.T k F i A F y y < F c.) G S F D D y y u u A q % # # & q F F $   & H R F D D A S y < < < D J F < G F _ :X_ D @ $ - $ O O @ % @ % $ % , ) ",
"k I I U L k a ^ P ^ P k b s a k a k k f k j b b L ~ U j f j j v j I ~ P I P ) ) ) _ :X5X5X5X:X' ) R ) 5.I r a j a a s s s x x x k k s s s j j j j j j j s a a a s v m L ~ / 1.4.4.l.l.l.4.1.1.1.4.4.1.1.1.4.4.1.2.1.1.4.2.<.2.2.W ~ W W W Q >.>.:.>.Q Q Q :.:.:.1.<.:.2.! ! Q Q Q ! :.! Q Q >.:.>.>.>.>.>.>.>.>.>.Q Q >.>.>.W W W Q >.:.>.Q >.>.>.Q >.:.:.:.:.>.:.:.:.:.:.,.3.3.3.3.3.3.3.3.3.3.,.3.3.j.z.z.z.J.z.z.z.z.j.j.j.j.z.z.z.z.z.z.z.z.j.j.j.j.j.j.3.3.3.3.3.<.,.,.:.:.:.,.,.,.,.<.3.3.3.3.z.z.z.z.j.z.l.z.z.^ k i H i & < $ = = D ) _ A - A y A A D D F F & & X X & i R R & X X A D A A S S < < y S S G _ J S J u @ J ) D @ @ $ $ $ , $ $ @ $ $ & , ) ",
"z I j I I m 0 a b U P a k k z k a k a a k a f v j U ~ L v f a j f b U P I I Y R G G :X5X5X4X5X:X_ R ^ Y t r j z s s s k s s x x s s k k j z z m m z k k r a s j j g s f g m L ~ / / / 1./ / 1.4.4.1.1.1.1.1.1.2.2.1.2.1.2.! <.! ~ W W W Q >.>.>.>.>.>.>.:.Q ! ( 1.<.<.2.<.:.! W Q ! :.:.:.>.>.>.>.>.>.>.>.>.>.>.>.>.>.:.:.:.:.>.W :.,.,.Q Q Q :.Q Q Q >.:.:.Q Q Q Q Q Q Q >.:.,.,.,.,.,.,.,.,.,.Q >.,.3.3.3.j.j.3.3.3.3.3.,.,.,.3.3.3.,.,.,.,.,.:.:.:.:.>.>.Q Q Q Q Q W W Q Q W Q Q Q W W W >.>.:.,.3.3.j.j.j.z.z.1.1.I i H H t & $ O , S D R F y = u - u S D A R A - - X X X q F G A F @ t u u A S y < < y S S _ ' J D J , X , _ F , & $ @ & y $ $ * $ - $ - _ ",
"k k k b 0 j k 0 a z I j m z b k f f a f j f 0 j 0 v m I m j 0 f g g m L z k H Y R G ) :X5X4X5Xc.) ) R k r z s k j j j k k x j x s s s s j j z m m m l s a a s x s j j j j g j j m N L T T ^ / 1.1.1.1.1.1.1.2.2.1.4.2.2.2.! ! E W ~ W W Q >.>.>.W W >.Q W E Q ,.2.! ( :.:.:.<.:.Q Q :.:.:.>.>.>.Q Q Q Q Q Q Q Q Q Q W Q Q :.:.:.:.<.2.2.<.<.<.2.:.:.Q Q Q Q W W Q Q W W W Q Q :.:.:.:.:.:.:.:.:.:.:.:.,.,.,.3.3.,.,.,.:.,.,.,.,.:.:.>.>.>.Q Q Q >.>.Q W W W W C Q >.>.Q Q :.:.>.>.>.Q Q W W W W W >.:.:.,.3.3.z.4.^ T F i F A t u % @ u A y D S % - G A A u A A u X - * - i & * H * F R u X F u S S y < < y y u F ) J G D = = , D u , & $ $ & $ $ * $ & t # # G ",
"L a a j 0 k m j a 0 z L ^ m b j j f f f k f f f 0 0 9 v L L v f v f f m a r i H ) R _ UX5X5X5X:X<Xc.R k k z a z j k k k k k j j s s s s s k j j m m I I m j a a s s j j j j j s j j j j l m T ~ 1.1.1.1.1.1.2.2.4.l.2.2.2./ ! E W W W W Q Q >.W >.>.W W C C :.3.2.( :.! ! W :.W Q Q Q Q >.>.Q Q Q Q Q Q Q Q Q Q Q Q W W Q :.:.:.! <.2.2.2.2.3.3.2.<.<.! :.! Q ! Q Q Q Q Q Q Q Q Q Q W W W W W W :.>.! ! :.:.:.:.:.:.! ! :.:.:.:.>.>.>.>.>.>.>.>.>.>.>.Q Q Q W W Q >.>.Q >.,.:.>.>.:.>.Q Q Q Q >.>.>.W W Q :.<.2.T I F F G F F F y @ @ u < , F J y y G A A A D A - X t X - Y F * F * A G y X A , y y y < < < < < S R F G < $ < @ O % , = @ @ $ * & * * * & O & _ ",
"^ b s k L I I j b a k b ^ U P j f f v v 0 f j f f 0 9 0 m L b c v f d g a z H H _ R _ :X4X4X5X5X3Xc.T k k k k m k j s s k k j j k k k s s k j j l m L T T I m j j s a a s j l l j j s s s s j l ~ ~ ~ ! / / / / <.1./ <.2.! ! Q Q W W W W W >.W >.>.W W C C :.k.3.<.<.! :.W Q C :.:.:.Q >.>.Q Q >.>.Q Q Q Q Q Q Q Q W W Q :.:.,.! ! 2.2.1.2.2.2.1.2.2.<.2.<.<.:.! :.:.:.:.Q Q Q Q Q Q Q Q Q Q ! W W W W ! >.>.! :.! Q W W W W W Q >.Q >.>.>.:.:.>.>.Q W W W W W W Q Q W Q :.:.W >.>.Q Q Q Q Q >.>.>.W W Q ! ~ T z T i F R R J G , $ & u u A R _ A - y O - A F y F H i $ * H H X A A t H & - , , < < < < , - - = _ _ A < @ = < = % y A < $ O # @ & # # X & # A c.",
"L L b k ^ P m k L j s 8 I ^ / j f a b v 9 0 v f 0 j f 0 f b v f f c d g j ^ ^ R ) R H _ 5X5X5X4X5X_ G H i z z a j j j j j k k k s s a a a k j j s j m I L T T T m n s s j j j s s s s a s s z l m l n m M L E E E / ~ ~ / ! Q :.Q Q W W W Q W >.C C C >.Q C Q ,.3.:.2.! ,.Q :.W 3.<.,.:.:.>.>.>.:.:.Q Q Q Q Q Q Q Q W Q Q :.:.:.! <.2.1.l.l.2.2.2.2.2.2.2.2.<.<.:.<.<.<.<.:.:.Q Q Q Q Q Q Q Q Q ! ! Q ! ! ! Q W ! W W W Q ! ! ! Q >.Q Q Q Q Q Q >.>.Q W W W W W W Q Q W >.,.,.Q >.>.Q Q Q Q >.Q >.>.>.>.:.! P z I ^ i F _ R G S , $ $ , y D F y u y A % - A F i y A * A t i H X $ F A - y u u u = - - - - = = = J J S - % y $ , % @ O @ & & @ O # X * # t * i c.",
"^ L L s U P U k m k a k k k I ~ b j f j v g f f 8 f m v b v b v c d c g a L 4.) ) R G :X4X5X5X5X:XR G R k r s s j j v j j k k j k s k k k k k k s s j j m L ~ ^ M N m m m m l l j j s s s s j j j j j j l l n n v n n N M E W Q M B W :.:.>.Q Q W W C C C W Q Q :.:.:.:.:.:.Q Q Q Q Q Q >.Q Q Q Q Q Q Q Q Q Q :.Q Q Q :.:.:.Q Q / ( ! 1.1.1.1.1./ / ( ( ( / ( ! <.:.Q W Q Q Q Q Q Q Q Q Q Q Q :.! ! ! ! ! ! ! W ! W W E E W W W C W Q Q W W :.,.:.:.Q Q Q Q Q W W W W W Q Q Q Q Q Q Q Q Q Q Q >.>.W Q :.~ T T I ) R y A F < = @ @ $ & , A u y H D A u u t t R y A H * Y q t Y t . # y y A F u u , , J A < < > % J F S - $ = = @ @ @ @ $ $ * @ # X O # @ O $ t u ",
"U P ~ s j z ^ ^ U j a k z j I P m j 0 f j j j v b f m U ~ b b c c d d d g m P F Y 5.:X5X4X5X5X4X:XR G / I z k k j j j j j j j k k s k k k k s k s s k j n m L T T E E T N l s s s s s s s s s s k s j j j j j g j j v n n N M M M B W Q Q Q W W C C C C C W Q >.Q Q Q Q Q Q Q Q Q Q Q Q >.Q Q Q Q Q Q Q Q Q :.:.:.Q Q :.:.:.:.Q ~ ~ ~ <.1.1.1.1./ / ! ( ( ! ( ! :.Q W W Q Q Q Q Q Q Q Q Q Q Q Q Q W W W ! ! ! ! ! W W W W ! W W Q Q W E C W :.3.3.,.Q W W W W Q W W W W Q Q Q Q Q Q Q Q Q Q Q Q Q Q Q ! T I F F H A , u S , < , O $ & y F A y A G u - q q t R A A H * H & * t q X X $ - F G D , , G F D J = O u G A y < $ $ $ @ @ @ $ $ $ $ * # O # # * $ & t t ",
"P I P z L ~ 4.^ I I L I b b b m m j a f j j j v b v ~ ~ U N m 0 f c c d d a H R :X4X3X5X5X5X5X5Xc.F G ) R P s j j j j j j j j j g j g g g g j g s s s s j v m m M T ~ ~ T N m l j j s s s s s s s s s s s s s s g g g g g g g g g v n M C C W W W W W C C W >.>.W W W W W Q Q Q Q Q Q Q Q Q Q Q Q Q Q Q Q ! :.<.:.:.:.:.:.:.:.:.! ! / 2.l.1.1.1.<./ ! ! ~ ! ! ! ! Q W W W Q Q W Q Q Q Q Q Q ~ W W W W W Q Q Q Q W W Q ! :.:.Q Q :.Q W W W Q :.,.3.,.Q W W W W Q W W W W W Q Q Q Q Q Q Q Q Q Q >.W ! ! ~ T z i H i y , u y , u y , , & , A A y H F - & A F A R A i i * * & o # q & . X $ D G G S u u F G F X X - D < - - = $ = % $ $ $ $ $ $ @ @ @ @ @ & - y , , ",
"I a k k U ^ / b I ~ ~ L L ~ P j b j f k j f f a j v ~ U U L L 0 9 c c f f 0 k ) DXPX3X5X5X5X5X:XR i R ) ^ ^ k z v v j j v v j j j j g j j g j j s s s s s s j v j m L ~ ~ ~ T T N m l j j j j j j j s s s s g g g g g g g g g g 5 p h g n N M B W W W C C W >.>.Q Q Q Q Q Q Q :.Q Q Q Q Q Q Q Q Q Q Q Q ! :.<.<.<.:.:.:.:.<.<.<.! ~ ! <.2.<.<./ <./ ! ! ! ! ! ! W W W W Q Q Q W W W Q Q Q Q Q ! W W W W Q Q Q Q W W Q ! :.:.Q Q Q W W Q :.:.Q Q :.:.Q Q Q Q Q W W W W W W W Q Q Q Q Q ! Q Q Q Q ~ ! ~ P F i t A F < , < y u u & & , t A G H , t H * $ F R H F q t q & # * X # q - X $ y u J J D J % R J G $ O S D - = - = = = = $ $ $ $ $ $ @ @ O O @ % 1 < , , ",
"U I I I P ^ ^ L ^ I j I ^ 4.^ k j k a f k a a 0 m v U ~ ! m b f c c 0 a v k I ) KXDX5X:X5X4X:X' R i R ) ^ / m m m v v v v v v j j g v v v v j j g g g f s g g g j j l m N L T T T L N m m m n l j j j j s j g j g g v v c c c g s s g g g g v v M B B B B C W W Q >.>.>.Q Q Q >.Q Q Q Q Q Q Q Q Q Q Q Q :.<.<.<.:.:.:.:.<.<.2.2.<.( ! / <.! ! ! :.<.<.<.<.! ! ! W W W Q Q Q Q Q E E W Q Q Q Q Q Q Q Q Q Q Q Q Q Q Q Q Q Q Q Q W W W Q :.,.,.Q W :.Q Q Q Q Q Q W W W W W W W W W W Q Q :.:.! Q ! T ^ P F x t , u D , = = - u y & * & , A J F y i H # # t F t t % - * y # * * q & * * t F A _ J u G , J J ) S @ R G y = - = = : O @ $ $ $ $ @ @ @ O @ + = , , 1 = ",
"4.4.^ ^ ^ ^ ^ ^ I a k ^ 4.<.I k j k a 0 a a k j f U 4.~ L g j f c c 9 9 v I ^ <X4X5X5X:X5X5X:X) R i F / ^ ^ m b N n v v v v v g j g v v v j j j g g g g g j g g g s s j l N L L T T T T T L N n n v j j s s g g s g g v c c c g n l g g g l g g v v V n V B C W W Q >.>.Q W W Q Q Q Q Q Q Q Q Q Q Q Q :.:.<.<.<.! Q Q Q :.:.<.<.2.2.<.<.2.2.2.2.! :.<.2.<.! ! W W W Q Q Q Q Q Q E E ! Q :.:.! Q ! ! Q Q ! ! Q ! ! Q W W W Q W W Q Q Q Q :.:.:.W <.:.Q W W W Q Q W W W W W W W W W Q :.:.:.:.Q ! ^ T I H i t , < < < < , - t t q t t & , A A i F u X X & A q - $ & * y # # & t * * & t D A _ G < D = u J _ u < F F S - = = - = O * * $ @ @ @ @ @ @ % 2 , 1 2 2 2 ",
"4.4.^ P P P b I 0 k P 5.5.^ z j k s a 0 a a k j 9 2.5.b f 0 f 0 v v 0 9 a b 4.5X5X5X5X5X5X5X' ' R t z 4.^ P j j b v v v v n v j g j v v j j j j g g g g j v j s s s s s j l N L N m m N L T L M N m n j j g g g g g j v c c c c j g g g l l l l g c c V n N B B C W Q Q W W W W Q Q Q Q Q Q Q Q Q Q Q :.<.<.:.! Q W W W W Q Q Q W W Q Q Q :.:.:.Q :.<.<.:.! ! W W W W W W W Q Q W Q :.:.:.:.Q Q Q Q Q Q >.>.Q Q Q Q Q Q Q Q Q Q Q Q W Q :.:.:.Q <.:.W E E W W Q W W W W W W W W W Q ! :.! Q Q ! ~ F H i y u u < 1 u D < - t & t & t t i F i t y u & - t A y - $ & t & # * * - & - - y , u G F D F O < _ R D S < S < - = = ; ; @ * $ $ * @ @ @ % 2 1 1 1 1 1 2 1 ",
"<.4.U z b k 0 I I ^ 4.4.4.^ P z s s a a a a a 0 N <.U 9 j g 0 a N v 0 9 0 0 b R :X5X4X5X5X5X' ) A t G :X) j a m m v g v v m v k j j j j j j j j g g g g v v j s s j j x s s j l l x s s n M T E L L N n v j g g j v v v c c c g s s s s g g g g n n n V v V n n B C W Q Q W Q Q Q W Q Q Q Q Q Q ! Q Q :.<.<.:.Q W W E E E E E E C E W W Q Q >.Q Q Q :.:.>.! W W Q W W W W W W Q :.:.<.<.<.:.Q W Q Q Q Q >.>.:.:.Q Q Q Q Q Q Q ! W W Q :.:.:.! Q Q Q W W Q Q W W W W W W E W W W Q Q ! Q ! ! ! ~ I i t y y u S < = < D < y i & q - , , t A u t A G H H y i q & # q H # o & * * t t t F , D y D F u X , F R J @ < < < < = : ; = O @ $ * @ @ @ + % 2 = = 2 = 1 1 1 ",
"z 4.x.^ b z I I ^ x.) ~ ^ 4.^ P m s a a a a s a r m M n g j j a v v d 9 9 f j k I x.5X4X5X:X>X_ J A R 2X/ P 8 m j v j U N m a k j j j j j j j j v j g v v v g f g s s s g g g j j j s a a s n N m M L M n s s g s g j j g g s g v g g g g g g g g c v c c c c c N M M B B M B B E W W Q Q Q W W W W Q :.:.Q W W E W W W W W W W C C W W Q W Q W Q W W E W W W W Q W Q Q Q Q Q Q Q <.<.! ! <.<.:.Q Q Q :.Q W W <.! ! ! ~ ~ ! ! ~ ! ~ E E ~ W ! W W ! Q Q W W W W E E E W W W E C C W Q ! ! ! ~ T H A A - < y $ = < < < < , - - - < = - u D y y A ) ) q H G i y q i i o X X X y % < F S % < A , - A X . J _ G < = < = < = < = $ X X O @ O O % = = 1 = = : + = 1 = ",
"k P ^ ^ P z I P 4.4.^ x.4.I ^ z L z s s s j j k 8 a m M N v a 9 g g f 0 0 f j j 0 P 5.<X5X:X:Xc.G F x.<XI z m k j p N U j j s z k k j j j j j j v j g g j j g f a a a s s s s s s s s s s s j l m M L T L M n n g j v v g g s g g g g g c c c c g c v v g g c c h g c n n N M B B B E E W W ~ W W W W Q Q W W W W W W W W W W W W W W W W W Q Q Q Q Q Q W Q Q Q ,.:.:.,.,.,.,.,.<.:.! :.! E ~ :.Q Q >.Q Q Q Q ! ! ! ! ! ! ~ ~ ~ ! ~ E E W ! Q ! ! ! Q Q W W W W E E E E E C C C W :.! W ! / ^ G F S A y y y = = ; < ; - S + @ u S u < < A A y y q i * H H H i q i i o X X X < % G K S 2 < u t t & . # A _ G F D D : = = u S y . > @ - - = - = = = : : 1 1 = = : ",
"P I L P I k I 4.<X5.<X4.^ P P I ~ m k k s k j s s p a n m g a f f g g f d a g j a 8 k ) :X5X:X:XG _ <X5.k k P k n p ! ~ k k s z k k j j j j j j j g g g g g f a a a a a a a p p a a g s s s s s m m M T E T N l g j j j g s g g f f f g g g g g g g j j g g g g h h g g g c c n n N N M U E ~ Q W W W E C C C B E E E W E E E E W W W W W W W Q W W W W W E E U ,.:.:.:.,.,.<.<.:.Q ! ! ~ E ! 2.E Q Q W Q <.<.:.! ! ! ! ! ~ E ~ ! ~ E E ~ W ! ! ! ! Q Q ! W W W ~ ~ E E C C W W :.,.! E ~ 1.^ H G D D A D F S = - @ < ; = = D D < < = = S F u - H F F Y i i q q q q o X X @ D S J D u < u A A A q . # & Y D G _ _ < S S u S J S X $ y y < - = = = : : = = 1 1 + ",
"^ L I I I k I 5.4.5.x.I I T I / ^ I j k s a s a m a 9 a s f f n g g g f d a g v j 8 8 i 5.4X5X:X) :X:XH z z m j s j <.L k a k s j k j j j j j j j j g g g f f a a a a a p p p p 9 p a s s g g g l l n m M M m l l l j j s s g s f f a f g g g g g g j j g g g g c c g g h d h g g c c n N B E ~ W Q W E B E E B W W W W W W W W E E W E W W W W W E W W W W W W Q Q Q Q ! :.! Q W Q ! E ~ <.2.<.E W W W Q <.2.<.! / <.! ~ ~ ~ E ! ! ~ ~ ~ W W ~ W ! Q Q ! W W W ~ ~ W W W Q <.3.,.,.:.! ^ / T x F F F F J ) J = = @ < + $ S J S % = % % S F A , H A Y G q i q * * # # X X - G F D < < u u A D A q X . q G G F ) ' S = S G G R G $ - < - = = = = = = : O @ < < + ",
"L I I I z k I <.~ 4.I / ^ k ~ 4.^ I x z k s s a s a a f s f f f s g g g f f g v a a z 8 I x.:X5X5X5Xx.H F I k k a T L s j a b k z j j k s k j j j j g g g g g f f f a a a a p p p p a s g g j g s s g j l l m N N m n l j j g g s g f g g g g g g v j g g g v v c c c g g g g c g g g c v n M B E W ! ~ W Q W E C B B B C C C C B C C E W W W ~ E E E ~ W ! Q ! E E W Q Q Q Q ~ Q ! ~ ~ :.2.<.~ Q W E W ~ ~ ! / ! 2.2.! ! <.<.( ( ! ! ~ W ! ! ! ! ! Q Q W W W ! ~ ~ ~ W Q ! 3.3.3.3.<.<./ ^ I x D F G J _ _ J < @ y = X A A - - = , = = u A A A q - H H q i & * q # # X X - A D < < u u < u y & & X . H R _ D J J S < < J F D A < - = % $ % = % 1 : @ O + < < = ",
"^ P z 0 8 k ^ x.4./ P x.^ m ^ / T z j z j s k k a k j s f s f a f d g c v g f a 0 0 I s a I P x.5X<X:XR H I I z L 4.m 8 j a b k j j j k k j j j v j j g g g g g g s s s g a a a g g g s s g s s s s s s s j m L T L M N m n l l g g g g g g g g v j j j g j v n c c c c g g c c c c g g g c v n n N B B E W W E M B C E E E B M M M C E W ~ ~ E E E E E E E E E E E E W W W W E ! E E <.2.<.W ~ Q E E ~ ~ E ! 2.<.1.1./ <.l.l.1.( ! ! ! Q ! ! ! ! ! Q W W W ! Q W W ~ W Q ! ,.3.3.<.,.<.^ T F i D G G R R D y < $ = = A G S @ = - = = - y y A F G F H H q i # * q # # # $ , , D S D D S S u , $ # # X & R R G - G J G , S y - - , - = % = = = % < O O = < < < S ",
"4.U j a 0 k ^ x.^ P ^ ^ I ^ / / I j j z j a k j k j g a f g g s a p 5 d c c f a g 9 j j a a k I 5.:X:X^ H F I I 4.4.j s k a k j k k j v n v v v j j j g g g g g g s s s s s s s s s s s s g s g s s s s a s l n N N M L T M m m g g g g g j j g g g g g g g n n c v c g g g f g c g g g f g g g g g v N M M M M ~ Q <.2.2.2.! ! M B C E E E E E E E ~ ~ ~ ~ E E Q Q E U U U U U E U W <.<.! W ! E E U ~ ! <.2.1.2.2.<.1.1.l.1.2.! ~ ~ ~ ! ! ! ! ! ! Q W W W ! Q ! W ~ ~ Q ! ! ! <.:.<.! ^ T F H F _ J G G y = = ; O D ' D , , = % - , y u y q u Y Y t - i i # q q o # # y A = F G G D F J F - $ * # # # R G ) = _ J S $ u S y $ - = = = = = = % < + + 1 S S D D ",
"^ m m ^ U k k P U 4.1.P ^ ~ ^ P m k j m j a s j k s s g v j g f g p 4 5 d c g g g 9 v b k j k k ) <X<XP I H I ~ 4.P a l k j a z a k v m m m n v j j g g g g g g g s s s s s s s g g g s g j s g s s s a a p a p l l N T T T L N g g g g g v v j g g g g g g v n g g g g g g g g g g g f f g g g g g g n N n n M B W <.2.3.<.Q ~ B B E E E C B B T ~ ! 2.2.2.1.1.2.<.Q E U U U E M Q <.! E E ! Q E E E E ! 2.1.2.2.! ! <.2./ ( ! ! ~ E E ~ W ! ! ! ! Q ! W W W Q ! ~ ~ ~ ! ! ! Q <.<.<.! ^ / R G A ) G y F F S = - < R c.y & & < % u D D D y $ * A F & & F H o q q X o # H H $ F J J F J _ F $ # O O O q ) _ :XD D = = - , & y < - - = = $ + : = = , = % < G J D ",
"4.L L ~ ^ I 8 k ^ 4.4.4.4.^ m z j z z j a a s l k j j g g g g g g s g a a a d g g g f f f f k k I 4.<X:XY z ^ / P I z s a a k j z a j L U m n j j j g g g g g g g g g g g g g g g g g g s s g g s g s 9 p a j a s l l l l N M N m M M M n g j n s g g g g g j j g g g c c g s f g s g g f f f f g l g g g n n l l l n l l n M ~ M E E T E E T T B M T / l.z.4./ M U ~ E B M M E E E E E E E E E E E E E E ~ ~ ~ ! / <.<.<.! ~ E ~ ~ E E ~ W W W ~ ~ W W W W W Q W ~ ~ ! Q ! :.<.<.<.~ ^ ^ ^ R t F ' D S _ J y = < , , , , , - - < = , F A A & * A A * # * q # q i # # q H A - = J R J J _ u $ $ i . * R _ R G < + - = + % - = = < = + @ + = = = < = < = S _ _ D ",
"^ b v m P L a a k P 1.4.4.P s a z z z j s s s k j j j j j j j j g g s g g g g g g g g f f f f k 0 k 4.x.4.^ ^ ~ I m z j j j j j m k j I N v j j g g g g g g g g g g g g g g g g g g g g g f f f g M m p j a p a s j l l l l z m M M M M M M n s s s s s g g s g g g g g g g g g g g g g g g s s g g g g l n n n n n n g g g l n N M N n M T B B M M T ~ <.2.1./ m N M N N M B E E U B U E E E E E E E E E ~ E E ~ ~ ! ! ! ~ ~ E E E E ~ W ! W W ~ ~ W E E W W Q W E E ~ ! ( <.2.3.! ~ ~ ~ 5.) & F _ F J _ S = @ , < , - - - - - - $ - S F G # % H q X . X # o # H q q i i y $ % A ) _ J ' F u F - X * F F D y O = - = = - , = % = + O O @ = = = u = 1 = D _ ` < ",
":.L b k b m a 8 0 k ^ 4.~ k a j m z s s s k k s j j j j v j j j g g g g g g g g g g g g f f f f k 0 a I / x.x.I I ~ T z a j v f k a j m v j j s f g g g g g g g g g g g g g j j g g g g f a a a g E U s U g p j a s j l g s g l n n j n M L m n j j j j s s s s g g g g g g v j g g j j j j j g j g g l l l l n g g g g l g g g n n g h n M N N M L T E ~ ~ ! / ~ E M M M B E E U B M M B U U U E T T T E E E E T E E E ~ E E E E E E ~ ! ! W ~ ~ ~ E E E W W Q Q ~ E ~ ! ! ( <.! ! 2./ P 4.:XF D S S F D < < < , y , - $ $ $ & , , A D _ ) * A H & X X O * y i y t i i - $ O $ , ) ' J ) J R R $ * - A D D y $ - , = < < , + @ $ + O O @ = < , < = = % u J D % ",
"2.! I j j b k 0 k a P <.I 0 m ^ L z s r a s j j k k s s j j j g g j j j v v v g g g g g g f f f f j k 0 a ^ l.l.^ ^ P m a v v v a a j b j j j a g g g g g g c v g g g g g g j g g g g f f f a p 9 n M n ~ m g j g a s j j s s l s s s g j n M M n n n n n j g s h g g g v n g g g g v v v v j j j g g l n l l n g g g l n n l g l n g s g l l l N N N M M M T ~ ! ! ~ ! ! ! E M U B M M B U U B B M M M B B B M M M M E E E E E E E E ~ W W ~ E ~ ~ W E W W W W ~ E E ! ! ( <.<.<.! ^ ^ ~ 5.c.F G S S < , S = + y , , , & # # * $ - y S R G * u & X X X X O A H q t i q * @ O $ , R :X_ _ _ ' G O = < < y S y < < < , < < = @ : = = @ O @ < < 1 < , < = = < , = ",
"~ ~ L L m m I I a 0 P 1.I j ~ 1.I z j a a s j j k s s s g g g g k j j j v j j j g g g g g g f f c d f s 8 8 I 4.4.( I U m b c b b k k j j v j a j j g j j j v v g g g g g g g g g f f f f f a f 9 d n M Q M n f g a f j l g s j j j g s s j n n n m M M M n j s g g g l n n j s f s j j j j j j l s g l n l j n l j j j j j s p g n l g g h a s l j j l l l m N M M N T ~ ~ E M B B M B U E E U M M M B B E E E M M B E ~ ~ ~ E E E E E E E E E ~ ~ W ! W W W W E E E ! <.2.2.2.<.<.~ ^ ^ T G H S < < = S D @ @ y , , y , # X # - A F G G A H F * X X X . X A i t t i * # $ * $ = G ' _ _ ) ' u @ < < = = < < < u < , < 1 + @ = + % + @ % < < = < , < < = % + < ",
"v m m U I j j j a a I ~ l j T ~ z z z j j k s s s s f f g g g f k k j j j j j g g g g g g f f a v d 5 a k s s x ^ z.4.<.b N b b ^ m j k s j v s j j g j j j v v g g g g g g g g f f f f f f f f c d b U :.E B g g f f s j j j g n j s j n m n g n N L L L M n n n g g g j j j j f s j j j j j j j g j l n n l n l j g j j j s a g n n j j h p s l g s l n j j n n l l n M M M M B M M M B U E U B M M U E E E E M M B E E E E E B C B C C C E E ~ ~ W W W W W W E E E W ! ! ! ! ! <.^ / ^ i i F = = < < D S @ < y , t i t # X # & A G G - * F F i & X X X & Y A i y q * # $ @ @ @ F J R ' ) J % = < < = = < < S < < 1 = : @ @ 1 + + @ : = < , = < = = < S = O 1 ",
"f g f M L j a 8 a j m j a m T m z z z j j k s a k s f f g j g g j j j j j j j g g s g g g f g f d V n d p s s r z z.x.<.0 b b M <.I k j j j j j j j g g g g g g g g c c c g c c f f f f f f f f c f c N ,.~ B N f s s g s g j s j s s j n n l s n m N M N m n n l g g g j j v v f j v v j j j j g l l l l n l l j j g j l l l n l N n l n n n n m n j m m n j n n n l l n n M M M M M M M B B B M M M M M U B B B B M M M M M M M M M B C C E E E E E E W W Q Q W E E E E B M L ! ~ L ~ ^ Y H y u u < < < = @ , y y y y t $ # X & H R A $ O F G u t X X X t R F H y q * X # X O @ D S F ` J < = = = : = = 1 < < < < = : : @ @ = + @ + = < < = = = = = = < 1 O : ",
"p f 0 m U I m 0 9 j m j m ~ ! j m z j s k k k k k s s s j j j s j j j j j j j j g g s g f f f f c c d d g s r a k M m U f v v U ~ j a v v j j j j g f f f f g g g g g g g g c g f f f f f f f f d f 9 a ,.W N W f g g f a s s s g j n g a p a g g g j j j j j v g g g l n n j g s j v n j j j j s l l j l m n j l l j g j l n m N N n l M B T E M n n m m j j l s g j l l n m M m n N N M M M M M M M M M M M M B M N N n n n n n N M B E E E E E B M M E W Q :.E E E E T B E ~ I L ~ T H H F = = < < = = S u % y A A t & & * X - F _ u % - F R t A O O X t Y H A i t * X X X X y < = F u < 1 1 < = = < < 1 < < = = : : = : + : : O @ = < = = = = < , : = = O % ",
"f a a v U ! M 0 a j a L 2.~ I m j j j k k s a r k 8 8 a l j s j j k k k j k k s s s s s s s s s f d g g g g f f g v ! ~ 0 a ! 2.L j j m m k j n s f s s s f a p v v v j j j g g g g g g g f d d f d d 9 v 4.z.N f g f s g g g s g g g s g s g j j j n n v j n j v v j g j n n n N n v g g g g g p s g l l l l l j j j g j n j s l m L l l T L ( E N s m N N g m l j j n n l l N l n m m n n n n n n n N n N N M C M n n c g g g n n n n N M E T ~ L M L E E C E E E B E E E E T M T I k t t y A = , < D = < % S S S y , A * . t - G _ G - A G R A - @ X O A G F A i , X . . X + 2 2 2 2 = = = = 1 1 1 1 = = = = : = = + + : = + @ @ % = , = = 1 @ = < = + @ @ @ ",
"0 a a a v b v 0 f f N ^ U P ^ z k k k s s s s k s 8 r j m l s s j k j j k k k k s s s s f f f s g g v v v v c c 9 a b M L <.4.~ j T L j m k a j f j n j s g g p j j j j j j j j g g g g f f a a d d f 9 c <.4.B f g f f s g j g f f f a f g g p s g n n v v n v j g g g g g g g v g s g s g g g p s g l l l l l j j j g j n v s j l N g l M m T M N j M T M l l l j j n n j j l l n n m n l l l g g l l l l n n N N N N n n n n n n n n n N M M L L L T E C E E E B T E E T T T T P z r r x F A , S < u = < = S y y - & i - X * A R _ G A G G ) F y $ X X < F A A y % X > X @ + = = 2 2 = = = = 1 1 = = = = = = = = = : + : : + @ @ % = = = = = @ = < = @ O @ @ ",
"a f a a f a a g a L ~ / / T P m z z z z z s k z a a a j m l k a j k j j j j k k a a s a f f a a g g f f g f a d v g v M ~ ~ ~ T m 1.P a m k 4 s j m m s f v n s j j s s s s g g g g g f d a a a p d d p p B W v v v j j j j v v p p p 9 a j s 9 f f g v g g v g j v v v j g g g g g f f g s s s a s g l l l l l j j j s v n v g s l l s s l l m m N l T T T l l m n m m m n n n l n n n n j j s s p p s g g g g l n n M M M n n n n n n n n m M M L E E E E E C B E E E E T T T ~ z k t t F F - = D = = < < S S , , - $ t i * O H _ 5._ R _ A _ G A - $ $ , y , y % O X O $ % = = = 2 2 = = = = = = = = = = = = = = = = % @ + + + + % = = = = = @ = < = O O @ + ",
"g j a 0 f 0 0 v f ~ <.4.4.P s z i k z z z k s z z j s s j j j s k k k k k k k s a a a a a a a a p p p p 0 0 9 9 v f g M U m N / / / z a I m 8 j L M n f f v n n j s s s s s s s f f f f a a p p d d d 9 5 f v d v v v v j g g f 5 p 9 5 p n n f g a f g f f s f g g j v n v v n g g g g g g g g f s j j j j l l j j g s v n v s s l l s j j s g l N m T ~ T m l m N N m m L L m m n n l l j g s s s p s g g g g g n n N M M n g n n n n n n n m M M B E W C C C C E E E B B T T T z i t t H D O % G < % < < D S , = - $ & t * X - R c.) R ) < A R D < - , y y , , * X @ % , = % = = = = = = = = = = = = = = = = = : + = = : @ + @ @ + = = = = , @ = = = @ @ @ @ ",
"0 a 0 0 v v 0 a v U z.l.L j z k z k z H z z z I L m j s k z k s s s s s k k s s s s a a a a a a a a a a f f a a 4 f f g U U N L ^ I a k N L m m ~ m s j v v v N j j j s s f a f f f a a d d p p d p d d d f c g c c j j s a p 9 9 p p 9 p j n n n f p a p a g g f a a g g g g g v v n n n n n n s j j j j j n n j j g s g v v s s l l l n l j j l l l m ~ T M N n M m s j L L l m m l j j j j s l l g l l n l g l n n n n N n g n n n n v n n n B N N B E B B C M M B M M M L L T x i t & y u O < _ D , < = < < y = - & * * O X - G ) _ G :XR A J A - & y u u A , $ $ , , = + + % % = = = = = = = = = = = = = = = + @ = < = + + O @ + = = , < = % = = = % % + @ ",
"9 g a g U N 0 9 f <.K.1.j k z I ^ P H k z I I P P I z z m z k s a a s s k s s s s s f a a a a a a a a a f f a a a f 0 f b v v U I j j m j L T m ~ v a n M n j v j j j s s f a a f f a f d d d d d d d d f f g c g g g g f a p 9 a f f p p g n N n f p a a f v n g a p f s f f f g v n n N N N N n l l l j j j n j j g s g v v s s l l m M m m n j s s l T L T T N L m s s m N j m n j s j j j j m n n n N n l l n n l g n N N n n n n v g g g c N c c n B M B C M M M M B M T L x x i t $ , y $ , J D u , % = < A < u - * O X # - H R D D :X_ u < < - y D D u u % $ % y u = % = : : = = = = = = = = = = = = = = + O @ = < < % @ O @ % = = , = = = = = = = = = @ ",
"n U b v U M 0 0 0 ^ 4.~ P I z ^ ^ P z t k I T T T I k z m z k a a a s s k k s s s s f a a a a a p p p p 9 9 9 9 a 9 9 f g f m <.m j m N n N L m U v s n M n j v j j j s s g f f a f d d d d d d d d d d d d p f g g g f f f g g s g g f a f v M M g p a a f j v n g p a g g f f g g v n n n n m n n n l j j j n n j g g g v j s s n j m L n m l l s s s M n M E ~ L m m m m n l n j s s g j j j n n n N N n l j n n l g g n M n v n n v g h h g c V V c V N M n N N N B E E L z i r t t , , & @ = A u S % = = S A y u - % * X # t R ) _ _ c.R A @ < A F G D , , @ @ , S u = % , : : % % = = = = = = = = = = = = O @ : = < < = @ @ = = = = = = + = = = = = = = % ",
":.3.U v N b a j j a P ^ T Y I ~ ^ P H k I ) 4.4.~ z a k z k s k a s s s k k s s s s s f a a a a a a p p 9 9 9 9 9 a f d f v b N U s a N L m N ~ U m s j n n n n j j g s s s s s a f d d f f d d 9 d d d d d a g f d p p a g v n g f f g g s n M M g p a a a g s N g 9 p s g f f f g g g g g v v m m n n l j j n n v g g g v j g g m g n N j j s N s s a N g n L <.L m T T n j N j s s s j j j j l l n N N n j g N N l g g n n n g l n v c g c c c B B c c N B c c l n M T T x x r i i i A y @ X - y y D = < = F y , - $ % % X X X G _ R R D - < = D F F F A , y @ @ , A u $ @ % : : % % = = = = = = = = = = = = > + = 1 , , % @ = = = = % % + @ = = = % % = = = ",
"B <.<.N 0 f v j k z I T ^ I H T I Y H Y 5.<X4.T P k 0 a k k k j k j j j j j j j s s g g g f f f s p p p 5 5 9 9 5 9 9 5 4 5 0 f n n j f j N ~ ! j f N n m j v j a g g g f f a 9 p d p c d d 4 9 p p p d d p 5 5 p 5 4 4 p g g j f s g g g g v n n m n n g f f f f p a a s v p p f g j g g n n v n n n n n n n n n v f f v N n g g g j j s a s j M g a j n n N T / ~ L L L N N M j a s m M M N n m m m m m n n n n j n N n n m n g g l g c v c c c c c c n M n d s h j z z x s r t t t t y u % X * u R y @ u u _ G A , y * # . O O $ F J y - y $ $ D R _ J D , $ + = , 2 % % % = % = = = = = = = : : = = + O O @ O = % = < @ O < = = = , = = % = < < = = = = = = ",
"g M W U v v j f z a I ~ I F ^ ^ P q P R l.c.T T I k a s j k k k j k k s s s g j s s g g g f f a s p p p 5 5 9 5 5 9 9 5 4 4 5 9 9 N N p f E ~ v n g n v L M M m a s g f f s d p 5 p p c d d 5 p p p p d d p 5 4 d p 9 p f g g s g g s g f g g g v n n n g f a f f p a p f g p p g s s g g g g s g g g j g j v v M M N N M B B N a j m n s p s m n s a s g g j n ~ T T T L n n n a a j N N N M N N m m m m m m m s s l m n j n n g l v g g g c c c c c V N B M g p s x x s r t t t t i i A A & X # G ) A y y - ) F D A - * * X X O O - y % , A , y F _ ' ) G % > % = 2 = % % = = % % : % = = = + < + O 1 < + O @ > : = = , + @ = = = = = % @ + = < = = = = = = = ",
"9 a n U U b j f a 8 z P I T / Y F i Y Y x.x.F I I k s k z k k k s s s a a a s j g g g g g f f s s p p 5 5 5 5 5 9 9 9 9 4 4 4 4 4 p f f v U U N L m g f E M m n f g g f f g d p 5 p d c d d 6 p p p p d d 9 5 4 p p p d g g g f g g s g g s g g s g n n g g f a f p a p p g a g n v s g g s f f a a a a g g s s g j v v v v v v s n M M j a j m n g s g s g j j m m L T L n j n M m L ~ L m N M m m n l l l l l s s n m j s l l g l n g h d h c c c c c n M M j s s i i i t t 2 t t t i F i & X * u _ F % & u _ R F u % & $ # O O O - u - y u & u G _ _ J , @ O = = % % % % = = = % + : 1 < = O O 1 < = < S < + O + 1 = = + $ = , = = = @ O @ = = = % $ % = = = ",
"0 0 g b M v v j 8 a k I ) ) Y F F I i ^ x.x.I k I z s a k k s s a a a a a a s j g g g g s g g g s p p 5 5 5 5 5 d d f d 9 5 4 4 5 4 4 f v g n ~ E L s a E m s a f g g f g g p 4 5 p h c h d p 9 9 p p d d p 5 4 4 5 9 a g g g f f f a f g s g g f s j v g g g f f p f p p g f v U n s g s g f f p p a a a f f f p g c c c c v g n n n n n j j j j j j s s j n n s j n L L m n m 1.~ ~ ~ L m N m l z m m m m m m n n m m j s j j g n n v g h h h c c g f v m m j k r r r i x t & t t , y y , $ # & O D u * - F R c.D - O y & * * A y A A & $ , - y S D A % O @ 2 1 = % : % % = = = = : = , < % O O = 1 < S 1 @ @ : @ + = % + = = = = = + O X @ , = = + + + % = = ",
"a a a f g g j f k 8 a ^ 5.^ F Y T q i x.4.T I z I k r a k j s a 9 p a a f f s g g g g g g g g g s p p 5 5 5 6 5 d d f f d 9 9 5 5 5 5 5 5 p c n E U j g E j s a a g g f g g p 4 5 d c c g p p 5 9 p d d d d 5 4 4 4 5 p a g g f a p p a a f f f g s g g g g g g g a f p p s g n E N f p f g f a p p p p a f f f f g g c v n n n N n j n l j j n s g s a a s j j s s s m L M N M 4.~ I L L L M N m M T T T M N N m l m m j j n l g n n n c c g d c c g g j m m x i r & t A A y = t , t t t * # # * * t - D u A R ' u * # y & * - F D F D , & % @ y , % , 1 2 % % = = : : % = = % = = = = < ; + O + = + < G F , = S @ O = - $ $ = = % % = @ O @ < = = % + + % % % ",
"f g f 0 a v v f j o I x.) H H Y H t ) 4.T i k Y z k s k m m z a 4 p f s s s g s s s s g g g g g s p p 5 5 5 6 5 9 0 d f f d 9 9 4 9 p 4 4 5 d f M M v n L p a 9 p a a a g g d 4 p h n g g 9 p 5 6 p d d h d p 5 5 5 9 p a f g g g g g g g f f f g s s g g s s g g f g p p g s n E N f p g n v f p p a a f f g g f f f f g v v c g j n j s g n M g s a a a g s s j s s l N N m N 1.L m L E T L N m M T T T N m m l j l l j n N n g n n n n n c d g g g s j m z k q & t i u y , < , , y t t * * # * * A H R A D J G , $ O & & & t A y u D F i % > , , , , 1 2 % $ = % % % = = = % = = < < < ; + O O < < 1 G R F D S + @ < S $ O = < = = = = @ + , = = % + + + + + ",
"v c a 0 g v v k k k / x.^ H F H t ^ l.F Y k r I H z m m m m j k 9 a s j j s s s f f d d d d d d s p p 5 5 5 6 5 6 9 d f f f p 9 5 4 4 5 5 4 5 f g j s m M 4 p 4 9 p 5 p g n c d p h n d h 6 d 9 9 9 d g c c d p p p p a d d g g g j v g g g g s g s g f f f f f v g g a a s f g M n f p g M M g p p a a f f g g g g g f g v v g g s g j s s l M j a a g j g s s j s s l m n l n ( N m ~ ~ E L L N M L L m l l j j s j l l m m j g v n n c c c c d g s a s k i t t , y u u - - y < y y , - t & # # X A D G D R R G y & % * % $ u J u & , D D < @ % , < % + $ % % % % % % % % = = = , < < < < = @ : = = S J S = D < = $ < u $ @ y D u < < < = % = = = + + + + + + ",
"b f 9 9 a j k s z 5.x.^ I R Y i F 5.Y I F H k r I I I z k k s a p f j j j s g g a a a a d d d p s p p p 5 5 5 5 9 p d f f f d p 5 5 4 4 4 4 5 9 4 9 p m M 9 g 9 9 9 4 5 g N N n p h n d h 5 d 9 5 9 d c c c h d p p p a d g g g a g g g f f f g s g f f f a a p n g g a a g p a n g p 9 g L M s p p p a a f f g f g g f f f f f v g a s j n j l g p a n m n s j a a s n m l j l M j m ! ! ~ E E L L L N l j j j l j l l l m n a g V n v g g c v g j j k i i r & t - - < y - - , y y - $ & t t * X # & * R F R ) ) A $ , % * # D R D , u F F y @ = , , % % 1 , + % % % % % % = = = = , < S < = + > : = S ` J S D = , = = < % = F J D < S u = = = = % + @ + + + + ",
"f f 0 9 9 a j b I 5.5.R R R R _ l.F k I T k 8 z ^ / ~ s 0 a 0 m s j j s s f a 9 a a a p p p p p p p p 9 9 9 9 9 9 p d f f f f d p Z 9 6 6 5 5 4 5 5 p a a a a a 9 5 p g n N n g p 9 N M n 4 p h 6 d 5 p M B c 5 p p a g g s f s g f j g f g p f g s a a g p 4 5 M M v p p s s 9 a g j a L / M m v a p a g f f g s s f f d d d p f a a s m m s a g p a n n g g g a a f s g g v j n n M L U L N m m L m j j s s N m l j j j j j j n n n n j g s x i r t t i t & & , , , , , , , , y - & * & i i # * X & $ R J D G y = y < S $ O t D + G J D F < < = < S u < % @ O @ % : = = % + , , < = O S < % : = : D = < F J J 1 < < < < O @ J ) G G J < : 1 + + = + O + @ O O ",
"9 9 9 9 9 9 a a k 5.:X5.) :X:X:X_ k k F H r 8 I ~ ^ U k a a 0 m s j j a p p a a a a p p p p p p p 0 9 9 9 9 9 9 9 p d f f f d p p Z 9 9 9 6 5 5 4 5 p p a a a a p p d n B B n d p 5 g N M 5 4 p 9 d p d M E n d p p p f f f f f s a g f f s p f s f a a p a p p j N M n a a g g a s j j L ( ~ L n s a a f f f f f f f f d p p p p g j s s j s p a p a j n j s s d d g g g g g g v n m N N N m n n M m j l j j m m z j j j j j l n n n n l x x i i i 2 2 2 $ @ % , - , , , , , , y t - * # - y - # * * * F J D D < S F u u $ X O D < D F u S < 1 < < < = % @ @ + = = + @ = % = < < S = + S < = + O O < + = < u < = < = = = + < _ J J J F 1 : = 1 + = @ O + @ O @ ",
"0 9 9 9 9 9 0 a k Y 4.5.:X4X4X5.G k I Y F i r I L b m k 0 a a j k j s 9 4 9 a j a a a a p p p p 9 9 5 9 p a a p p p p a a a p p d Z 9 9 p p 9 5 4 5 p p a f a a d d f n M M c 5 d 5 p g B c 9 p 6 d 9 p n M n d 9 p p f f s g g g f j g f g a f g f g f 9 g v a a v M M j a a s a s s l m E ! E n n j f a a a p p p p p p p p p p 9 a j g g s p a a g j n n j s d g g g g g g g g j v n n n v v E T N j j l l L m z l j j n m m c v l j s s x i t t , , , % $ 2 , , - , , , , , t - * # X # & & X # # X & F y < % 1 J R R , O @ A D D D = < = < < , = @ @ @ + = + % @ % , = = , < S @ % < < = @ > > 1 = < < < < 2 < = + % % D _ G J F < = + : = + + O O + % + = ",
"g a 0 9 9 9 a s 0 I 5.<X:X5X5X) Y I R R I z k P L a k j a s k j n j p 4 4 p f j p p p p p p p p 9 4 4 9 p f a p p p p p p p p p d Z p p d d d p 5 5 p a a f a p c g d f c c d p p d 9 5 E U n g 5 d p 9 g n c p 9 9 a f s g j g g f g f f s p a j f g f 4 f n a f a g n n g a a a s s j s j ~ N m M m s p a a p p p p p p d d d f 5 p a a M L g a g g j n n j a a d g g g g g g j j j v v v j j T L N l l m N T m m l j l m m m g g g g s x x i t 2 & , , 2 2 y , , , , , , - - t $ * * # # # O . o X X $ y y % < S _ _ _ < X X u J u S : 1 = < = = = + @ + + % @ % + % , , = < < S O , < < , @ > > : 1 1 1 < < = < , + @ = S J D S < = + : = : + + @ O @ + = 1 ",
"j a 9 9 9 9 0 a k H :X4X5X:X:Xc._ T Y F z H I ^ ~ s z m k m m m N s 4 4 p s s a p p p p 9 9 p p f p 9 p a f p p p p p p p p p p d d p p d d d p d d a d g g f p c g d p p d d g d d p p W B n c p d d p f n c p 5 p a f s g g f f p g a a f p a g a g a 4 a n a s p p g n j s s a g s g p a M l M L m s p a f p f f f f d f f d a g j p p ~ 2.n p a g f g g g f p a g g g g g g g g j j j g g g a s n M L L M m M m n j m M m j g g l j x x z x i t $ $ , , < S y < y , t , - & - $ $ & * # # O X X # # i y A , y F R S S < @ > = F = < + = = = = = % + + + @ @ = = + @ % = < S S D @ S S < < % O O + < 1 = = = % < , + @ = S G 1 @ : < + = S = + + + + @ + = < ",
"0 0 0 0 0 9 9 8 H q I 5.<X5X:X) R F z i k z m P ~ j I L m m N N N a 4 4 a k a 9 p 9 p p 9 p p p v g a a a a p p a p p p p p p p p d p p d d d d g g g g g g g a p p p p 5 p d g g p d v W c p g d p p p d c v p 9 d f f f s f 9 a p g a f g f g a a g g p f n g f a a g s g s n g j g j a s n l M M N n g s f a f f f f g g g g s f g s a n ~ ~ g g f f f f g g p a g g g g g g g g g g g s g s a s n M N N M m m n v v m L I n j j j k x x i i t , & y D D u u y < y , t , - & $ $ & $ X X # * X o & q F y F y $ , A = < - $ @ + D = , = = = = = = @ @ @ + + @ = = % + = < < u S S = u < < < = O + = S < 1 < = 2 < 1 : + , D J : O < D + : S = + + : + O @ = < ",
"9 9 p a f f 0 0 0 0 q Y 5.:Xc._ I k z z z z s k m k L E m m m m l a 4 9 a a 9 4 9 9 9 9 9 9 p p g g a p a f f g f a p p p p p p d p p p d d d d g g g g g g g a 5 5 5 5 5 5 p p d d n n N p d d g p 5 5 5 g c 5 p f g a a g g a f p s f f g f g p f g g f f s g f f s s g g g n s s j s j l g n m m N M N v g f f f f f f g g g g p p j g p n ! E n g f g a a f p g g c g g g g g g g g g g g s m l n n g l M L v m m m N L L m j x x x x i t & $ $ & A G G S < , , , , t , - & * * $ * X X # * X # q i F t A y @ O < u S @ O + = < = = = = = = = @ @ O @ + + @ @ % = , S D < % S < = = , = , = O : + u = = 1 : < < < = + 1 D F + : < < O + = + = @ + @ O + < - ",
"0 9 9 p a g f a 8 H q q _ :X5.G T F I z z s r s 8 a T ~ m m z N s r 9 9 p 9 4 4 9 9 9 9 9 9 p p p p 9 9 p f g v f a p p p p p p p p p p d d d p d a a d g g d p p 5 5 5 5 5 5 p 5 n E g p d n c V d 6 4 4 d c 5 p f g a f v v j f p f p p f p p 9 a g s f p 9 a f f a f s j g s a g j a l n p l n n N U U n g f a a f f d f f f p n g 9 p n M M 2.M g f f p 9 9 f g v n g g g g g g g g g g g s l s l l s g M M M U E M m m m z z x k x i t & * & $ @ - A S < < = = - , , , - & * # * # X # * X X * t F i t u t X O < , < @ @ = = = = = = = % @ @ @ O @ @ + + @ + % + = D D < @ S = < % , = < < 1 S ; S : = < = < < < = @ @ 1 1 : 1 = X O + + O , @ O O O : < - ",
"0 9 0 a 9 9 9 8 0 k k i :X:Xl.R I z z z z s a a 8 j ~ ~ l s l M a p p 9 4 9 p a s a p 9 p p p p p p a a a a a a s p p a a p p 9 5 4 p a d p p p 5 5 5 p d h a d p p 5 5 5 5 5 5 d n B c d c c d g d 5 4 5 p p p 4 c M f g f j s f j g a f a p p a f f f f f f g g g f f s g j j g s s s g g g s s s M M ~ m n s a f f f p d d d M m g a g f a f N <.M 9 4 4 a f g g g g g g c n d g g f p f v s l j g s g n n m L U I l j m I I z i r i i i & & * * $ = , < , 1 , , - - - & * & # * $ # X @ * X # H H Y R H F t . . - A D < + < < < < < , = = % @ @ % % + @ @ + @ , S < G J < + = O @ S = < u , = ; ; ; = = = = S S < + = O O = + + = = @ O O O @ > O @ O = A y ",
"0 9 0 p 9 9 9 8 8 0 k H x.x.l./ I z k k j s a a a m ~ T l l l j a p p a 9 4 9 j a a p p p p p p a p p p a a a a a p p a a a a p 5 5 p g d p 5 p p 5 p p a a d 5 p p p p p p p p 6 c v f d c c d d d 5 5 5 p p p 9 v n j f s f f p g g f g g p p a f f g g g f f f f a f g n n j s s s g j l l l a p f s E U M f a a f f g g c c n M n a p a p p g ~ E g p a p d g g g g g n n N p 5 p p 9 p g s h s l n n n n j j m L I L L z x i i i i i t & $ $ $ % = , < , , , , - & & $ # * * # # # # @ @ @ y R H R F G - . X X X u D < < < F , @ , < = @ = O O @ + + + + + @ < < D J F S = = = = < @ < u , ; ; = ; = = ; < S 1 1 = 1 O O 1 + + = = = + % @ + O @ @ O - F F ",
"0 9 9 p 5 9 p a a a k 0 R R ^ ^ Y x s k j s a a j L ~ m l m l 4 s j s p 4 4 a n p p a a a p p p f a a a a a a p s p a s a a a a p p a s g p 5 p p p 5 p d d 9 5 9 p p p p p d d 6 d c d c v c d d p p 5 5 5 p d d n n m p g p f 9 g v g v v g a f f f g g g g a g f a s j n m n g s s s j l n n a a a p M ~ E v g a d d d g c c f M N f 9 d f f p n Q v p g 9 d g g g g g n n M g 5 5 a p p g g h s l n n n j j k m m z z z z z t i i i t t * $ % & - - < < < < , , , & $ $ # # # X X X * O O $ u F t D A D O . . . . y < @ S S D < % % = , = + O O @ + + @ @ @ + D J J G < @ + = = + + + D D = ; ; ; = = ; < u S @ : < = > @ 1 + @ : = = = = @ $ @ $ @ O = A S ",
"0 9 9 0 4 4 p a k a 0 8 i r x I I z s s k s a a L E T j n n s 4 j N j 4 4 s m j 9 p f f p p p a f a g g a a p p a 9 p a a a s a a p p g g p p p p p 5 p d p 5 5 p 9 9 5 5 5 5 5 5 9 d 9 d c c d d p p p 5 5 p d f v n N a a p a 9 g j s j n g g g f a f g g g f f f f g g j n m j g s s s g g j a j j s j m M M N v f d p p p p f N N g p p p f 9 f U N f p 9 d g h h h h g c n N g d g f g g g l j g g g j n n n z z k i i i i x x F F i & $ & - - , < y < < < , , , & * # # X X O # # O O O % D J F & y , O X X X O < @ O S D , < , = = 1 = + @ + + + + + + + = D ' G D D > > % + O O @ S D = = ; ; = = ; < < 1 O + 1 : O @ = + @ + = = = = O O @ = @ O $ - @ ",
"9 4 9 d 5 4 9 a a 0 a r k r r x k k a a s k k j ~ E L j N s p r l m s 4 9 n m a p a f a 9 9 a f a g g s a p a a 5 4 4 9 p a s p s p 9 p a a p 5 5 5 5 p d d 9 5 5 5 5 5 4 4 4 4 4 5 6 5 6 9 d 9 9 p d d 6 5 p g f g M N g 9 f a 9 f f p f g g g g g a p f g g f a a s g a a s n n j g s s s s s f j j j p p g M E N c f d p p p c n v c f 9 9 f 9 a v E N 9 p d g a d d p a h g n g g f a v n g n l g s s s l m j j k k i i t 2 F K K x t & $ $ - , y < y < < < < - , & # X X X . # * X X O , u J _ J @ S G A $ = % < - O $ S < = + + = , + + , = = = + + + % = + = J S G _ @ > @ % = @ @ + < = = ; < ; = ; ; ; + O + = O @ + + : @ @ % % = + > X O + + $ = = O ",
"9 8 a g p 4 9 p 0 8 0 r a r r s r r a a k j m m E M N j L r p g s r 9 f n j a 9 a a a p 9 p f g p a g g s a a a a 4 9 p p a a p a p 8 4 9 s s 5 5 5 5 p d d 9 5 5 5 5 4 4 4 4 4 4 4 6 6 6 6 6 d d p d d 6 4 5 g d f E M g 9 g p p a p a g g g m j s a p p f f g a s j g a p s M n n j g g j g g j j f j p a a v M n g g g d p d f f d f c d p g 0 d p W ~ f f d d d p 5 p d h g f a a p p n N j l l g s s j j z j k i i i t 2 2 2 D F 2 $ 2 - * - - , , , < < < S , t t # X X X X X # X . $ D F ` J 1 % F J u < = - A $ > : < < = + O @ % = = = < = % + + % % = O = < D J J < + + : = + % @ = , : ; < ; = = = = @ : : + O + + O + + + + + = + X O O @ @ $ $ @ O ",
"8 9 g n g 5 4 9 a 8 8 8 8 r r r r r r a s j m m N m N j T r p n r 4 9 n m s 9 p a a a p p p f f p p a s s s a p j a s s p 9 r 8 9 a p 4 4 j n s 5 5 5 d d d 9 5 5 5 4 4 5 5 5 5 4 5 9 9 6 6 6 d d p p d 9 4 9 g 9 v ~ E f p j p p p p j N n n U g s f p p p a f a f g g p p g M n n j j j j j j j j a j f v g f g f f c g d p d 9 9 9 p c c f v f p 9 n W n p p d d p 5 p d h g d p p a a g n j l l j s s k j j z i r & 2 , < u u u u 2 % 2 , - - - - = , u D F D , y u * . X X X . X # X , F D _ ` = 1 D = @ , < A S = O + < ; @ % @ O O 1 < = , = = % % % % + @ S S S D < = + % + % O = = , , : ; < ; = = = = + ; : + O = @ O @ @ + @ @ % $ O O @ @ @ @ O > X ",
"8 9 v M c 5 4 5 a 8 r a r s r 4 r 8 8 8 a s k s j v N g T p p n 4 4 a n n a a a f a a p p p f f p p p a s s a 9 a p s s p 4 r p 4 s s 4 4 n B N p 5 p d d d 5 5 5 5 5 4 5 4 4 4 4 4 5 9 6 5 6 d d p p d 9 4 5 g 5 n ~ ! p f g p 9 5 p n M n n E g s f a p p p a p 9 p p 9 9 s M n n l l l j j s s n s j f m s p p p f n c d 9 p 9 d p 9 f g f f g 9 5 5 N N 4 5 h d p 5 5 d h g n d g c g g j l m l g a a s j z z r q & & 2 < < R F u x u % & A & % $ % , D J _ D % , u # . X X X   . * * , D 1 D ) J : S O S D R R y , y ; < @ O O @ + + @ = u , = = = = % @ @ + D F = = < + @ @ = , O + @ = < + ; < ; = = ; = + < : : @ = O @ + + % + O + % O O O @ $ @ X . > "
};
