/* XPM */
static char *_656ee5f5c494807a4e16e5271fb9ee9OV3CnqOX8lcwridP[] = {
/* columns rows colors chars-per-pixel */
"500 500 256 2 ",
"   c #0A0B0B",
".  c #160B0C",
"X  c #0C0E12",
"o  c #0E1215",
"O  c #131315",
"+  c #14151A",
"@  c #1B1A1D",
"#  c #181719",
"$  c #14100F",
"%  c #251A18",
"&  c #301010",
"*  c #27231C",
"=  c #36271B",
"-  c #1C1D22",
";  c #161B26",
":  c #121A2A",
">  c #231E23",
",  c #371D22",
"<  c #1C2329",
"1  c #1C2535",
"2  c #15372B",
"3  c #232225",
"4  c #24252A",
"5  c #2A2829",
"6  c #372A27",
"7  c #3A352A",
"8  c #272B36",
"9  c #2C3238",
"0  c #383638",
"q  c #302F30",
"w  c #16241B",
"e  c #4B1213",
"r  c #452C27",
"t  c #47362B",
"y  c #453B36",
"u  c #56372F",
"i  c #673430",
"p  c #55221F",
"a  c #2A4937",
"s  c #4B442C",
"d  c #53482D",
"f  c #4A4438",
"g  c #544B34",
"h  c #544C3B",
"j  c #5A4D3B",
"k  c #574836",
"l  c #5C533C",
"z  c #595239",
"x  c #4C5437",
"c  c #62543D",
"v  c #65593D",
"b  c #6B4938",
"n  c #696730",
"m  c #2B3345",
"M  c #383B45",
"N  c #263047",
"B  c #1D2A43",
"V  c #443E43",
"C  c #79394E",
"Z  c #3A464C",
"A  c #266655",
"S  c #484748",
"D  c #554C45",
"F  c #5C5442",
"G  c #5A5449",
"H  c #494B55",
"J  c #595756",
"K  c #4E5153",
"L  c #635543",
"P  c #645A44",
"I  c #6A5C44",
"U  c #645B4B",
"Y  c #695A4A",
"T  c #765948",
"R  c #645C54",
"E  c #665D57",
"W  c #6E504C",
"Q  c #6C624B",
"!  c #6A6247",
"~  c #74654C",
"^  c #6B635C",
"/  c #696257",
"(  c #766957",
")  c #7C725B",
"_  c #6F7353",
"`  c #595B68",
"'  c #4F566B",
"]  c #635E65",
"[  c #74546A",
"{  c #5C6576",
"}  c #5A646B",
"|  c #696568",
" . c #756B66",
".. c #7C7269",
"X. c #686977",
"o. c #736D75",
"O. c #787479",
"+. c #6D717B",
"@. c #546656",
"#. c #8C533A",
"$. c #873D53",
"%. c #863A4E",
"&. c #B73C45",
"*. c #99565C",
"=. c #8C4C53",
"-. c #AA4F53",
";. c #85745B",
":. c #8D6B56",
">. c #AC7255",
",. c #955567",
"<. c #A35C66",
"1. c #B05868",
"2. c #867867",
"3. c #877A76",
"4. c #92716C",
"5. c #A6646A",
"6. c #AD7071",
"7. c #CB5A5C",
"8. c #AE3138",
"9. c #2A996F",
"0. c #5C8F71",
"q. c #76833C",
"w. c #968678",
"e. c #918570",
"r. c #AD8F74",
"t. c #A49A5F",
"y. c #CC9172",
"u. c #D39670",
"i. c #AEAD4F",
"p. c #676D85",
"a. c #6C7387",
"s. c #737583",
"d. c #747A8C",
"f. c #797A88",
"g. c #6B7695",
"h. c #757D95",
"j. c #6E6E87",
"k. c #557EB4",
"l. c #517DAF",
"z. c #5B6C8B",
"x. c #837D86",
"c. c #927589",
"v. c #B37984",
"b. c #D47886",
"n. c #37B689",
"m. c #7C8294",
"M. c #7C859C",
"N. c #78849B",
"B. c #7B828D",
"V. c #5B85BA",
"C. c #5D8ABD",
"Z. c #5781B6",
"A. c #5C86AA",
"S. c #7D88A3",
"D. c #628CBE",
"F. c #6A8EBA",
"G. c #6E92B9",
"H. c #56B08D",
"J. c #50CE9F",
"K. c #5E8CC1",
"L. c #638EC1",
"P. c #698FC1",
"I. c #6491C3",
"U. c #6B94C4",
"Y. c #6E99C8",
"T. c #729AC6",
"R. c #739CCA",
"E. c #789BC9",
"W. c #749AD1",
"Q. c #76A1CC",
"!. c #7CA2CE",
"~. c #7BA4C8",
"^. c #7EA4D1",
"/. c #7EA9D1",
"(. c #3CC795",
"). c #88838A",
"_. c #968887",
"`. c #858898",
"'. c #948C96",
"]. c #98939A",
"[. c #939390",
"{. c #AA958C",
"}. c #B6A58D",
"|. c #838CA3",
" X c #858DA7",
".X c #8592AB",
"XX c #8A94AC",
"oX c #8A93A7",
"OX c #9698A8",
"+X c #8D9AB3",
"@X c #8997B2",
"#X c #939DB4",
"$X c #958DA3",
"%X c #98A5B9",
"&X c #95A3B0",
"*X c #A5ABBB",
"=X c #AFAEB4",
"-X c #A39CA4",
";X c #D1AB8E",
":X c #E9B294",
">X c #D7AC9F",
",X c #F1C7AC",
"<X c #DDC3AC",
"1X c #84A7CD",
"2X c #81A6D2",
"3X c #84ABD4",
"4X c #8AAED4",
"5X c #89ADD9",
"6X c #8CB1D5",
"7X c #8CB2DB",
"8X c #88B3D8",
"9X c #93B3D4",
"0X c #92B5DD",
"qX c #9AB8D8",
"wX c #9AAFC8",
"eX c #A4AEC1",
"rX c #ACB4C4",
"tX c #AAB6C9",
"yX c #B3BBCB",
"uX c #B6BAC8",
"iX c #A4BBD5",
"pX c #B5BDD1",
"aX c #95BAE1",
"sX c #9BBDE4",
"dX c #94B6E0",
"fX c #8EB8E0",
"gX c #90ADD4",
"hX c #C7BCC7",
"jX c #BBC1CE",
"kX c #A8C2DC",
"lX c #BDC4D2",
"zX c #B8C6DA",
"xX c #9EC1E5",
"cX c #A3C3E5",
"vX c #A4C4E9",
"bX c #ABC8E9",
"nX c #B2CCEB",
"mX c #B6CBE4",
"MX c #B9D1EC",
"NX c #BBD3F2",
"BX c #B4CEF0",
"VX c #9FC0DF",
"CX c #C6CAD7",
"ZX c #CDD1DC",
"AX c #CECDD4",
"SX c #C9D4E7",
"DX c #D6D9E5",
"FX c #C4D9F4",
"GX c #C7D0E5",
"HX c #DCE3EE",
"JX c #E5E5EC",
"KX c #E8EAF4",
"LX c #F5F5FA",
"PX c #F0EFF6",
"IX c #EAD6D7",
"UX c #9CC9A9",
/* pixels */
"l.k.k.k.k.k.k.k.k.l.l.l.l.k.k.k.k.k.k.k.k.k.k.k.l.l.k.k.k.k.k.k.l.l.k.k.k.k.k.l.k.k.k.k.k.k.k.k.Z.Z.Z.Z.Z.Z.Z.Z.k.k.k.k.k.k.k.k.Z.Z.Z.Z.Z.Z.Z.Z.Z.Z.Z.Z.Z.Z.Z.Z.Z.Z.k.Z.Z.Z.Z.Z.Z.Z.Z.Z.Z.Z.Z.Z.Z.Z.Z.Z.Z.Z.Z.Z.Z.Z.V.V.V.Z.Z.Z.Z.Z.Z.Z.Z.Z.Z.Z.Z.Z.Z.Z.Z.V.V.V.V.V.V.V.V.V.V.V.V.V.V.V.V.D.D.D.D.D.D.V.D.D.D.D.D.D.D.D.D.D.D.D.P.P.F.F.P.U.T.T.G.G.F.F.F.G.U.U.U.U.G.U.U.P.L.D.Y.Y.F.F.U.Y.Y.U.U.U.G.F.G.U.T.E.U.G.R.T.U.T.G.T.E.U.T.T.U.U.U.2XT.T.T.U.U.T.E.T.T.T.T.T.T.T.T.E.T.E.1X1X1XE.E.E.E.E.E.E.E.E.E.E.E.E.E.E.!.E.E.E.E.E.E.E.E.1X!.!.E.!.E.E.E.E.E.Q.^.^.^.2X2X2X2X2X1X1X1X2X1X1X2X2X2X2X2X2X2X2X2X2X2X2X2X2X2X2X3X3X3X3X3X3X3X5X3X3X3X3X3X3X3X3X3X3X4X4X4X4X4X5X5X5X4X4X4X7X7X7X0X0X5X5X0X0X0X0X0X0X0X0X0X0X0X0X0X0X0XdXdXdXdXdXdXdX0X0X0XdX0X0X0XaXdXdXaXaXaXaXaXaXaXaXaXaXaXaXsXsXsXsXsXsXsXsXsXsXsXsXsXsXsXxXxXxXcXsXxXvXvXvXvXvXxXxXxXxXvXvXvXvXvXvXvXbXbXbXbXbXbXbXbXbXbXbXbXbXbXbXbXbXbXbXbXbXbXbXbXnXnXnXnXnXnXnXnXnXnXnXnXnXnXnXBXBXBXBXBXMXBXBXBXMXMXMXMXMXMXMXMXNXNXNXNXNXNXNXNXNXNXNXNXNXNXNXNXNXFXFXFXFXFXFXFXFX",
"l.k.k.k.k.k.k.k.l.l.l.l.k.k.k.k.k.k.k.k.k.k.k.k.l.l.k.k.k.k.k.k.l.l.k.l.k.k.k.k.k.k.k.k.k.k.k.k.k.k.k.k.k.k.k.k.k.k.k.k.k.k.k.k.k.k.Z.Z.Z.Z.Z.Z.Z.Z.k.k.k.k.Z.Z.Z.Z.k.k.Z.Z.Z.Z.Z.Z.Z.Z.Z.Z.Z.Z.Z.Z.Z.Z.Z.Z.Z.Z.Z.Z.V.V.Z.Z.Z.Z.Z.Z.Z.Z.V.V.Z.V.Z.Z.Z.Z.V.V.V.V.V.V.V.V.V.V.C.V.V.V.V.V.C.D.D.D.D.D.D.D.D.D.D.L.D.D.D.D.D.D.D.D.P.P.F.F.P.U.T.T.G.G.U.G.G.G.U.T.T.U.U.U.U.P.L.L.Y.U.I.F.U.Y.Y.U.U.U.F.F.G.U.T.E.U.G.R.T.U.T.F.T.E.U.T.U.U.U.U.2XT.T.T.U.T.R.E.T.T.T.T.T.T.T.E.E.T.E.1X1X1XE.E.E.E.E.E.E.E.E.E.E.E.E.E.E.!.E.!.E.E.E.E.E.E.1X!.!.E.E.E.E.Q.Q.E.E.!.^.^.2X2X2X2X2X1X2X2X2X2X1X2X2X2X2X2X2X2X2X2X2X2X2X2X2X2X3X3X3X3X3X3X3X5X5X5X5X3X3X3X3X3X3X3X3X4X4X4X4X4X5X5X5X4X4X4X7X7X7X0X0X5X5X0X0X0X0X0X0X0X0X0X0X0X0X0X0X0XdXdXdXdXdXdXdX0X0XdXdX0X0X0XaXdXaXaXaXaXaXaXaXaXaXaXaXaXaXsXsXsXsXaXaXsXsXsXsXsXsXsXsXsXxXxXcXsXsXcXcXvXvXvXvXxXxXvXvXvXvXvXvXvXvXvXvXbXbXvXvXbXbXbXbXbXbXbXbXbXbXbXbXbXbXbXbXbXbXbXnXnXnXnXnXnXnXnXnXnXnXnXnXnXnXBXBXBXBXMXMXBXBXBXMXMXMXMXMXMXMXMXNXNXNXNXNXNXNXNXNXNXNXNXNXNXNXNXNXFXFXFXFXFXFXFXFX",
"l.k.k.k.k.k.k.k.l.l.l.l.k.k.k.k.k.k.k.k.k.k.k.k.k.k.k.k.k.k.k.k.l.l.l.l.l.l.k.l.k.k.k.k.k.k.k.k.k.k.k.k.k.k.k.k.k.k.k.k.k.k.k.k.k.k.k.k.Z.Z.Z.Z.Z.Z.k.Z.k.k.Z.Z.Z.Z.Z.k.Z.Z.Z.Z.Z.Z.Z.Z.Z.V.Z.Z.Z.Z.Z.Z.Z.Z.Z.V.Z.V.V.V.Z.Z.Z.Z.Z.Z.Z.Z.V.V.V.V.V.V.Z.Z.V.V.V.V.V.V.V.V.C.C.C.C.V.V.V.V.C.D.D.D.D.D.D.D.D.D.D.L.D.D.D.D.D.D.D.D.P.P.F.F.P.U.T.T.F.G.T.T.U.U.T.E.T.T.U.U.U.U.P.L.U.U.U.F.U.Y.Y.U.U.G.F.F.G.U.T.E.U.G.R.T.U.T.U.T.E.U.T.T.U.U.U.2XU.T.T.T.T.E.E.T.T.T.T.T.T.E.E.E.T.E.1X1X1XE.E.E.E.E.E.E.E.E.E.E.E.E.E.E.!.!.E.E.!.E.!.!.E.1X1X1X!.!.!.!.!.!.!.!.!.^.^.2X2X2X2X2X2X2X2X2X2X1X1X1X2X2X2X2X2X2X2X2X2X2X2X2X2X3X3X3X3X3X3X3X3X3X3X3X3X3X3X3X3X3X5X5X4X4X4X4X5X5X5X5X4X4X4X5X7X7X0X0X5X5X0X0X0X0X0X0X0X0X0X0X0XdX0XdX0XdXdXdXdXdXdXdX0X0XdXdX0X0XaXaXaXaXaXaXdXaXaXaXaXaXaXsXaXaXsXsXsXaXaXaXsXsXsXsXsXsXsXsXxXxXvXvXsXsXsXsXvXvXvXvXvXvXvXvXvXvXvXvXvXvXvXvXvXvXvXvXbXbXbXbXbXbXbXbXbXbXbXbXbXbXbXbXbXbXnXnXnXnXnXnXnXnXnXnXnXnXnXnXnXnXBXBXBXBXMXMXBXBXBXMXMXMXMXMXMXMXMXNXNXNXNXNXNXNXNXNXNXNXNXNXNXNXNXFXNXFXFXFXFXFXFXFX",
"l.k.k.k.k.k.k.k.l.l.l.k.k.k.k.k.k.k.k.k.k.k.k.k.k.k.k.k.k.k.k.k.k.k.k.k.k.k.k.k.k.k.k.k.k.k.k.k.k.k.k.k.k.k.k.k.k.k.k.k.k.k.k.k.k.k.k.k.k.Z.Z.Z.Z.Z.Z.Z.k.k.Z.Z.Z.Z.Z.Z.Z.Z.Z.Z.Z.Z.Z.Z.Z.V.Z.Z.Z.Z.Z.Z.Z.V.V.V.Z.V.V.V.V.V.V.Z.Z.Z.Z.V.V.V.V.V.V.V.V.V.V.V.V.V.V.V.V.V.V.V.V.C.V.V.V.V.D.D.D.D.D.D.D.D.D.D.D.L.D.D.D.D.D.D.D.P.L.P.F.F.P.U.U.T.F.T.E.E.E.T.E.E.R.T.U.U.U.U.U.P.U.U.U.F.U.Y.Y.U.U.G.G.G.U.U.T.E.U.U.R.T.U.T.U.T.E.U.T.T.U.T.T.2XU.T.T.T.R.E.E.T.T.T.T.T.T.E.E.E.E.E.1X1X1X1XE.E.E.E.E.E.E.E.E.E.!.!.!.!.!.!.!.!.!.!.!.!.E.1X1X1X!.!.!.!.!.!.!.!.^.^.^.2X2X2X2X2X2X2X2X2X2X1X1X1X2X2X2X2X2X2X2X2X2X2X2X2X3X3X3X3X3X3X3X3X3X3X3X5X3X3X5X3X3X3X5X5X4X4X4X4X5X5X7X7X4X4X7X5X7X0X0X0X0X0X0X0X0X0X0X0X0X0X0X0XdXdXdXdX0XdXdXdXdXdXdXdX0XdXdXdXdXdXdXdXaXaXaXaXaXaXaXaXaXsXsXsXaXsXsXsXsXaXaXaXsXsXsXsXsXsXsXsXxXxXcXcXsXsXsXvXvXvXvXvXvXvXvXvXvXvXvXvXvXvXvXvXvXvXvXvXbXbXbXbXbXbXbXbXbXbXbXbXbXbXbXbXbXbXnXnXbXnXnXnXnXnXnXnXnXnXnXnXnXnXnXMXMXMXMXMXBXBXMXMXMXMXMXMXMXMXMXNXNXNXNXNXNXNXNXNXNXNXNXNXNXNXNXFXNXFXFXFXFXFXFXFX",
"l.k.k.k.k.k.k.l.k.k.k.Z.k.k.k.k.k.k.k.k.k.k.k.k.k.k.k.k.k.k.k.k.k.k.k.k.k.k.k.k.k.k.k.k.k.k.k.k.k.k.k.k.k.k.k.k.k.k.k.k.k.k.k.k.k.k.k.k.Z.k.Z.Z.Z.Z.Z.Z.Z.Z.Z.Z.Z.Z.Z.Z.Z.Z.Z.Z.Z.Z.Z.Z.Z.V.Z.Z.Z.Z.Z.Z.V.V.V.V.Z.V.V.V.V.V.V.V.Z.Z.Z.Z.Z.V.V.V.V.V.V.V.V.V.V.V.V.V.V.V.V.V.V.V.C.V.V.C.C.D.D.D.D.D.D.D.D.D.D.D.D.D.D.D.D.P.P.P.L.L.P.F.F.G.G.T.G.T.E.E.E.E.E.E.R.T.U.U.U.U.U.U.U.U.U.G.U.U.Y.U.U.U.F.U.U.U.T.!.U.U.R.T.U.T.U.T.E.U.T.T.U.T.T.2XU.U.T.T.E.E.E.T.T.T.T.T.R.E.E.E.E.1X1X1X1X1XE.E.E.E.E.E.E.E.E.E.E.E.E.E.!.!.!.!.!.!.E.!.E.!.!.!.!.!.!.!.!.!.!.!.!.!.^.2X2X2X2X1X2X2X2X2X2X2X2X2X2X2X2X2X2X2X2X2X2X2X2X2X3X2X2X3X3X3X3X3X3X5X5X5X3X3X5X3X3X3X5X5X4X4X5X5X5X5X7X7X4X4X4X7X7X0X0X0X0X0X0X0X0X0X0X0X0X0X0X0XdXdXdXdX0XdXdXdXdXdXaXaX0X0XdXdXdXdXdXdXaXaXaXaXaXaXaXaXaXaXaXsXsXsXsXsXsXsXaXaXsXsXsXsXsXsXsXsXxXxXxXxXsXvXvXvXvXvXvXvXvXvXvXvXvXvXvXvXvXvXvXvXvXvXvXbXbXbXbXbXbXbXbXbXbXbXbXbXbXbXbXbXbXbXbXbXbXnXnXnXnXnXnXnXnXnXnXBXnXnXMXMXMXMXMXMXBXBXMXMXMXMXMXMXNXNXNXNXNXNXNXNXNXNXNXNXNXNXNXNXNXNXNXNXNXNXFXFXFXFXFXFX",
"l.k.k.k.k.k.k.l.k.k.k.k.l.k.k.k.k.k.k.k.l.l.k.k.k.k.k.k.k.k.k.k.k.k.k.k.k.k.k.k.k.k.k.k.k.k.k.k.k.k.k.k.k.k.k.k.k.k.k.k.k.k.k.k.Z.Z.Z.Z.Z.Z.Z.Z.Z.Z.Z.Z.Z.Z.Z.Z.Z.Z.Z.Z.Z.Z.Z.Z.Z.Z.Z.Z.V.V.V.Z.Z.Z.Z.V.V.V.V.V.Z.V.V.V.V.V.V.V.Z.Z.Z.V.V.V.V.V.V.V.V.V.V.V.V.V.C.C.C.C.C.C.C.C.C.C.C.C.D.D.D.D.D.D.D.D.D.D.D.D.D.D.D.D.L.P.P.P.L.L.L.F.F.G.G.T.E.E.E.E.E.E.E.T.T.T.U.U.U.U.U.U.U.U.U.U.U.U.Y.U.Y.G.F.U.U.U.T.!.U.U.R.T.U.T.U.T.R.T.R.T.U.T.T.2XU.U.T.T.T.E.E.T.T.T.R.R.R.E.E.E.E.1X1X1X1X1XE.E.E.E.E.E.~.~.E.E.E.E.E.E.!.!.!.!.E.E.E.!.E.!.!.!.!.!.!.!.!.!.!.!.!.!.^.2X2X2X1X1X2X2X2X2X2X2X2X2X2X2X2X2X2X2X2X2X2X2X2X2X3X3X3X3X3X3X3X4X4X4X4X4X5X5X5X3X3X3X5X5X4X4X5X5X6X5X7X7X4X4X7X7X7X0X0X7X0X0X0X0X0X0X0X0X0X0X0X0XdXdXdXdX0XdXdXdXdXaXaXaX0X0XdXdXdXdXdXaXaXaXaXaXaXaXaXaXaXaXaXsXsXsXsXsXsXsXsXsXsXsXsXsXsXsXsXsXsXxXxXvXvXvXvXvXvXvXvXvXvXvXvXvXvXvXvXvXvXvXvXvXvXvXbXbXbXbXbXbXbXbXbXbXbXbXbXbXbXbXbXbXbXbXbXbXbXnXnXBXnXnXnXnXnXnXBXBXnXnXMXMXMXMXMXMXMXMXMXMXMXMXMXMXNXNXNXNXNXNXNXNXNXNXNXNXNXNXNXNXNXNXNXNXNXNXFXFXFXFXFXFX",
"l.k.k.k.k.k.k.k.l.l.l.k.l.l.l.l.Z.k.l.l.l.l.k.Z.k.k.k.k.k.k.k.k.k.k.k.k.k.k.k.k.k.k.k.k.k.k.k.k.k.k.k.k.k.k.k.k.k.k.k.k.k.k.k.k.Z.Z.Z.Z.Z.Z.Z.Z.Z.Z.Z.Z.Z.Z.Z.Z.Z.Z.Z.Z.Z.Z.Z.Z.Z.Z.Z.Z.V.V.V.Z.Z.Z.V.V.V.V.V.V.V.V.V.V.V.V.V.V.Z.V.V.V.V.V.V.V.V.V.V.V.V.V.V.V.C.C.C.C.C.C.C.C.C.C.C.D.D.D.D.D.D.D.D.D.D.D.D.D.D.D.D.D.L.P.P.P.L.L.L.F.P.G.G.G.E.E.E.1X1XE.E.G.T.T.U.U.U.U.U.U.U.U.U.U.U.U.U.U.T.U.F.U.U.U.T.!.U.U.R.T.U.T.U.R.R.T.R.T.U.R.T.2XU.T.T.T.R.E.E.R.R.R.R.R.E.E.E.E.E.1X1X1X1X1XE.E.E.E.E.E.~.Q.Q.E.~.~.~.~.Q.Q.Q.Q.E.E.E.E.E.!.E.E.^.^.!.!.!.!.!.!.!.!.^.2X2X2X1X1X2X2X2X2X2X2X2X2X2X2X2X2X2X2X2X3X3X3X3X3X3X3X3X3X3X3X3X3X4X4X4X4X5X5X5X3X3X5X5X5X4X4X5X5X8X5X7X7X7X7X7X7X7X0X7X7X0X0X0X0X0X0X0X0X0X0X0X0X0XdXdXdX0XdXdXdXdXdXdXaX0XdXdXdXdXdXaXaXaXaXaXaXaXaXaXaXaXaXaXsXsXsXsXsXsXsXsXsXsXsXsXsXsXsXsXsXxXxXvXvXvXvXvXvXvXvXvXvXvXvXvXvXvXvXvXvXvXvXvXvXvXbXbXbXbXbXbXbXbXbXbXbXbXbXbXbXbXbXbXbXbXbXbXbXnXnXBXBXnXnXnXnXnXnXBXBXnXnXMXMXMXMXMXMXMXMXMXMXMXMXMXMXNXNXNXNXNXNXNXNXNXNXNXNXNXNXNXNXNXNXNXFXFXFXFXFXFXFXFXFX",
"l.k.k.k.k.k.k.k.l.l.l.l.l.l.l.l.Z.Z.l.l.l.l.Z.Z.k.k.k.k.k.k.k.k.k.k.k.k.k.k.k.k.k.k.k.k.k.k.k.k.k.k.k.k.k.k.k.k.k.k.k.k.k.k.k.k.Z.Z.Z.Z.Z.Z.Z.Z.Z.Z.Z.Z.Z.Z.Z.Z.Z.Z.Z.Z.Z.Z.Z.Z.Z.Z.Z.Z.V.V.V.Z.Z.V.V.V.V.V.V.V.V.V.V.V.V.V.V.V.V.V.V.V.V.V.V.V.V.V.V.V.V.V.V.V.C.C.C.C.C.C.C.C.C.C.D.D.D.D.D.D.D.D.D.D.L.L.D.L.D.D.D.L.L.P.P.P.L.L.L.F.F.G.G.U.1X1X1X1XE.E.T.G.U.U.U.U.U.U.U.U.G.U.U.U.U.U.U.U.T.U.F.U.U.U.T.!.U.U.R.T.U.T.U.R.R.T.R.T.U.R.T.2XT.T.T.T.T.E.E.R.R.R.R.R.E.E.E.E.E.1X1X1X1X1XE.E.E.E.E.E.Q.Q.Q.Q.Q.Q.E.E.Q.Q.Q.Q.E.E.E.E.E.1XE.E.^.^.!.!.!.!.!.!.!.!.!.1X1X1X1X1X2X2X2X2X2X2X2X2X2X2X2X2X2X2X3X3X3X3X2X2X3X3X3X3X3X3X3X3X3X4X4X4X5X5X5X3X3X5X5X5X4X4X5X5X8X5X7X7X7X7X7X7X0X0X7X7X0X0X0X0X0X0X0X0X0X0X0X0X0XdXdXdX0XdXdXdXdXdXdXdX0XdXdXdXdXaXaXaXaXaXaXaXaXaXaXaXaXaXsXsXsXsXsXsXsXsXsXsXsXsXsXsXsXsXsXsXvXxXvXvXvXvXvXvXvXvXvXvXvXvXvXvXvXvXvXvXvXvXvXvXvXbXbXbXbXbXbXbXbXbXbXbXbXbXbXbXbXbXbXbXbXbXnXnXnXnXBXBXnXnXnXnXnXnXBXBXnXMXMXMXMXMXMXMXMXMXMXMXMXMXMXNXNXNXNXNXNXNXNXNXNXNXNXNXNXNXNXNXNXNXNXFXFXFXFXFXNXNXNXFX",
"l.k.k.k.l.l.l.l.k.k.k.k.k.k.k.k.k.k.k.k.Z.Z.k.k.Z.Z.Z.k.Z.Z.k.k.Z.Z.Z.Z.Z.Z.k.k.k.k.k.k.k.k.k.k.Z.Z.Z.k.Z.Z.Z.Z.k.k.k.k.k.k.Z.Z.k.k.Z.k.k.k.V.V.Z.Z.Z.Z.V.V.V.V.Z.Z.V.V.Z.Z.Z.Z.Z.Z.Z.Z.Z.Z.Z.Z.Z.Z.Z.Z.Z.Z.V.V.V.V.Z.Z.Z.V.V.V.V.V.V.V.V.V.V.V.C.C.C.V.V.C.C.C.V.V.V.V.C.D.D.D.C.D.D.D.D.D.D.D.D.D.L.L.L.D.L.L.D.D.D.D.D.U.U.U.F.F.D.D.P.U.U.T.E.E.E.E.E.E.T.U.U.U.U.U.U.U.U.U.U.U.U.U.U.U.U.U.T.U.T.U.U.U.G.2XU.U.E.T.U.T.U.E.U.U.T.U.T.U.2XE.E.T.T.R.E.E.R.R.T.R.T.R.E.E.E.E.3X1X1XE.E.!.E.E.E.E.E.E.!.!.Q.Q.Q.E.E.E.!.E.E.E.E.E.E.E.!.!.Q.Q.!.!.!.!.!.!.!.^.2X2X2X2X2X2X2X2X2X2X2X2X2X2X2X2X2X2X2X2X2X2X2X2X3X3X3X3X3X3X3X3X4X4X4X4X5X5X4X4X3X3X3X3X3X5X5X5X5X5X5X5X5X5X5X5X7X7X7X7X7X7X0X7X7X7X7X7X0X0X0X0X0X0X0X0XdXdX0X0X0X0X0X0X0X0X0X0XdXdXdXdXaXaXaXaXdXdXdXaXaXaXaXsXsXsXsXsXsXsXsXsXsXaXsXsXsXsXsXsXxXxXxXxXcXcXcXxXsXsXcXvXvXvXcXcXvXvXvXvXvXvXvXbXcXvXvXbXvXvXbXbXbXbXbXbXbXbXbXbXbXbXbXbXbXbXbXnXnXnXnXnXnXnXBXBXnXnXBXBXBXBXBXMXnXMXMXBXnXMXBXBXMXMXMXNXNXNXNXNXNXNXNXNXNXNXNXNXNXNXNXNXNXNXNXNXNXNXNXFXFXFXFXFXFXFXFXFX",
"l.k.k.k.l.l.l.l.k.k.k.k.k.k.k.k.l.l.k.k.Z.Z.k.k.Z.Z.Z.Z.Z.Z.k.k.Z.Z.Z.Z.Z.Z.k.k.k.k.k.Z.k.k.k.k.Z.Z.Z.k.Z.Z.Z.Z.k.Z.Z.Z.Z.Z.Z.Z.k.Z.Z.Z.Z.Z.Z.Z.Z.Z.Z.Z.Z.Z.Z.Z.Z.Z.V.V.Z.Z.Z.Z.Z.Z.Z.Z.Z.Z.Z.Z.Z.V.V.V.V.V.V.V.V.V.Z.Z.V.V.V.V.V.V.V.V.V.C.V.C.C.C.C.V.V.C.C.C.V.V.V.C.C.D.D.D.D.D.D.D.D.D.D.D.D.D.L.L.L.L.L.L.D.D.D.D.D.U.U.U.F.F.D.D.P.U.U.T.E.E.E.E.E.T.U.U.U.U.U.U.U.U.U.U.U.U.U.U.U.U.U.U.T.U.T.U.U.U.G.2XU.U.E.T.U.T.U.E.U.U.T.U.T.U.2XE.R.T.T.R.E.E.R.R.T.T.R.R.E.E.E.E.1X1X1XE.E.E.E.E.E.E.E.E.!.!.!.Q.E.E.E.!.!.E.E.E.E.E.!.!.!.!.!.!.!.!.!.!.!.!.!.^.2X2X2X2X2X2X2X2X2X2X2X2X2X2X2X2X2X2X2X2X2X2X2X2X3X3X3X3X3X3X3X3X4X4X4X4X5X5X4X4X3X3X3X3X5X5X5X5X5X5X5X5X5X5X5X5X0X0X7X0X7X7X7X7X7X7X7X7X0X0X0X0X0X0X0XdXdXdX0X0X0X0X0X0X0XaXdXdXaXdXdXaXaXaXaXaXdXdXaXaXaXaXaXsXsXsXsXsXsXsXsXsXsXsXsXsXsXsXsXsXxXxXxXvXcXcXsXxXsXsXcXvXvXvXcXcXvXvXvXvXvXvXvXbXvXvXvXbXvXvXbXbXbXbXbXbXbXbXbXbXbXbXbXbXbXbXnXnXnXnXnXnXnXBXBXBXnXnXBXBXBXBXMXMXMXMXMXMXBXMXBXBXMXMXMXNXNXNXNXNXNXNXNXNXNXNXNXNXNXNXNXNXNXNXNXNXNXNXFXFXFXFXFXFXFXFXFXFX",
"l.l.k.k.l.l.l.l.k.k.k.k.k.k.k.k.l.l.l.l.k.k.k.k.Z.Z.Z.Z.Z.Z.k.Z.k.k.Z.Z.Z.Z.Z.Z.Z.k.k.Z.k.k.k.k.Z.Z.k.k.Z.Z.Z.Z.Z.Z.Z.Z.Z.V.Z.Z.Z.Z.Z.Z.Z.Z.Z.Z.Z.Z.Z.Z.Z.Z.Z.Z.Z.V.V.V.V.Z.V.Z.Z.Z.Z.Z.Z.Z.Z.Z.V.V.V.V.V.V.V.V.V.V.V.V.V.V.V.V.V.V.V.V.V.C.V.V.C.C.V.V.V.C.C.C.C.C.V.C.C.D.D.D.D.D.D.D.D.D.D.D.D.D.L.L.L.L.L.L.D.D.D.D.D.P.U.U.F.F.L.D.I.U.U.T.E.T.T.T.T.T.U.U.U.U.U.U.U.U.U.U.U.U.U.U.U.U.T.T.U.U.T.U.U.U.G.2XU.U.E.T.U.T.U.E.U.U.T.U.T.U.3XE.T.T.T.E.E.E.R.R.T.T.R.R.E.E.E.E.1X1X1XE.E.E.E.E.E.E.E.E.!.!.E.Q.Q.Q.Q.!.!.!.E.!.E.E.!.!.!.!.^.^.!.!.!.!.!.!.^.^.2X2X2X2X2X2X2X2X2X2X2X2X2X2X2X2X2X2X2X2X2X2X2X2X3X3X3X3X3X3X3X3X4X4X5X5X5X4X4X4X3X3X3X3X5X5X5X5X5X5X5X5X5X5X5X5X7X7X7X0X7X7X7X0X0X0X0X0X0X0X0X0X0X0X0XdX0X0X0XdX0X0X0X0X0X0X0X0XaXaXaXaXaXaXaXaXaXaXaXaXaXaXaXaXsXsXsXsXsXsXsXsXaXsXaXsXsXsXsXxXxXxXxXvXxXxXsXxXsXsXcXvXvXvXvXcXvXvXvXvXvXvXvXbXvXvXvXbXvXvXvXvXbXbXbXbXbXbXbXbXbXbXbXbXbXbXnXnXnXnXnXnXnXBXBXBXnXnXnXnXBXBXMXMXMXMXMXMXMXMXMXMXMXMXMXNXNXNXNXNXNXNXNXNXNXNXNXFXNXNXNXNXNXNXNXNXNXFXFXFXFXFXFXFXFXFXFXFX",
"Z.Z.Z.Z.Z.k.k.k.k.k.k.k.k.k.k.k.l.l.l.l.k.k.k.k.Z.Z.Z.Z.Z.Z.k.k.k.Z.Z.Z.Z.Z.Z.Z.Z.Z.Z.Z.k.Z.Z.k.Z.Z.Z.Z.Z.Z.Z.Z.Z.Z.Z.Z.V.V.V.Z.Z.Z.Z.Z.Z.Z.V.Z.Z.Z.Z.Z.Z.Z.Z.Z.Z.V.V.V.V.V.V.Z.Z.Z.Z.Z.Z.Z.Z.V.V.V.V.V.V.V.V.V.V.V.V.V.V.V.V.V.V.V.V.V.C.C.V.V.C.C.V.V.V.C.C.C.C.V.V.C.C.D.D.D.D.D.D.D.D.D.D.D.D.D.L.L.L.L.L.L.D.D.D.P.F.P.P.U.F.F.L.L.U.U.U.T.E.T.T.U.U.T.U.U.U.U.U.U.U.U.U.U.U.U.U.U.U.U.U.T.U.U.T.U.U.U.G.2XU.U.E.T.U.T.U.E.U.T.T.U.T.T.3XE.T.U.T.E.E.E.R.R.R.T.R.E.E.E.E.1X1X1X1XE.E.E.E.E.Q.Q.E.E.!.!.E.E.Q.Q.!.!.!.!.!.!.!.!.!.!.^.^.^.^.!.!.!.!.^.^.^.^.!.^.^.^.2X2X2X2X2X2X2X2X2X2X2X2X2X2X2X3X3X3X3X/.3X3X3X3X3X3X3X4X3X3X3X3X3X3X3X3X5X5X3X5X5X5X5X5X5X5X5X5X5X5X5XgX7X0X0X0X7X0X0X0X0X0X0X0X0X0X0X0X0X0X0XdX0XdXdXdX0X0X0X0XdXdX0X0XaXaXaXaXaXaXaXaXaXaXaXaXaXaXaXaXsXsXsXsXsXsXsXsXsXsXsXsXsXxXsXsXxXvXvXvXxXvXvXxXsXcXvXvXvXvXvXvXvXvXvXvXvXvXvXbXvXvXbXbXvXvXbXbXbXbXbXbXbXbXbXbXbXbXbXbXbXbXnXnXnXnXnXnXBXBXBXBXnXnXnXBXBXMXMXMXMXMXMXMXMXBXMXMXMXMXMXNXNXNXNXNXNXNXNXNXNXNXNXFXNXNXNXNXNXFXNXNXFXFXFXFXFXFXFXFXFXFXFXFX",
"Z.Z.Z.Z.Z.k.k.k.k.k.Z.Z.Z.Z.Z.Z.Z.k.k.Z.Z.Z.Z.Z.Z.Z.Z.Z.Z.Z.k.k.k.k.Z.Z.Z.Z.Z.Z.Z.Z.Z.Z.Z.Z.k.k.Z.Z.Z.Z.Z.Z.Z.Z.Z.Z.Z.Z.V.Z.Z.V.k.k.k.Z.Z.Z.Z.V.Z.Z.Z.Z.Z.Z.Z.V.V.V.V.V.V.V.V.V.Z.Z.Z.Z.Z.V.V.V.Z.Z.Z.V.V.V.V.V.V.V.V.V.V.V.V.V.V.V.V.V.V.V.V.D.D.D.D.C.V.C.C.D.C.C.V.C.D.D.D.D.D.D.D.D.D.D.D.D.D.D.L.L.P.L.L.L.D.D.D.D.D.P.P.P.G.F.P.P.U.U.G.T.E.T.U.U.U.U.U.T.U.U.U.U.U.U.U.U.U.T.T.U.U.U.T.T.U.U.T.U.T.T.U.^.T.T.E.T.U.T.T.Q.T.T.T.U.R.T.3XE.T.T.T.E.Q.E.R.R.R.T.R.E.E.E.E.2X2X1X1XE.E.E.E.E.Q.Q.Q.Q.!.!.!.E.E.E.E.E.!.1X1X!.!.!.!.!.!.!.^.^.!.!.!.!.^.^.^.^.!.^.^.2X2X2X2X2X2X2X2X2X2X2X2X2X2X2X2X3X3X3X3X3X3X3X3X3X3X4X4X4X3X3X3X3X3X3X3X3X5X5X5X5X5X5X5X5X5X5X5X5X7X5X0X0X7X7X0X0X0X0X7X7X0X0X0X0X0X0X0X0X0X0X0X0XdXdXdXdX0X0X0XdX0X0X0XaXaXaXaXaXaXaXaXaXaXaXaXaXaXsXaXaXsXsXsXsXsXsXsXsXsXsXsXsXsXsXsXsXxXxXxXxXvXvXvXvXcXcXvXvXvXvXvXvXvXvXvXvXvXvXvXbXvXvXbXbXbXbXbXbXbXbXbXbXbXbXbXbXbXbXbXbXbXbXnXnXnXnXnXnXBXBXBXBXBXBXBXBXBXBXBXMXBXMXMXMXNXNXNXBXMXMXMXNXNXNXNXNXNXNXNXNXNXNXFXFXNXNXNXFXNXNXNXNXNXNXNXFXFXFXFXFXFXFXFXFX",
"Z.Z.Z.Z.Z.k.k.k.k.k.k.Z.Z.Z.Z.Z.Z.Z.Z.Z.Z.Z.k.k.Z.Z.Z.Z.Z.Z.k.k.Z.Z.Z.Z.Z.Z.Z.Z.Z.Z.Z.Z.Z.Z.k.k.Z.Z.Z.Z.Z.Z.Z.Z.Z.Z.Z.Z.Z.V.V.V.k.Z.Z.Z.Z.V.V.V.Z.Z.Z.Z.V.V.V.V.V.V.V.V.V.V.V.V.Z.Z.Z.Z.V.V.V.V.Z.V.V.V.V.V.V.V.V.V.V.V.V.V.V.V.V.V.V.V.V.D.D.D.D.D.C.V.V.C.C.D.C.C.V.C.D.D.D.D.D.D.D.D.D.D.D.D.L.D.D.L.P.U.L.L.I.I.I.U.P.P.P.P.G.F.U.U.U.U.G.T.T.T.U.U.U.T.T.T.U.U.U.U.U.T.U.U.U.T.T.T.U.U.U.T.U.U.T.U.T.T.U.^.R.T.E.T.T.R.T.Q.T.T.T.U.R.R.5XT.T.T.T.E.Q.E.R.E.R.T.R.E.E.E.1X3X2X1XE.E.E.E.E.E.Q.Q.Q.Q.!.!.E.E.Q.E.E.!.!.1X!.!.!.!.!.!.!.!.!.!.!.!.^.^.^.^.^.^.^.^.^.2X2X2X2X2X2X2X2X2X2X2X2X2X2X3X3X3X3X3X3X3X3X3X3X3X3X4X5X5X3X3X3X3X3X3X3X3X5X5X5X5X5X5X5X5X5X5X5X5X7X5X0X0X0X7X0X0X0X0X7X7X0X0X0X0X0X0X0X0X0X0X0XdXdXdXdXdX0X0X0X0X0XdXaXaXaXaXaXaXaXaXaXaXaXaXaXaXsXsXaXsXsXsXsXsXsXsXsXsXsXsXsXsXsXsXsXsXxXxXxXvXvXvXvXvXcXcXvXvXvXvXvXvXvXvXvXvXvXvXvXbXvXvXbXbXbXbXbXbXbXbXbXbXbXbXbXbXbXbXbXbXbXbXnXnXnXBXnXBXBXBXBXBXBXBXBXBXBXBXMXMXNXNXMXNXNXNXNXNXMXNXNXNXNXNXNXNXNXNXNXNXNXNXFXFXFXFXNXNXNXFXNXNXNXNXFXFXFXFXFXFXFXFXFXFX",
"Z.Z.Z.Z.Z.k.k.k.k.k.Z.Z.Z.Z.Z.Z.Z.Z.Z.Z.Z.Z.k.k.Z.Z.k.Z.Z.Z.Z.V.Z.Z.Z.Z.Z.Z.Z.Z.Z.Z.Z.Z.Z.Z.Z.k.Z.Z.Z.Z.Z.Z.Z.Z.Z.Z.Z.Z.Z.Z.V.V.Z.Z.Z.Z.Z.V.V.V.V.V.V.V.V.V.V.V.Z.V.V.V.V.V.V.V.Z.Z.Z.Z.V.V.V.V.V.V.V.V.V.V.V.V.V.V.V.V.V.V.V.D.V.V.V.V.V.D.C.C.C.C.C.V.V.C.C.C.C.C.D.C.D.D.D.D.D.D.D.D.D.D.D.D.L.D.D.L.U.U.L.L.I.I.I.U.U.U.P.U.G.G.U.U.U.U.G.G.T.U.U.U.U.T.U.U.U.U.U.U.U.U.U.U.U.T.T.T.U.U.U.R.U.U.T.U.T.T.U.2XR.T.E.T.T.R.T.E.T.T.T.G.R.E.5XT.T.T.T.E.E.R.R.E.E.T.T.E.E.E.1X4X2X1XE.E.E.E.!.!.E.E.Q.Q.!.!.!.!.Q.Q.E.!.!.E.!.1X!.!.!.!.!.!.!.!.!.^.^.^.^.^.^.^.^.^.^.^.2X2X2X2X2X2X2X2X2X2X2X2X2X3X3X3X2X3X3X3X3X3X5X3X5X5X5X5X3X3X3X3X3X3X3X3X5X5X5X5X5X5X5X5X5X5X5X7X7X0X0X0X7X7X7X0X0X0X0X0X0X0X0X0X0X0X0X0X0X0X0XdXdXdXdXdX0X0X0X0X0XaXaXaXaXaXaXaXaXaXaXaXaXaXaXaXsXsXsXsXsXsXsXsXsXsXsXsXsXsXsXxXsXsXsXxXxXxXxXxXvXvXvXvXcXcXvXvXvXvXvXvXvXvXvXvXvXvXvXvXvXvXvXbXbXbXbXbXbXbXbXbXbXbXbXbXbXbXbXbXbXbXnXnXnXnXnXBXBXBXBXBXBXBXBXBXBXBXMXMXNXNXNXNXNXNXNXNXNXNXNXNXNXNXNXNXNXNXNXNXNXNXFXFXFXFXFXFXFXFXFXFXFXFXFXFXFXFXFXFXFXFXFXFX",
"Z.Z.Z.Z.Z.k.k.k.Z.Z.Z.Z.Z.Z.Z.Z.Z.Z.Z.Z.Z.Z.k.k.Z.Z.Z.Z.Z.Z.V.V.Z.Z.Z.Z.Z.Z.Z.Z.Z.Z.Z.Z.Z.k.Z.Z.Z.Z.Z.Z.Z.Z.Z.Z.Z.Z.Z.Z.Z.Z.Z.Z.Z.Z.Z.Z.V.V.V.V.V.Z.V.V.V.V.V.V.Z.V.V.V.V.V.V.V.Z.Z.Z.V.V.V.V.V.V.V.V.V.V.V.V.V.C.V.V.V.V.V.V.D.V.V.V.V.C.D.C.V.C.C.C.V.V.C.C.C.C.C.C.C.D.D.D.D.D.D.D.D.D.D.D.L.L.D.D.L.U.U.L.D.U.U.U.U.U.U.U.U.G.F.U.U.U.U.G.G.U.U.U.U.U.T.U.U.U.U.U.U.U.U.U.U.U.T.T.T.U.U.T.R.U.U.T.U.T.T.U.2XR.T.E.T.T.R.T.E.T.T.T.G.R.E.5XT.T.T.T.E.E.R.R.E.E.T.T.E.E.E.1X4X2X1XE.E.E.E.!.!.E.E.E.Q.!.!.!.!.Q.Q.!.!.!.E.1X1XQ.Q.Q.!.!.!.!.!.!.^.^.^.^.^.^.^.^.^.^.^.2X2X2X2X2X2X2X2X2X2X2X2X2X3X3X3X3X3X3X3X3X3X5X5X5X5X5X5X3X3X3X3X3X3X3X3X5X5X5X5X5X5X5X5X5X5X5X7X7X0X0X0X7X7X0X0X0X0X0X0X0X0X0X0X0X0X0X0X0X0XdXdXdXdXdXdX0X0X0X0XaXaXaXdXaXaXaXaXaXaXaXaXaXaXaXaXsXsXsXsXsXsXsXsXsXsXsXsXsXsXxXsXsXsXxXxXxXxXxXxXvXvXvXvXcXvXvXvXvXvXvXvXvXvXvXvXvXvXvXvXvXvXvXbXbXbXbXbXbXbXbXbXbXbXbXbXbXbXbXbXbXbXnXnXBXnXBXBXBXBXBXBXBXBXBXBXMXMXMXMXMXMXNXNXNXNXNXNXNXNXNXNXNXNXNXNXNXNXNXNXNXNXFXFXFXFXFXFXFXFXFXFXFXFXFXFXFXFXFXFXFXFXFXFX",
"l.l.k.k.k.k.k.k.k.k.k.k.k.k.k.k.Z.Z.Z.Z.Z.Z.Z.Z.Z.Z.Z.Z.Z.Z.Z.Z.Z.Z.Z.Z.k.k.k.k.Z.Z.Z.Z.Z.Z.Z.Z.Z.Z.Z.Z.V.V.V.Z.Z.Z.Z.Z.Z.Z.Z.Z.Z.Z.Z.Z.Z.Z.V.V.Z.Z.Z.Z.Z.Z.Z.Z.V.V.V.V.V.V.V.V.Z.Z.Z.Z.Z.V.V.V.V.V.C.C.V.C.C.C.V.V.V.V.D.D.D.D.C.C.D.D.D.D.C.C.C.C.C.C.C.C.C.C.C.C.C.D.D.D.D.D.D.D.L.L.L.L.L.L.L.L.L.L.L.L.L.U.U.U.I.L.U.U.U.U.U.G.G.U.U.U.U.U.T.T.T.U.U.U.U.T.T.U.U.U.U.T.T.T.U.U.Y.T.U.U.Y.R.U.U.T.T.T.T.T.R.E.G.!.T.T.T.R.E.T.R.T.T.T.!.^.E.T.E.E.E.E.E.E.E.E.T.E.E.E.E.3X4X2X2X2X2XE.E.2XE.E.E.E.E.!.!.Q.!.E.E.!.!.!.E.1X!.!.!.!.!.!.!.!.^.!.!.!.!.^.^.^.2X^.^.^.2X2X2X2X2X2X2X2X2X2X2X2X2X3X3X3X3X3X3X3X3X3X3X3X5X5X5X5X5X3X3X3X3X3X5X5X5X3X5X5X5X8X4X6X7X5X5X5X5X7X0X0X0X0X0X0X0X0X0X0X0X0X0X0X0X0X0X0X0X0XdXdXdXdXaXaXaXdXdXdXdXdXaXaXaXaXaXaXaXaXaXaXsXsXsXsXsXsXsXsXsXsXsXsXsXsXsXsXsXsXsXsXsXsXsXcXcXsXsXsXsXcXcXxXxXvXvXvXvXvXvXvXvXvXvXvXvXvXvXvXvXvXvXvXbXbXbXbXbXbXbXbXbXbXbXbXnXbXbXnXnXnXnXnXnXnXnXnXnXnXBXBXBXnXnXnXMXMXMXNXNXNXNXNXNXNXMXMXMXNXNXNXNXNXNXNXNXNXNXNXNXFXFXFXFXFXFXFXFXFXFXFXFXFXFXFXFXFXFXFXFXFXFXFXFX",
"k.l.k.k.k.k.k.k.k.k.k.k.k.k.k.k.Z.Z.Z.Z.Z.Z.Z.Z.Z.Z.Z.Z.Z.Z.Z.Z.Z.Z.Z.Z.k.k.k.k.Z.Z.Z.Z.Z.Z.Z.Z.Z.Z.Z.V.V.V.Z.Z.Z.Z.Z.Z.Z.Z.Z.Z.Z.Z.Z.Z.Z.Z.V.V.Z.Z.Z.Z.Z.Z.Z.Z.V.V.V.V.V.V.V.V.Z.Z.Z.Z.Z.V.V.V.V.V.V.V.V.V.V.V.V.V.V.C.D.D.D.D.C.D.D.D.D.D.D.C.D.D.D.D.D.D.D.D.C.C.D.D.D.D.D.D.D.D.D.D.D.L.L.L.L.L.L.L.L.L.U.U.U.U.I.U.U.U.U.U.F.G.F.U.U.U.U.U.T.T.T.U.U.U.U.T.T.U.U.U.T.T.T.T.U.U.T.T.T.U.T.R.T.U.T.T.T.T.T.R.E.G.!.T.T.T.R.E.T.R.T.T.R.!.^.E.R.E.R.E.E.E.E.E.E.T.E.E.E.E.2X4X2X2X2X2XE.E.E.E.E.E.E.!.!.Q.!.!.!.!.!.!.!.!.!.!.!.!.!.!.!.!.^.^.!.!.!.!.^.^.2X2X^.^.2X2X2X2X2X2X2X2X2X2X2X2X2X2X3X3X3X3X3X3X3X3X3X3X5X5X5X5X5X5X3X3X3X3X5X5X5X5X3X3X5X5X8X6X6X6X5X5X5X5X7X0X0X0X0X0X0X0X0X0X0X0X0X0X0X0X0X0X0X0XdXdXdXdXdXaXaXaXdXdXdXdXdXaXaXaXaXaXaXaXaXaXaXsXsXsXsXsXsXsXsXsXsXsXsXsXsXsXsXsXsXsXsXsXsXcXxXxXsXsXsXxXcXcXcXcXvXvXvXvXvXvXvXvXvXvXvXvXvXvXvXvXvXvXvXbXbXbXbXbXbXbXbXbXbXbXbXnXbXbXnXnXnXnXnXnXnXnXnXnXBXBXBXBXnXnXnXMXMXMXNXNXNXNXNXNXNXSXMXMXNXNXNXNXNXNXNXNXNXNXNXNXFXFXFXFXFXFXFXFXFXFXFXFXNXFXFXFXFXFXFXFXFXFXFXFX",
"Z.Z.Z.Z.Z.Z.Z.Z.Z.Z.Z.k.Z.Z.V.Z.Z.Z.Z.Z.Z.Z.Z.Z.Z.Z.Z.Z.Z.Z.Z.Z.Z.Z.Z.V.Z.Z.Z.Z.Z.Z.Z.Z.Z.Z.Z.Z.Z.Z.Z.V.V.V.V.V.Z.Z.Z.Z.Z.Z.Z.Z.V.V.V.V.V.V.V.V.Z.Z.Z.Z.Z.Z.Z.Z.V.V.V.V.V.V.V.V.Z.Z.Z.V.V.V.V.V.V.V.V.V.V.V.V.V.V.V.V.C.D.D.D.D.D.D.D.D.D.D.D.D.D.D.D.D.D.D.D.D.C.D.D.D.D.D.D.D.D.D.D.D.D.L.L.L.L.L.L.L.L.L.L.L.U.U.I.U.U.U.U.U.F.G.U.U.U.U.U.U.T.T.T.U.U.U.U.U.U.U.U.U.U.U.T.T.U.U.T.T.T.U.T.R.T.T.T.T.T.T.T.R.~.G.!.T.T.T.R.E.T.R.T.T.E.^.^.E.R.R.E.E.E.E.E.E.E.R.E.E.E.E.2X2X2XE.2X2XE.E.E.E.Q.Q.E.!.Q.Q.E.!.!.!.!.!.!.!.!.!.!.!.!.!.!.!.^.^.!.!.!.!.^.^.2X2X^.2X2X2X2X2X2X2X2X2X2X2X2X2X2X2X2X2X2X3X3X3X3X3X3X3X5X5X5X5X5X5X3X3X3X3X5X5X5X5X3X5X5X8X8X7X7X6X5X5X5X7X7X0X0X0X0X0X0X0X0X0X0X0X0X0X0X0X0X0X0X0XdXdXdXdXdXaXaXaXdXdXdXdXdXaXaXaXaXaXaXaXaXaXaXaXsXsXsXsXsXsXsXsXsXsXsXsXsXsXsXsXsXsXsXsXsXxXxXxXxXsXxXcXcXcXcXvXvXvXvXvXvXvXvXvXvXvXvXvXvXvXvXvXbXbXvXbXbXbXbXbXbXbXbXbXbXbXbXnXbXnXnXnXnXnXnXnXnXnXnXnXBXBXBXBXnXMXMXMXMXNXNXNXNXNXNXNXFXSXMXMXNXNXNXNXNXNXNXNXFXFXFXFXFXFXFXFXFXFXFXFXFXFXFXFXFXFXFXFXFXFXFXFXFXFXFXFX",
"Z.Z.Z.Z.Z.Z.Z.Z.Z.Z.Z.Z.Z.Z.V.V.Z.Z.Z.Z.Z.Z.Z.Z.Z.Z.Z.Z.Z.Z.Z.Z.Z.Z.Z.Z.Z.Z.Z.Z.Z.Z.Z.Z.Z.Z.Z.Z.Z.V.V.V.V.V.V.V.Z.Z.Z.Z.Z.Z.Z.Z.V.V.V.V.V.V.V.V.V.V.V.V.V.V.V.V.V.V.V.V.V.V.V.V.V.V.V.V.V.V.V.V.V.V.V.V.V.V.V.V.V.C.C.C.D.D.D.D.D.D.D.D.D.D.D.D.D.D.D.D.D.D.D.D.D.D.D.D.D.D.D.D.D.D.D.D.L.L.L.L.L.L.L.P.L.L.L.L.U.U.U.U.U.U.U.U.F.G.U.U.U.U.U.U.T.T.T.T.U.U.U.U.U.U.U.U.U.U.T.T.U.U.Y.T.T.U.T.R.T.T.T.T.T.T.R.R.~.G.!.T.T.T.E.E.T.R.T.T.E.^.^.E.E.E.~.~.E.E.E.E.E.R.E.E.E.1X4X1XE.E.E.E.E.E.!.!.Q.!.!.!.E.!.!.!.!.!.!.!.!.!.!.!.!.!.!.!.^.^.^.^.!.!.!.^.^.2X2X2X2X2X2X2X2X2X2X2X2X2X2X2X2X2X2X3X2X3X3X3X3X3X3X3X3X3X5X5X5X5X5X5X3X3X3X5X5X5X5X5X5X5X5X8X8X7X7X7X5X7X5X7X7X0X0X0X0X0X0X0X0X0X0X0X0X0X0X0X0X0X0X0XdXdXdXdXaXaXaXaXdXdXdXdXdXaXaXaXaXaXaXaXaXaXaXaXsXsXsXsXsXsXsXsXsXsXsXsXsXsXsXsXsXsXsXsXxXxXxXxXxXcXcXcXcXvXvXvXvXvXvXvXvXvXvXvXvXvXvXvXvXvXvXvXbXbXvXbXbXbXbXbXbXbXbXbXbXbXbXnXnXnXnXnXnXnXnXnXnXnXnXnXnXnXnXMXMXMXMXNXMXNXNXNXNXNXNXNXFXMXMXMXNXNXNXNXNXNXNXNXFXFXFXFXFXFXFXFXFXFXFXFXFXFXFXFXFXFXFXFXFXFXFXFXFXFXFXFX",
"Z.Z.Z.Z.Z.Z.Z.Z.Z.Z.Z.V.V.V.V.V.Z.Z.Z.Z.Z.Z.Z.Z.Z.Z.Z.Z.Z.Z.Z.V.V.V.V.V.V.V.V.V.Z.Z.Z.V.Z.Z.Z.Z.V.V.V.V.V.V.V.V.Z.Z.Z.Z.Z.Z.Z.Z.V.V.V.V.V.V.V.V.V.V.V.V.V.V.V.V.V.V.V.V.V.V.V.V.V.V.V.V.V.V.V.V.V.V.V.V.V.V.V.V.C.C.C.D.D.D.D.D.D.D.D.D.D.D.D.D.D.D.D.D.D.D.D.D.D.D.D.D.D.D.D.D.D.D.D.D.D.D.D.D.L.L.L.P.P.U.P.U.U.U.U.U.U.U.U.U.F.U.U.U.U.U.U.U.U.T.T.T.U.U.U.U.U.T.T.T.U.T.T.T.U.U.U.T.T.U.Y.R.T.T.T.T.T.T.R.E.~.G.!.T.T.T.E.E.R.R.R.T.E.2X^.E.E.E.Q.~.E.E.E.E.E.R.E.E.E.2X4X1XE.E.E.E.E.E.E.!.!.!.E.E.!.!.!.!.Q.Q.Q.!.!.!.!.!.!.!.!.!.^.^.^.^.!.!.!.2X2X2X2X2X2X2X2X2X2X2X2X2X2X2X2X2X2X2X2X3X3X3X3X3X3X3X3X3X3X3X5X5X5X5X5X5X5X5X5X5X5X5X5X5X5X5X8X8X6X4X7X7X7X7X7X7X7X0X0X0X0X0X0X0X0X0X0XdX0X0X0X0X0X0X0X0XdXdXdXdXaXdXaXaXdXdXdXdXdXaXaXaXaXaXaXaXaXaXaXaXsXsXsXsXsXsXsXsXsXsXsXsXsXsXsXsXsXsXsXsXxXsXsXvXsXcXcXcXcXcXcXcXvXvXvXvXvXvXvXvXvXvXvXvXvXvXvXvXbXbXbXbXbXbXbXbXbXbXbXbXbXbXbXnXnXnXnXnXnXnXnXnXnXnXnXnXnXnXMXMXnXMXnXNXNXNXNXNXNXNXNXFXFXSXMXMXNXNXNXNXNXNXNXFXFXFXFXFXFXFXFXFXFXFXFXFXFXFXFXFXFXFXFXFXFXFXFXFXFXFXFXFX",
"Z.Z.Z.Z.Z.Z.Z.Z.Z.Z.Z.V.V.Z.V.V.Z.Z.V.V.Z.Z.Z.Z.Z.Z.Z.Z.Z.V.V.V.V.V.V.V.V.V.V.V.Z.Z.Z.V.V.Z.Z.Z.V.V.V.V.V.V.V.V.V.V.V.Z.Z.Z.Z.Z.V.V.V.V.V.V.V.V.V.V.V.V.V.V.V.V.V.V.V.V.V.V.V.V.V.V.V.V.V.V.V.V.V.C.V.C.V.D.D.D.C.D.D.D.D.D.D.D.D.D.D.D.D.D.D.D.D.D.D.D.D.D.D.D.D.D.D.D.D.D.D.L.D.D.D.D.D.D.D.D.L.L.P.P.U.U.U.U.U.U.U.U.U.U.U.U.U.U.U.U.U.U.U.T.U.T.T.T.T.U.U.U.U.U.U.U.U.U.Y.Y.U.U.U.Y.T.U.Y.T.T.T.T.T.T.T.R.E.~.G.!.T.E.T.E.R.R.E.R.T.E.2X^.E.Q.Q.Q.Q.Q.E.E.E.E.E.E.E.E.4X4X1XE.E.E.E.!.Q.!.!.!.!.!.!.!.!.!.!.Q.!.!.!.!.!.!.!.!.!.^.^.^.^.^.^.!.!.2X2X2X2X2X2X2X2X2X2X2X2X2X2X2X2X2X2X3X3X2X3X3X3X3X3X3X3X3X3X3X3X5X5X5X3X5X5X5X5X5X5X5X5X5X5X5X5X8X8X6X4X7X7X7X7X7X7X7X0X0X0X0X0X0X0X0X0XdXdX0X0X0X0X0X0X0X0XdXdXdXdXdXaXaXaXdXdXdXdXdXaXaXaXaXaXaXaXsXaXaXsXsXsXsXsXsXsXsXsXsXsXsXsXsXsXsXsXsXsXsXsXsXxXvXvXsXsXcXvXcXcXcXcXvXvXvXvXvXvXvXvXvXvXvXvXvXvXvXvXbXbXbXbXbXbXbXbXbXbXbXbXbXbXbXbXnXnXnXnXnXnXnXnXnXnXnXnXnXnXMXMXnXnXNXNXNXNXNXNXNXNXFXFXNXMXMXMXNXNXNXNXNXNXNXFXFXFXFXFXFXFXFXFXFXFXFXFXFXFXFXFXFXFXFXFXFXFXFXFXFXFXFXFX",
"Z.Z.Z.Z.Z.Z.Z.Z.Z.Z.Z.V.V.V.V.V.Z.Z.V.V.V.V.Z.Z.Z.Z.Z.Z.Z.V.V.V.V.V.V.V.V.V.V.V.Z.Z.Z.V.V.Z.V.V.V.V.V.V.V.V.V.V.V.Z.Z.Z.Z.Z.Z.Z.V.V.V.V.V.V.V.V.V.V.V.V.V.V.V.V.V.V.V.V.V.V.V.V.V.V.V.V.V.V.V.V.V.C.C.C.D.D.D.D.D.D.D.D.D.D.D.L.D.D.D.D.D.D.D.D.D.D.D.D.D.D.D.D.D.D.D.D.D.D.D.D.D.D.D.D.D.D.D.D.L.L.P.P.U.U.U.U.U.U.U.U.U.U.U.U.U.U.U.U.U.U.T.T.U.U.T.E.T.U.U.U.U.U.U.U.U.U.Y.Y.Y.U.U.T.T.T.T.T.T.T.T.T.T.T.R.E.!.U.!.T.E.E.Q.R.R.E.R.T.Q.2X^.T.Q.Q.!.Q.Q.E.Q.E.Q.E.E.E.!.4X4XE.!.!.E.E.Q.Q.E.E.!.!.!.!.!.!.!.!.!.!.!.!.!.!.!.!.!.^.^.^.^.^.^.^.!.!.2X2X2X2X2X2X2X2X2X2X2X2X2X2X2X2X2X2X3X2X3X2X3X3X3X3X3X3X3X5X3X3X3X3X3X3X5X5X5X5X5X5X5X5X5X5X5X8X5X7X6X7X7X7X5X8X7X7X0X0X0X0X0X0X0X0X0X0X0X0X0X0X0X0X0X0X0X0XdXdXdXaXaXaXaXaXdXdXdXdXdXdXaXaXaXaXaXaXsXsXsXsXsXsXsXsXsXsXsXsXsXsXsXsXsXsXsXxXsXsXsXsXxXvXvXvXsXsXsXcXcXcXcXvXvXvXvXvXvXvXvXvXvXvXvXvXvXvXvXvXvXvXbXbXbXbXbXbXbXbXbXbXbXbXbXbXbXnXnXnXnXnXnXnXnXnXnXnXMXMXMXMXnXNXNXNXNXNXNXNXNXNXFXFXFXNXMXMXNXNXNXNXNXNXNXNXFXFXFXFXFXFXFXFXFXFXFXFXFXFXFXFXFXFXFXFXFXFXFXFXFXFXFXFX",
"Z.Z.Z.Z.Z.Z.Z.Z.Z.Z.Z.Z.Z.Z.Z.Z.Z.Z.V.V.V.V.V.Z.Z.Z.Z.Z.V.V.V.V.V.V.V.V.V.V.V.V.Z.Z.Z.V.V.V.V.V.V.V.V.V.V.V.V.V.Z.Z.V.Z.Z.Z.Z.Z.V.V.V.V.V.V.V.V.V.V.V.V.V.V.V.V.V.V.V.V.V.V.V.V.V.V.V.V.V.V.V.V.V.C.C.C.D.D.D.L.D.D.D.D.D.D.L.L.D.D.D.D.D.D.D.D.D.D.D.D.D.D.D.D.D.D.D.D.D.D.D.D.D.D.F.F.F.D.D.D.L.P.P.P.U.U.U.U.I.I.U.U.U.U.U.U.U.U.U.U.U.U.T.T.U.U.E.T.T.T.U.F.U.U.U.U.U.U.Y.Y.T.U.U.T.T.T.T.R.T.T.T.T.T.T.R.E.!.T.!.T.E.E.E.E.R.E.R.T.!.3X^.T.Q.Q.!.!.Q.E.Q.E.Q.E.Q.E.1X4X4XE.!.!.!.E.E.E.E.E.!.!.!.!.!.!.!.!.!.!.!.!.!.!.!.!.!.^.^.^.^.^.^.^.!.2X2X2X2X2X2X2X2X2X2X2X2X2X2X2X2X2X2X3X3X3X3X2X3X3X3X3X3X3X5X5X3X3X3X3X3X5X5X5X5X5X5X5X5X5X5X5X8X8X8X6X6X7X7X7X8X8X7X7X0X0X0X0X0X0X0X0X0X0X0X0X0X0X0X0X0X0X0X0XdXdXdXaXaXaXaXaXdXdXdXdXdXdXaXaXaXaXaXaXsXsXsXsXsXsXsXsXsXsXsXsXsXsXsXsXsXsXxXxXxXxXsXsXcXvXvXvXsXsXvXcXcXcXvXvXvXvXvXvXvXvXvXvXvXvXvXvXvXvXvXvXvXvXvXbXbXbXbXbXbXbXbXbXbXbXbXbXnXnXnXnXnXnXnXnXnXnXnXMXMXMXMXMXNXNXNXNXNXNXNXNXNXNXFXFXFXFXMXMXNXNXNXNXNXNXNXNXNXNXFXFXFXFXFXFXFXFXFXFXFXFXFXFXFXFXFXFXFXFXFXFXFXFXFXFX",
"Z.Z.Z.Z.Z.Z.Z.Z.V.V.V.V.V.V.V.V.Z.Z.V.V.V.V.V.V.Z.Z.Z.Z.V.V.V.V.V.V.Z.Z.Z.V.V.V.Z.Z.Z.Z.Z.Z.Z.Z.V.V.V.V.V.V.V.V.V.V.V.V.V.V.V.V.Z.V.V.V.V.V.V.V.V.V.V.V.V.V.V.V.V.V.V.V.V.V.V.V.V.V.V.V.V.D.C.C.C.C.C.D.D.D.D.D.D.D.D.D.D.L.L.L.D.D.D.D.L.D.D.D.D.D.D.D.D.L.L.L.D.D.D.I.I.L.L.I.L.L.L.L.I.I.I.I.D.L.P.P.D.L.L.L.I.I.U.U.U.U.U.U.U.U.U.U.U.U.U.U.U.T.E.E.E.U.U.T.U.U.U.Y.Y.U.U.T.T.U.U.T.T.T.T.R.T.T.T.T.T.T.R.E.~.G.!.T.E.R.Q.E.E.E.E.T.^.5XQ.R.Q.Q.E.E.E.E.E.E.E.2XT.1X2X7XE.!.!.!.!.!.!.!.!.!.E.E.!.!.!.!.!.!.^.^.^.^.^.^.^.^.^.^.^.^.^.^.^.^.^.^.^.2X2X2X2X2X2X2X2X2X2X2X2X2X3X3X3X3X3X3X3X3X3X3X3X3X3X3X3X5X5X5X5X5X5X5X5X5X5X5X5X5X5X5X5X5X8X8X8X7X8X7X7X7X7X7X7X7X7X7X7X7X0X0X0X0X0X0X0X0X0X0X0X0X0X0X0X0X0X0XdXdXaXaXaXaXaXaXaXaXaXaXaXaXaXaXaXsXsXsXsXsXsXsXsXsXsXsXsXsXsXsXsXsXsXsXxXxXxXxXxXxXxXxXxXcXvXvXvXvXvXvXvXvXvXvXvXvXvXvXvXvXvXvXvXbXvXvXvXbXbXbXbXbXbXbXbXbXbXbXbXbXbXnXnXnXnXnXnXnXnXnXnXnXMXMXMXMXMXNXNXNXMXNXNXNXNXNXNXNXNXNXNXNXNXNXNXNXFXFXFXNXFXFXFXFXFXFXFXFXFXFXFXFXFXFXFXFXFXFXFXFXFXFXFXFXFXFXFXFXFXFXFXFX",
"Z.Z.Z.Z.Z.Z.Z.Z.V.V.V.V.V.V.V.V.Z.Z.V.V.V.V.V.V.Z.Z.Z.Z.V.V.V.V.V.V.V.V.Z.V.V.V.V.V.V.V.V.V.V.V.V.V.V.V.V.V.V.V.V.V.V.V.V.V.V.V.Z.V.V.V.V.V.V.V.V.V.V.V.V.V.V.V.V.V.V.V.V.V.V.C.V.V.V.V.V.D.C.D.C.C.D.D.D.D.D.D.D.D.D.D.L.L.L.L.D.D.D.D.L.D.D.D.D.D.D.D.D.L.L.L.D.D.L.L.L.L.I.I.L.L.L.I.I.I.I.I.L.P.P.P.D.L.L.L.I.I.U.U.U.U.U.U.U.U.U.U.U.U.T.T.U.T.E.E.E.T.U.T.U.U.U.U.Y.U.T.T.T.U.U.T.T.T.T.R.T.T.T.T.T.T.R.E.~.G.!.T.E.R.Q.E.E.E.E.T.^.5XE.E.Q.Q.E.E.E.E.E.E.E.2XE.E.4X5XE.E.!.!.!.!.!.!.!.!.Q.!.!.!.!.!.!.!.^.^.^.^.^.^.^.^.^.^.^.^.^.^.^.^.^.^.2X2X2X2X2X2X2X2X2X2X2X2X2X2X3X3X3X3X3X3X3X3X3X3X3X3X3X3X3X5X5X5X5X5X5X5X5X5X5X5X5X5X5X5X5X5X8X8X8X7X8X7X7X0X7X7X7X7X7X7X7X7X0X0X0X0X0X0X0X0X0X0X0X0X0X0X0X0X0X0XdXdXaXaXaXaXaXaXaXaXaXaXaXaXaXaXaXsXsXsXsXsXsXsXsXsXsXsXsXsXsXsXsXsXsXxXxXxXxXxXxXcXsXsXxXcXvXvXvXvXvXvXvXvXvXvXvXvXvXvXvXvXvXvXvXbXvXvXvXbXbXbXbXbXbXbXbXbXbXbXbXbXnXnXnXnXnXnXnXnXnXnXnXnXMXMXMXMXMXNXNXNXNXNXNXNXNXNXNXNXNXNXNXNXNXNXNXNXFXFXFXFXFXFXFXFXFXFXFXFXFXFXFXFXFXFXFXFXFXFXFXFXFXFXFXFXFXFXFXFXFXFXFXFX",
"Z.Z.Z.Z.Z.Z.Z.Z.V.V.V.V.V.V.V.V.Z.V.V.V.V.V.V.V.Z.Z.Z.Z.V.V.V.V.V.V.V.V.V.V.V.V.V.V.V.V.V.V.V.V.V.V.V.V.V.V.V.V.V.V.V.V.V.V.V.V.Z.V.V.V.V.V.V.V.V.V.V.V.V.V.V.V.V.V.V.V.V.C.C.C.V.V.V.V.D.D.D.D.C.D.D.D.D.D.D.D.D.D.D.D.L.L.L.L.D.D.D.D.D.D.D.D.D.D.D.L.L.L.L.L.D.D.D.D.L.L.L.L.L.L.L.L.L.I.I.I.D.D.P.U.P.P.L.L.I.I.U.U.U.U.U.U.U.U.U.U.U.U.T.T.U.U.T.E.E.T.U.T.U.U.U.U.Y.T.T.Y.T.U.U.T.T.T.T.R.R.R.T.T.T.T.R.R.~.G.~.T.E.R.E.R.R.E.E.T.^.5XE.E.!.!.E.E.E.E.E.Q.!.!.!.E.5X2X1XE.Q.Q.E.E.!.!.!.!.!.!.!.!.!.!.!.!.^.^.^.^.^.^.^.^.^.^.^.^.^.^.^.^.^.2X2X2X2X2X2X2X2X2X2X2X2X2X2X2X2X2X2X3X3X3X3X3X3X3X3X3X3X3X3X3X5X5X5X5X5X5X5X5X5X5X5X5X5X5X5X5X8X8X7X7X7X7X7X7X7X7X7X7X7X7X7X7X0X0X0X0X0X0X0X0X0X0X0X0X0X0X0X0X0X0X0XaXaXaXaXaXaXaXaXaXaXaXaXaXaXaXsXsXsXsXsXsXsXsXsXsXsXsXsXsXsXsXsXsXsXxXxXxXxXxXxXcXsXsXsXcXcXvXvXvXvXvXvXvXvXvXvXvXvXvXvXvXvXvXbXbXvXvXbXbXbXbXbXbXbXbXbXbXbXbXbXbXnXnXnXnXnXnXnXnXnXnXMXMXMXMXMXNXMXNXNXNXNXNXNXNXNXNXNXNXNXNXNXNXNXNXNXNXFXFXFXFXFXFXFXFXFXFXFXFXFXFXFXFXFXFXFXFXFXFXFXFXFXFXFXFXFXFXFXFXFXFXFXFX",
"Z.Z.Z.Z.Z.Z.Z.Z.V.V.V.V.V.V.V.V.Z.V.V.V.V.V.V.V.Z.Z.Z.V.V.V.V.V.V.V.V.V.V.V.V.V.V.V.V.V.V.V.V.V.V.V.V.V.V.V.V.V.V.V.V.V.V.V.V.V.Z.V.V.V.C.V.V.V.V.V.V.V.V.V.V.V.V.V.V.C.C.C.C.C.V.V.V.C.D.D.D.D.D.D.D.D.D.D.D.D.D.D.D.D.D.D.D.L.D.D.D.D.L.D.D.D.L.L.L.L.L.L.L.L.D.D.I.L.L.L.L.L.L.L.L.I.I.I.I.I.P.P.U.U.U.U.U.U.I.U.U.U.U.U.U.U.U.U.U.U.U.U.T.T.T.U.T.E.E.T.U.T.U.U.T.T.Y.T.T.T.T.Y.U.Y.T.T.T.T.R.R.T.T.R.R.R.T.2XG.!.T.E.R.E.R.E.E.E.T.^.3XE.E.!.!.E.E.E.E.E.Q.!.E.2XE.5X1X2XE.Q.Q.E.!.!.!.!.!.!.!.!.!.!.!.!.!.^.^.^.^.^.^.^.^.^.^.^.^.^.^.^.2X2X2X2X2X2X2X2X2X2X2X2X2X2X2X2X3X2X3X3X3X3X3X3X3X3X3X3X3X3X3X3X5X3X3X3X5X5X5X5X5X5X5X5X4X5X5X5X5X5X8X7X7X7X7X7X7X7X7X7X7X7X7X7X0X0X0X0X0X0X0X0X0X0X0X0X0XdX0X0X0X0X0XaXaXaXaXaXaXaXaXaXaXaXaXaXaXaXaXsXsXsXsXsXsXsXsXsXsXsXsXsXsXsXsXsXsXxXxXxXxXxXcXcXcXsXcXcXcXvXvXvXvXvXvXvXvXvXvXvXvXvXvXbXbXvXbXbXbXvXbXbXbXbXbXbXbXbXbXbXbXbXbXbXbXnXnXnXnXnXnXnXnXnXMXMXMXMXMXMXNXMXNXNXNXNXNXNXNXNXNXNXNXNXNXNXNXNXNXNXNXFXFXFXFXFXFXFXFXFXFXFXFXFXFXFXFXFXFXFXFXFXFXFXFXFXFXFXFXFXFXFXFXFXFXFXFX",
"Z.Z.Z.Z.Z.Z.Z.Z.V.V.V.V.V.V.V.V.Z.V.V.V.V.V.V.V.Z.Z.Z.V.V.V.V.V.V.V.V.V.V.V.V.V.V.V.V.V.V.V.V.V.V.V.V.V.V.V.V.V.V.V.V.V.V.V.V.V.V.V.V.V.V.V.V.V.V.V.V.V.V.V.V.V.C.C.C.C.C.C.C.C.V.V.C.C.D.D.D.D.D.D.D.D.D.D.D.D.D.D.D.D.D.L.L.L.D.D.D.D.D.D.D.D.L.L.L.L.L.L.L.L.I.L.L.L.L.P.P.P.I.L.L.L.L.I.I.I.P.U.U.U.U.U.U.U.U.U.U.U.U.U.U.U.U.U.U.U.T.T.T.T.T.U.T.E.E.T.T.U.Y.Y.U.U.T.T.T.Y.T.T.Y.Y.T.R.R.T.R.R.T.T.R.R.R.T.2XT.2XT.E.E.E.R.E.E.Q.R.^.3XE.E.!.!.Q.E.E.E.Q.!.!.E.2X2X5X!.2XE.E.!.!.!.!.!.!.!.!.!.!.^.!.!.!.^.^.^.^.^.^.^.^.^.^.^.^.^.^.2X2X2X2X2X2X2X2X2X2X2X2X2X2X2X2X3X3X3X3X3X3X3X3X3X3X3X3X3X3X5X3X3X5X5X3X3X5X5X5X5X5X5X5X5X5X5X5X5X5X5X5X8X7X7X7X0X7X7X7X7X7X7X7X0X0X0X0X0X0X0X0X0X0X0X0X0X0XdX0X0X0XdXdXdXdXdXaXaXaXaXaXaXaXaXaXaXaXaXaXaXaXsXsXsXsXsXsXsXsXsXsXsXsXsXsXsXsXsXsXsXsXsXxXxXxXxXcXcXcXcXvXvXvXvXvXvXvXvXvXvXvXvXvXbXbXbXvXvXbXbXbXbXbXbXbXbXbXbXbXbXbXbXbXbXbXnXnXnXnXnXnXnXnXnXMXMXMXMXMXMXMXNXNXNXNXNXNXNXNXNXNXNXFXFXNXNXNXNXNXNXNXNXFXFXFXFXFXFXFXFXFXFXFXFXFXFXFXFXFXFXFXFXFXFXFXFXFXFXFXFXFXFXFXFXFXFXFXFX",
"V.V.V.V.V.V.V.V.V.V.V.V.V.V.V.V.Z.V.V.V.V.V.V.V.Z.Z.Z.V.V.V.V.V.V.V.V.V.V.V.V.V.V.V.V.V.V.V.V.V.V.V.V.V.V.V.V.C.V.V.V.V.V.V.V.V.V.V.V.V.V.V.V.C.V.V.V.V.V.V.V.V.C.C.C.C.C.C.C.C.C.C.C.D.D.D.D.D.D.D.D.D.D.D.D.L.D.D.D.D.L.L.L.L.D.D.D.D.L.L.D.D.I.I.L.L.L.I.I.I.L.L.I.L.L.P.P.P.L.L.L.P.L.P.L.L.U.U.U.U.U.U.U.U.U.U.U.U.U.U.U.U.U.U.U.U.T.T.T.T.T.U.T.E.E.T.T.U.Y.Y.T.T.T.T.T.T.T.T.T.Y.T.R.R.T.Q.R.T.T.R.R.R.T.2XT.2XE.E.R.E.R.E.E.Q.R.^.3XR.!.!.!.E.E.E.E.!.!.E.E.2X3X2X!.2XE.!.!.!.!.^.!.!.!.!.!.^.^.!.^.^.^.^.^.^.^.^.^.^.^.^.^.^.^.2X2X2X2X2X2X2X2X2X2X2X2X2X2X2X2X3X3X3X3X3X3X3X3X3X3X3X3X3X5X5X5X3X5X5X5X3X3X5X5X8X4X5X5X4X4X4X4X5X5X4X7X8X8X7X7X7X0X7X0X7X7X7X7X0X0X7X7X0X0X0X0X0X0XdX0X0XdXdXdX0XdXdXdXaXaXaXaXaXaXaXaXaXaXaXaXaXaXaXaXaXaXsXsXsXsXsXsXsXsXsXsXsXsXsXsXsXxXsXsXsXsXsXsXxXxXxXcXvXvXcXcXvXvXvXvXvXvXvXvXcXvXvXvXvXbXbXbXbXbXbXbXbXbXbXbXbXbXbXbXbXbXbXbXbXbXbXnXnXnXnXnXnXnXnXMXnXMXMXMXMXMXMXNXNXNXNXNXNXNXNXNXNXNXFXFXNXNXNXNXNXNXNXNXFXFXFXFXFXFXFXFXFXFXFXFXFXFXFXFXFXFXFXFXFXFXFXFXFXFXFXFXFXFXFXFXFXFXFXFX",
"V.V.V.V.V.V.V.V.V.V.V.V.V.V.V.V.Z.V.V.V.V.V.V.V.V.V.V.V.V.V.V.V.V.V.V.V.V.V.V.V.V.V.V.V.V.V.V.V.V.V.V.V.C.C.C.C.V.V.V.V.V.V.V.V.V.V.V.V.V.V.C.C.V.V.V.V.V.V.V.V.C.C.C.C.C.C.C.C.C.C.D.D.D.D.D.D.D.D.D.D.D.D.L.L.D.D.D.D.D.D.D.D.D.D.D.D.L.L.L.D.I.L.L.I.I.I.I.I.I.I.L.L.U.P.P.P.L.U.P.P.L.U.U.U.U.U.U.U.U.U.U.U.U.U.U.U.U.U.U.U.U.U.U.U.U.T.T.T.T.T.T.E.E.E.T.Y.T.T.Y.Y.T.T.T.T.T.T.T.Y.T.R.R.T.Q.R.T.T.R.E.R.T.2XG.2XE.~.~.~.E.E.E.!.E.^.2XR.!.!.!.!.Q.E.E.!.!.E.T.1X7X2X1X1XE.!.!.!.!.^.^.!.!.!.!.^.^.!.^.^.^.^.^.^.^.^.^.^.^.^.^.^.^.2X2X2X2X2X2X2X2X2X2X2X2X2X2X2X2X3X3X3X3X3X3X3X3X3X3X3X3X5X5X5X5X3X5X5X5X3X3X5X5X8X5X5X5X4X4X4X4X5X5X7X7X8X8X7X7X7X7X0X0X7X7X7X7X7X7X7X7X0X0X0X0X0XdX0X0X0XdX0X0X0XdXdXdXaXaXaXaXaXaXaXaXaXaXaXaXaXaXaXaXsXsXsXsXsXsXsXsXsXsXsXsXsXsXsXxXxXxXcXcXsXcXsXsXxXxXxXcXvXvXvXvXvXvXvXvXvXvXvXvXvXvXvXvXvXbXbXbXbXbXbXbXbXbXbXbXbXbXbXbXbXbXbXbXbXnXnXnXnXnXnXnXnXnXMXnXMXMXMXMXMXMXMXNXNXNXNXNXNXNXNXNXNXNXFXFXNXNXNXNXNXNXNXNXFXFXFXFXFXFXFXFXFXFXFXFXFXFXFXFXFXFXFXFXFXFXFXFXFXFXFXFXFXFXFXFXFXFXFXFX",
"V.V.V.V.V.V.V.V.V.V.V.V.V.V.V.V.Z.V.V.V.V.V.V.V.V.V.V.V.V.V.V.V.V.V.V.V.V.V.V.V.V.V.V.V.V.V.V.V.V.V.V.V.C.C.C.C.V.V.V.V.V.V.V.V.V.V.V.V.V.C.C.C.V.V.V.V.V.V.V.V.C.C.C.C.C.C.C.C.C.C.D.D.D.D.D.D.D.D.D.D.D.L.L.L.D.D.D.D.D.D.D.D.F.F.F.F.F.F.F.F.L.L.L.I.I.I.I.U.I.I.L.L.U.P.P.P.U.U.U.P.U.U.U.U.U.U.U.U.U.U.U.U.U.U.U.U.U.U.U.U.U.U.U.U.U.T.T.T.T.T.T.E.E.E.T.Y.T.T.Y.Y.T.T.T.T.T.R.T.Y.T.R.R.T.Q.R.T.T.R.E.R.T.2XG.2XE.~.~.Q.R.E.E.!.E.^.2XT.!.^.!.!.!.E.!.!.!.E.E.E.dX!.2XE.E.!.!.!.!.!.!.!.!.!.!.!.^.^.^.^.^.^.^.^.^.^.^.^.^.^.^.^.2X2X2X2X2X2X2X2X2X2X2X2X2X2X2X2X2X3X3X3X3X3X3X3X3X3X3X5X5X5X5X5X5X5X5X5X5X3X3X5X5X8X5X5X5X4X4X4X4X5X7X7X7X8X8X7X7X7X7X0X0X7X7X7X7X7X7X7X7X0X0X0X0X0XdX0X0X0XdX0X0XdXdXdXdXaXaXaXaXaXaXaXaXaXaXaXaXaXaXsXsXsXsXsXsXsXsXsXsXsXsXsXsXsXsXxXxXxXxXcXcXvXvXsXsXxXxXcXcXvXvXvXvXvXvXvXvXvXvXvXvXvXvXvXvXbXbXbXbXvXvXbXbXbXbXbXbXbXbXbXbXbXbXbXbXbXnXnXnXnXnXnXnXnXnXMXMXMXBXMXMXMXMXMXNXNXNXNXNXNXNXNXNXNXNXFXFXNXNXNXNXNXNXNXNXFXFXFXFXFXFXFXFXFXFXFXFXFXFXFXFXFXFXFXFXFXFXFXFXFXFXFXFXFXFXFXFXFXFXFXFX",
"V.V.V.V.V.V.V.V.V.V.V.V.V.V.V.V.V.V.V.V.C.V.V.V.V.V.V.V.V.V.V.V.V.V.V.V.V.V.V.V.V.V.V.V.V.V.V.V.V.V.V.V.V.V.V.V.V.V.C.V.V.V.V.V.V.V.V.C.C.C.C.K.V.V.V.V.V.C.C.C.C.C.C.C.C.C.C.C.D.D.D.D.D.D.D.D.C.D.D.D.D.D.D.L.D.D.L.L.L.L.I.I.F.F.I.I.D.D.I.I.P.P.P.P.F.P.F.F.U.U.U.U.I.I.I.I.U.U.U.U.U.U.U.U.U.U.U.U.U.U.U.U.U.U.U.U.U.U.U.Y.Y.Y.Y.U.U.T.T.T.T.T.T.T.E.E.E.T.Y.T.T.Y.Y.T.T.T.T.T.T.T.T.T.R.R.E.R.R.R.R.E.R.R.~.~.~.E.~.!.Q.R.E.E.!.!.5XE.E.!.^.Q.E.E.!.^.!.E.E.1X4X4X2XE.E.2X!.!.!.!.!.!.!.^.^.^.^.^.^.^.2X2X^.^.^.^.^.^.^.^.^.^.^.^.2X2X2X2X2X2X2X2X2X2X2X2X2X2X2X3X3X3X2X3X3X3X3X3X3X3X3X5X3X3X3X3X5X5X5X5X5X5X5X5X5X5X5X5X8X5X5X5X8X8X8X8X8X8X8X7X7X7X7X7X0X0X0X0XdX0X0X0X0X0X0X0X0X0X0X0XaXaXaXaXaXaXaXaXaXaXaXaXaXaXaXaXaXaXaXaXaXaXaXaXaXsXsXsXsXsXsXsXsXsXsXxXxXxXxXxXcXcXcXvXsXvXvXvXvXvXvXvXvXvXvXvXcXcXcXcXcXvXvXvXvXvXvXvXbXbXbXbXbXbXbXbXbXbXbXbXbXnXbXnXnXnXnXnXnXnXnXnXnXnXnXnXBXBXBXBXBXBXBXMXMXMXMXNXNXNXNXNXMXMXMXMXNXFXFXFXFXFXFXFXFXFXFXFXNXNXSXSXFXFXFXFXFXFXFXFXFXFXFXFXFXFXFXFXFXFXFXFXFXFXFXFXFXFXFXFXFXFXFXFX",
"V.V.V.V.V.V.V.V.V.V.V.V.V.V.V.V.V.V.V.V.C.V.V.V.V.V.V.V.V.V.V.V.V.V.V.V.V.V.V.V.V.V.V.V.V.V.V.V.C.C.C.C.C.C.C.C.V.V.C.V.V.V.C.V.V.V.V.C.C.C.C.K.V.V.V.V.V.C.C.C.C.C.C.C.C.C.C.C.D.D.D.D.D.D.D.D.C.D.D.D.D.D.L.L.D.D.L.L.L.I.I.I.D.I.I.I.D.I.I.I.F.P.P.P.P.P.P.F.U.U.I.U.I.I.I.I.U.U.U.U.U.U.U.U.U.U.U.U.U.U.U.U.U.U.U.U.U.U.U.Y.Y.Y.Y.U.U.T.T.T.T.T.T.T.E.E.R.T.T.T.T.T.Y.T.T.T.T.T.T.T.T.T.R.R.E.R.R.R.R.E.R.R.!.!.~.E.~.!.!.Q.E.E.!.E.5XE.E.!.^.!.E.E.!.!.!.E.E.1X4X4X2XE.E.2X!.!.!.!.!.!.^.^.^.^.^.^.^.^.2X2X^.^.^.^.^.^.^.^.^.^.^.^.2X2X2X2X2X2X2X2X2X2X2X2X2X2X3X3X3X3X2X3X3X3X3X3X3X3X5X5X3X3X3X3X5X5X5X5X5X5X5X5X5X5X5X5X8X5X5X5X8X8X8X8X8X8X8X7X7X7X7X7X0X0X0X0XdXdX0X0X0X0X0X0X0X0X0X0XaXaXaXaX0XaXaXaXaXaXaXaXaXaXaXaXaXaXaXaXaXaXaXaXaXaXsXsXsXsXsXsXsXsXsXsXxXxXxXxXcXcXvXvXvXvXvXvXvXvXvXvXvXvXvXvXcXcXcXcXvXvXvXvXvXvXvXvXbXbXbXbXbXbXbXbXbXbXbXbXnXnXbXnXnXnXnXnXnXnXnXnXnXnXnXBXnXnXnXMXMXMXMXMXMXMXMXNXNXNXNXNXMXMXMXMXSXFXFXFXFXFXFXFXFXFXFXFXFXFXFXFXFXFXFXFXFXFXFXFXFXFXFXFXFXFXFXFXFXFXFXFXFXFXFXFXFXFXFXFXFXFXFXFX",
"V.V.V.V.V.V.V.V.V.V.V.V.V.V.V.V.V.V.V.V.C.C.V.V.V.V.V.V.V.V.V.V.V.V.V.V.V.V.V.C.V.V.V.V.V.V.V.V.C.C.C.C.C.C.C.C.V.V.V.V.V.C.C.C.V.V.V.C.C.C.C.K.C.C.V.V.C.C.C.C.C.C.C.C.C.C.C.C.D.D.D.D.D.D.D.D.C.D.D.D.D.D.L.L.L.L.L.L.L.I.I.I.I.I.F.F.D.I.U.U.P.P.U.U.U.U.P.U.I.I.I.I.I.I.I.I.U.U.U.U.U.U.U.U.U.U.U.U.U.U.U.U.U.U.U.U.U.U.U.U.U.Y.Y.U.U.T.T.T.T.T.T.T.E.E.R.T.T.T.T.T.T.T.T.T.T.T.T.T.T.T.R.R.E.R.R.R.R.E.R.R.!.~.~.~.~.!.!.Q.E.E.!.E.5XE.E.!.^.!.E.E.!.!.!.E.1X2X4X2X1XE.E.2X!.!.!.!.!.!.^.^.^.^.^.^.^.^.2X2X^.^.^.^.^.^.^.^.^.^.^.^.2X2X2X2X2X2X2X2X2X2X2X2X2X3X3X3X2X2X3X3X3X3X3X3X3X3X5X5X3X3X3X5X5X5X5X5X5X5X5X5X5X5X5X5X8X8X5X5X8X8X8X8X8X8X8X7X7X7X7X7X0X0X0XdX0XdX0X0X0X0X0X0X0X0XdXdXaXaXaXdX0XaXaXaXaXaXaXaXaXaXaXaXaXaXaXaXsXsXaXaXaXaXaXaXaXsXsXsXsXsXsXsXxXxXxXxXsXsXcXvXvXvXvXvXvXvXvXvXvXvXvXvXcXcXcXcXvXvXvXvXvXvXvXvXbXbXbXbXbXbXbXbXbXbXbXbXbXbXbXnXnXnXnXnXnXnXnXnXnXnXBXBXnXnXnXMXMXMXMXMXMXMXNXNXNXNXNXNXMXMXSXSXFXFXFXFXFXSXFXFXFXFXFXFXNXNXNXNXNXFXFXFXFXFXFXFXFXFXFXFXFXFXFXFXFXFXFXFXFXFXFXFXFXFXFXFXFXFXFXFX",
"V.V.V.V.V.V.V.V.V.V.V.V.V.V.V.V.V.V.V.V.V.V.V.V.V.V.V.V.V.V.C.V.V.V.V.V.V.C.C.C.V.V.V.V.V.V.V.V.C.C.C.C.C.C.C.C.C.C.C.C.C.C.C.C.V.V.V.C.C.C.C.C.C.C.C.C.C.C.C.C.C.C.C.C.C.C.C.C.D.D.D.D.D.D.D.D.C.D.D.D.D.L.L.L.L.L.L.L.L.I.I.I.I.I.F.D.I.I.U.U.L.L.U.U.U.U.L.L.U.U.U.U.I.I.I.I.U.U.U.U.U.U.U.U.U.U.U.U.U.U.U.U.U.U.U.U.U.U.U.U.Y.Y.Y.U.U.T.T.T.T.T.T.T.E.R.R.R.T.T.T.T.T.T.T.T.T.T.T.T.T.T.R.R.E.R.R.R.R.E.E.R.!.~.~.~.~.!.!.Q.E.E.!.Q.5XE.E.!.^.!.E.E.Q.!.!.!.1X2X4X2X1XE.1X2X!.!.!.!.^.^.^.^.^.^.^.^.^.^.2X2X^.^.^.^.^.^.^.^.^.^.^.^.2X2X2X2X2X2X2X2X2X2X2X2X3X3X3X3X3X3X3X3X3X3X3X3X3X5X5X5X3X3X3X5X5X5X5X5X5X5X5X5X8X5X5X5X8X8X5X7X7X7X8X7X8X8X7X7X7X7X7X7X0X0X0XdX0X0X0X0X0X0X0X0X0X0XdXdXaXaXaXdX0XaXaXaXaXaXaXaXaXaXaXaXaXaXaXaXsXaXsXsXaXaXaXsXsXsXsXsXsXsXsXsXxXxXxXxXsXxXxXvXvXvXvXvXvXvXvXvXvXvXvXvXcXcXcXvXvXvXvXvXvXvXvXvXvXbXbXbXbXbXbXbXbXbXbXbXbXbXnXnXnXnXnXnXnXnXnXnXnXnXBXBXnXnXMXMXMXMXNXNXMXMXNXNXNXNXNXNXNXNXFXNXFXFXFXFXFXFXFXFXFXFXFXFXFXFXFXFXFXFXFXFXFXFXFXFXFXFXFXFXFXFXFXFXFXFXFXFXFXFXFXFXFXFXFXFXFXFXFXFX",
"V.V.V.V.V.V.V.V.V.V.V.V.V.V.V.V.V.V.V.V.V.V.V.V.C.C.C.C.V.V.V.V.V.V.V.V.V.V.V.V.V.V.V.V.V.V.V.V.C.C.C.C.C.C.C.C.C.C.C.V.C.C.C.C.V.V.C.C.C.C.C.C.C.C.C.C.C.C.C.C.C.C.C.C.C.L.L.L.D.D.D.D.D.D.D.D.C.D.D.D.D.L.L.L.L.L.L.L.L.I.I.I.I.I.F.U.I.I.I.U.U.U.U.U.U.U.U.U.U.U.U.U.U.U.U.U.U.U.U.U.U.U.U.U.U.U.U.U.U.U.U.U.U.U.U.U.U.U.U.T.Y.Y.Y.U.Y.T.T.T.T.T.T.R.R.R.R.R.T.T.T.T.T.T.T.T.T.T.T.T.T.T.R.R.E.E.R.R.R.E.E.R.!.!.~.E.E.Q.!.Q.!.E.Q.E.5XE.Q.^.!.Q.E.E.!.!.!.!.2X3X4X2X2X!.2X2X!.!.!.!.^.^.^.^.^.^.^.^.^.^.2X2X^.^.^.^.^.^.^.^.^.^.^.^.2X2X2X2X2X2X2X2X2X3X3X3X2X2X2X2X3X3X3X3X3X3X3X3X3X3X5X5X3X3X5X3X5X5X5X5X5X5X5X5X5X5X5X5X8X6X6X6X8X7X7X7X6X6X7X7X7X7X7X7X0X0X0XdXdXdX0X0X0X0X0X0X0X0XaX0XdXdXdXdXaXaXaXaXaXaXaXaXaXaXaXaXaXaXaXaXsXsXsXsXaXaXaXsXsXsXsXsXsXsXsXxXxXxXxXxXsXvXvXvXvXvXvXvXvXvXvXvXvXvXvXvXvXvXvXvXvXvXvXvXvXvXvXbXbXbXbXbXbXbXbXbXbXbXbXbXbXbXnXnXnXnXnXnXnXnXnXnXnXnXBXBXnXnXMXMXNXNXNXNXMXNXNXNXNXNXNXNXNXNXNXFXFXFXFXFXFXFXFXFXFXFXFXFXFXFXFXFXFXFXFXFXFXFXFXFXFXFXFXFXFXFXFXSXFXFXFXFXFXFXSXSXDXDXDXDXHXHXHXHX",
"V.V.V.V.V.V.V.V.V.V.V.V.V.V.V.V.V.V.V.V.V.V.V.V.C.C.C.C.V.V.V.V.V.C.C.C.C.C.C.C.V.V.V.V.V.V.V.V.C.C.C.C.D.D.C.C.C.C.C.V.C.C.C.C.C.C.C.C.C.C.C.C.C.C.C.C.C.C.C.C.C.C.C.K.L.L.L.L.D.D.D.D.D.D.D.L.C.D.D.D.L.L.L.L.I.I.I.I.I.L.I.I.I.I.I.I.I.U.U.U.U.U.U.U.I.I.I.I.U.U.U.U.U.U.U.U.U.U.U.U.U.U.U.U.U.U.U.U.U.U.U.U.U.U.U.U.U.U.T.T.Y.Y.Y.Y.Y.T.T.T.T.T.T.R.R.R.R.R.T.T.T.T.T.R.R.R.T.T.T.T.T.T.R.R.E.E.R.R.R.E.E.E.~.!.~.E.E.Q.Q.Q.Q.E.Q.E.5XE.Q.^.!.!.!.Q.Q.Q.!.!.1X4X4X1XE.1X2X2X!.!.^.^.^.^.^.^.^.^.^.^.^.^.2X2X^.^.^.^.^.^.^.^.^.^.^.^.2X2X2X2X2X2X2X2X3X3X3X3X2X2X3X3X3X3X3X5X3X3X3X3X3X5X5X5X3X3X3X3X5X5X5X5X5X5X5X5X5X5X5X7X6X6X7X7X7X7X7X7X6X6X7X7X7X7X7X7X0X0X0XdXdXdX0X0X0X0X0X0X0X0X0X0XdXdXdXdXaXaXaXaXaXaXaXaXaXaXaXaXaXaXsXsXsXsXsXsXsXaXaXsXsXsXsXxXsXxXxXxXxXxXxXxXvXvXvXvXvXvXvXvXcXcXcXcXcXcXcXvXvXvXvXvXvXvXvXvXvXvXvXbXbXbXbXbXbXbXbXbXbXbXbXbXbXnXnXnXnXnXnXnXnXnXnXnXnXBXBXBXMXMXMXNXMXNXNXNXNXNXNXNXNXNXNXNXNXNXNXFXFXFXFXFXFXFXFXFXFXFXFXFXMXMXFXFXFXFXFXFXFXFXFXFXSXSXSXSXSXSXGXGXZXZXCXCXCXCXCXCXCXZXZXZXDXDXDXDX",
"V.V.V.V.V.V.V.V.C.V.V.V.V.V.V.V.C.V.V.V.V.V.V.V.C.C.C.C.V.V.V.V.V.C.C.C.C.C.C.C.V.V.V.V.V.V.V.V.C.C.C.C.D.C.C.C.C.C.C.V.C.C.C.C.C.C.C.C.C.C.C.C.C.C.C.C.C.C.C.C.C.L.K.K.L.L.L.L.D.D.D.D.D.D.L.L.C.D.D.D.L.L.L.L.I.I.I.I.L.L.L.L.I.I.I.I.I.I.I.I.U.U.U.U.U.U.U.U.U.U.U.U.U.U.U.U.U.U.U.U.U.U.U.U.U.U.U.U.U.U.U.U.U.U.U.U.U.Y.T.T.Y.Y.Y.Y.Y.T.T.T.T.T.R.R.R.R.R.R.T.T.T.R.R.R.R.R.T.T.T.T.T.T.R.R.E.E.R.R.R.E.E.R.!.!.~.E.~.!.Q.Q.!.R.~.E.3XE.!.2X!.!.Q.!.E.Q.E.!.1X4X2X1XE.1X2XE.!.^.^.^.^.^.^.^.^.^.^.^.^.^.2X2X2X2X2X2X2X2X2X2X^.^.^.^.2X2X2X2X2X2X2X2X3X3X3X3X2X3X3X3X3X3X5X5X3X3X3X3X3X3X5X5X3X3X3X5X5X5X5X5X5X5X5X5X5X5X5X5X8X7X7X7X7X7X7X7X6X6X7X7X7X7X7X7X0X0X0XdXdXdX0X0X0X0X0X0X0X0X0X0XaXaXaXaXaXaXaXaXaXaXaXaXaXaXaXaXsXsXsXsXsXsXsXsXsXsXsXsXxXsXxXxXxXxXxXxXxXxXxXxXvXvXvXvXvXvXvXvXcXcXcXcXcXcXvXvXvXvXvXvXvXvXvXvXvXvXvXbXbXbXbXbXbXbXbXbXbXbXbXbXbXbXnXnXnXnXnXnXnXnXnXnXBXBXBXBXMXMXMXNXMXNXNXNXNXNXNXNXNXNXFXFXNXNXNXFXFXFXFXFXFXFXFXFXFXFXFXFXFXFXFXFXFXSXGXmXzXlXCXZXCXCXuXyXuXuXuXuXhXhX=X=X=X=X=X=X=XhXhXhXhXhXhXhX",
"V.V.V.V.C.C.C.C.Z.Z.V.V.V.V.V.V.C.V.V.V.V.V.V.V.C.C.C.C.C.C.C.C.V.C.C.C.C.C.C.C.V.V.V.C.C.V.V.V.C.C.C.C.D.C.C.C.C.C.C.V.C.C.C.C.C.C.C.C.C.C.C.C.C.C.C.C.C.C.C.D.L.L.K.K.L.L.L.L.D.D.D.D.D.L.L.L.C.D.D.D.L.L.L.L.I.I.I.I.L.L.L.L.I.U.U.I.I.I.I.I.U.U.U.U.U.U.U.U.U.U.U.U.U.U.U.U.U.U.U.U.U.U.U.U.U.U.U.U.U.U.U.U.U.U.U.U.Y.Y.T.T.Y.Y.Y.Y.Y.T.T.T.U.T.T.T.T.T.R.R.T.T.T.R.R.R.R.R.T.T.T.T.T.T.R.R.E.E.R.R.R.E.E.R.!.~.~.~.~.!.!.Q.!.R.~.E.3XE.!.2X!.!.!.Q.E.E.!.!.1X4X3XE.E.2X2XE.!.^.^.^.^.^.^.^.^.^.^.^.^.^.2X2X2X2X2X2X2X2X2X2X^.^.^.^.2X2X2X2X2X2X2X3X3X3X3X3X2X3X3X3X3X5X5X5X3X3X3X3X3X3X5X5X3X3X3X5X5X5X5X5X5X5X5X5X5X5X5X8X8X7X7X7X7X7X7X7X6X6X7X7X7X7X7X7X0X0X0XdXdXdXdX0X0X0X0X0X0X0X0X0XaXaXaXaXaXaXaXaXaXaXaXaXaXaXaXaXsXsXsXsXsXsXsXsXsXsXsXxXsXxXxXxXxXxXxXxXxXxXxXxXvXvXvXvXvXvXvXvXcXcXcXcXcXvXvXvXvXvXvXvXvXvXvXvXvXvXvXbXbXbXbXbXbXbXbXbXbXbXbXBXbXbXnXnXnXnXnXnXnXnXnXnXnXnXBXBXMXMXMXMXMXMXMXNXNXNXNXNXNXNXFXFXNXNXNXFXFXFXFXFXFXFXFXFXFXFXFXFXSXFXSXmXpXeX%X+XoXOXOX-X-X$X`.x.).).'.].].]._.).3.3.3.3._.{.{.{.{.{.{.{.",
"V.V.V.V.V.V.V.V.C.C.C.V.V.V.C.C.K.K.C.C.C.V.V.C.C.C.C.C.C.C.C.C.V.V.C.C.C.C.C.C.V.C.C.C.K.K.K.C.C.C.C.C.C.C.K.K.C.C.C.C.C.C.C.C.C.C.C.C.C.C.C.C.C.C.C.C.C.C.C.C.D.D.D.D.D.D.D.D.C.C.C.D.D.L.L.L.I.I.L.D.L.L.L.L.L.I.I.I.I.U.I.I.I.I.U.U.U.U.U.I.I.I.U.U.U.U.U.U.U.U.U.U.U.U.U.U.U.U.U.U.U.U.U.U.U.U.U.U.U.U.U.U.U.U.U.U.U.U.U.T.Y.Y.Y.Y.Y.T.T.T.T.Y.Y.T.T.T.R.R.T.T.T.T.T.R.R.R.R.T.R.R.R.T.T.R.E.E.~.R.E.R.R.R.T.1X~.E.~./.!.!.E.T.!.!.3XE.3XE.~.Q.!.Q.Q.Q.!.~.3X3X1XE.E.1X2X!.2X2X2X2X2X2X2X2X^.^.^.^.^.^.2X2X2X2X2X2X2X2X2X2X2X2X2X2X2X2X2X2X2X2X2X3X3X3X3X3X3X3X3X3X3X3X3X3X5X3X3X3X3X3X5X5X5X5X5X5X5X5X5X5X5X5X5X5X5X7X8X8X8X8X8X7X7X7X7X0X7X7X7X7X7X7X0X7X0X0X0X0X0X0X0XdX0X0X0XaXaXaXaXaXdXdXdXdXdXdXaXaXaXaXaXaXaXaXsXsXaXaXaXaXsXsXsXsXsXxXaXsXsXxXsXsXxXxXxXxXxXxXxXxXcXcXcXcXcXcXcXvXcXcXcXcXcXcXcXcXvXvXvXvXvXvXvXvXbXbXbXbXbXbXbXbXbXbXbXbXbXnXnXnXbXnXnXnXnXnXnXnXnXnXnXnXBXBXBXBXMXMXMXMXMXMXNXMXMXMXMXNXNXSXFXGXFXFXFXFXFXFXFXFXNXNXFXFXFXGXGXpX*XOX`.x.x.x.x.x.x.x.x.3.c.c.c.c.3.3.3.4.4.4.3.3.4.3.3.3.3.3.3.3.3.3.3.3.",
"V.V.V.V.V.V.V.V.C.C.C.V.V.V.C.C.K.K.C.C.C.V.V.C.C.C.C.C.C.C.C.C.V.V.C.C.C.C.C.C.V.C.C.C.K.K.K.K.C.C.C.C.C.C.K.K.C.C.C.C.C.C.C.C.C.C.C.C.C.C.C.C.C.C.C.C.C.C.C.C.D.D.D.L.D.D.D.D.C.C.C.D.D.L.L.L.I.I.L.I.L.L.L.L.I.L.L.I.I.U.I.I.I.I.U.U.U.U.I.I.I.U.U.U.U.U.U.U.U.U.U.U.U.U.U.U.U.U.U.U.U.U.U.U.U.U.U.U.U.U.U.U.U.U.U.U.U.U.U.T.Y.Y.Y.Y.Y.T.T.T.T.Y.Y.T.T.R.R.E.T.T.T.T.R.R.R.R.R.T.R.R.R.T.T.R.E.E.~.R.E.R.E.R.T.1X~.E.~.!.!.Q.!.T.!.2X3XE.3XE.~.!.!.Q.Q.!.!.1X4X3X1XE.E.2X2X!.^.^.^.^.^.^.^.^.^.^.^.^.^.2X2X2X2X2X2X2X2X2X2X2X2X2X2X2X2X2X2X2X2X2X3X3X3X3X3X3X3X3X3X3X3X3X3X3X5X5X3X3X3X3X5X5X5X5X5X5X5X5X5X5X5X5X5X5X7X7X8X8X8X8X7X8X7X7X7X0X7X7X7X7X7X0X0X0X0X0X0X0X0X0XdXdX0X0X0X0XaXaXdXaXdXdXdXdXdXdXaXaXaXaXaXaXaXaXsXsXaXaXaXaXsXsXsXsXxXxXaXsXsXxXsXcXxXxXxXxXxXxXxXxXcXcXcXcXcXcXcXvXcXcXcXcXcXcXcXvXvXvXvXvXvXvXvXvXbXbXbXbXbXbXbXbXbXnXbXbXnXnXnXnXbXbXnXnXnXnXnXnXnXnXnXnXnXnXnXnXNXNXMXnXMXMXMXMXMXMXNXNXFXFXFXNXNXNXNXFXFXFXFXFXFXGXzXtX%XoXx.s.x.x.x.x.x.x.O.o.3.3.3.4.4.,.,.,.,.,.,.4.4.4.4.4.,.,.,.,.,.,.4.4.4.4.4.4.",
"C.C.C.V.V.V.V.V.C.C.V.V.V.V.C.C.K.C.C.C.C.C.V.V.C.C.C.C.C.C.C.C.V.C.C.C.C.C.C.C.C.C.C.C.C.K.C.C.C.C.C.C.C.C.K.K.C.C.C.C.C.C.C.C.C.C.C.C.C.C.C.C.C.C.C.C.K.K.C.C.C.C.D.D.D.D.D.L.C.C.D.D.D.L.L.L.I.I.I.I.L.L.L.L.L.L.I.I.U.U.U.I.I.U.U.U.I.I.I.U.U.U.U.U.U.U.U.U.U.U.U.U.U.U.U.U.U.U.U.U.U.U.U.U.U.U.U.U.U.U.U.U.U.U.U.U.U.U.U.T.Y.Y.Y.Y.Y.Y.T.T.T.T.Y.T.T.R.E.E.T.T.T.T.R.R.R.R.R.T.R.R.R.T.T.R.E.E.~.R.E.R.E.R.E.1X~.E.~.!.~.Q.!.E.E.2X3XE.3X!.~.!.^.!.!.!.1X2XgX4X1XE.!.2X^.!.^.^.^.^.^.^.^.^.^.^.^.^.^.2X2X2X2X2X2X2X2X2X2X2X2X2X2X2X2X2X2X2X3X3X3X3X3X3X3X3X3X3X3X3X3X3X3X3X5X5X3X3X3X3X5X5X5X5X5X5X5X5X5X5X5X5X5X5X7X7X7X8X8X8X8X8X7X7X7X0X7X7X7X7X7X7X7X7X0X7X0X0X0X0XdXdX0X0X0X0X0X0XaXaXdXdXdXdXdXdXaXaXaXaXaXaXsXsXsXsXaXaXaXaXsXxXsXsXxXxXxXsXxXxXcXcXxXxXxXxXxXxXxXcXcXcXcXcXcXcXcXcXcXvXvXvXvXvXvXvXvXvXvXvXvXvXvXbXbXbXbXbXbXbXbXbXnXnXnXnXnXnXnXnXnXnXnXnXnXnXnXnXnXnXnXnXnXMXMXMXMXMXnXMXNXNXNXBXFXFXNXMXNXNXNXNXFXFXFXSXSXGXpXrX-X$Xx.x.x.x.c.c.3.3.[ [ [ ,.4.4.,.,.,.,.,.,.,.,.,.,.,.,.,.,.,.,.=.*.,.,.,.,.,.<.5.5.5.5.",
"C.C.C.C.V.V.V.V.C.C.C.C.C.C.C.C.C.C.C.C.C.C.C.C.C.C.C.C.C.C.C.C.C.C.C.C.C.C.C.C.C.C.C.C.C.C.C.C.C.C.C.C.C.C.K.K.C.C.C.C.C.C.C.C.D.D.D.D.C.C.C.C.C.C.C.C.C.C.C.C.C.C.C.C.C.L.L.L.D.D.D.D.L.L.L.L.I.I.I.I.L.I.I.L.I.I.I.I.U.U.U.U.I.U.U.U.I.U.U.U.U.U.U.U.U.U.U.U.U.U.U.U.U.U.U.U.U.U.U.U.U.U.U.U.U.U.U.U.Y.U.Y.Y.U.U.U.U.T.T.U.U.Y.Y.Y.Y.Y.Y.T.T.T.T.T.T.T.R.E.Q.T.T.T.T.R.R.R.R.R.R.R.R.R.T.T.Q.E.E.~.R.E.R.E.E.E.2X!.E.~.!.~.Q.!.E.E.2X2X~.3X!.~.!.Q.!.!.!.2X1XgX4X1XE.1X2X^.E.^.^.^.^.^.^.^.2X^.^.^.^.2X2X2X2X2X2X2X2X2X2X2X2X2X2X2X2X2X2X2X3X3X3X3X3X3X3X3X3X3X3X3X3X3X3X3X3X5X5X5X5X3X3X5X5X5X5X5X5X5X5X5X5X5X5X5X7X7X7X7X7X8X8X8X8X7X7X7X0X7X7X7X7X0X7X7X7X7X0X0X0X0X0X0X0XdX0X0X0XdXaXaXaXdXdXdXaXdXdXaXsXaXaXaXaXaXsXsXsXsXsXsXsXsXsXsXxXxXxXxXsXxXxXcXcXxXxXxXxXxXcXcXcXcXcXcXcXvXcXcXcXcXvXvXvXvXvXvXvXvXvXvXvXbXbXbXbXbXbXbXbXbXbXbXbXnXnXnXnXnXnXnXnXnXnXnXnXnXnXnXnXnXnXnXnXMXMXMXMXnXnXNXNXNXNXBXMXMXMXNXFXFXFXNXNXSXGXpXrX*X$Xc.3.c.3.3.4.4.,.,.,.,.,.,.,.,.,.,.,.,.,.,.,.,.,.,.,.,.,.*.,.=.=.=.=.,.,.<.<.<.,.,.,.=.*.*.=.",
"V.V.C.C.C.V.V.V.C.C.C.C.C.C.C.C.K.K.C.C.C.C.C.C.C.C.C.C.C.C.C.C.C.C.C.C.C.C.C.C.C.C.C.C.C.C.C.C.C.C.C.C.C.C.K.K.C.C.C.C.C.D.D.D.D.D.D.D.D.C.C.C.C.C.C.C.C.C.C.C.C.C.K.K.L.L.L.L.D.D.I.I.I.L.L.L.L.L.L.I.I.I.I.P.I.I.I.U.I.U.U.U.U.I.I.I.U.U.U.U.U.U.U.U.U.U.U.U.U.U.U.U.U.U.U.U.U.U.U.U.U.U.U.U.U.U.U.U.U.U.Y.Y.U.U.U.U.U.U.U.U.Y.Y.Y.Y.Y.T.T.T.T.T.T.T.T.R.E.E.T.R.R.T.R.R.R.R.R.R.R.R.R.T.R.R.E.~.Q.R.R.E.~.E.~.1X2X~.!.^.Q.Q.!.~.E.3X2X!.3X!.~.Q.!.!.E.1X1X1XgX4X1XE.1X2X!.!.^.^.^.^.^.^.^.^.^.^.^.2X2X2X2X2X2X2X2X2X2X2X2X2X^.2X2X2X2X3X3X3X3X3X3X3X3X3X3X3X3X3X3X3X3X5X3X3X5X3X3X3X3X5X5X5X5X5X5X5X8X8X8X8X5X8X8X7X8X8X8X8X7X7X7X7X7X7X7X7X7X7X7X0X7X7X7XdX0X0X0X0X0X0X0XdX0X0X0X0XdXaXaXaXdXaXaXaXdXaXaXaXaXaXsXaXsXsXsXsXsXsXsXsXsXsXsXsXsXxXsXsXxXxXcXcXxXxXxXxXxXxXvXvXcXcXcXcXcXcXcXcXvXvXvXvXvXvXvXvXvXvXvXvXbXbXbXbXbXbXbXbXbXbXnXnXbXbXbXnXnXnXnXnXnXnXnXnXnXnXnXnXMXMXnXMXMXMXMXMXMXNXNXNXnXnXBXNXNXNXNXSXSXGXGXCX*X-Xc.c.c.4.,.,.5.,.,.,.,.,.,.,.,.,.,.,.,.,.=.=.,.,.,.,.,.,.,.=.=.=.=.=.,.,.,.,.,.,.,.*.*.=.=.=.=.=.=.=.",
"V.V.V.C.C.C.V.V.C.C.C.C.C.C.C.C.K.K.C.C.C.C.C.C.C.C.C.C.C.C.C.C.C.C.C.D.D.D.C.C.C.C.C.C.K.C.C.C.C.C.C.C.C.C.K.K.C.C.C.D.D.D.D.D.D.D.D.D.D.D.C.C.C.C.C.C.C.C.C.D.C.C.K.K.K.K.K.K.D.D.I.I.I.I.L.L.I.L.L.I.I.I.I.P.U.U.U.U.I.U.U.U.U.I.I.U.U.U.U.U.U.U.U.U.U.U.U.U.U.U.U.U.U.U.U.U.U.U.U.U.U.U.U.U.U.U.U.U.Y.U.U.U.U.U.T.T.U.U.U.T.Y.Y.Y.Y.Y.T.T.T.T.T.T.T.T.R.E.E.R.R.T.T.R.R.R.R.R.R.R.R.R.R.R.R.R.~.Q.R.R.~.~.E.~.3X2X~.!.^.Q.Q.~.!.T.3X!.!.2X!.Q.Q.!.!.E.2X1X4XgX1X1X1X1X2X!.!.^.^.^.^.^.^.^.^.^.2X2X2X2X2X2X2X2X2X2X2X2X2X2X2X2X2X2X2X3X3X3X3X3X3X3X3X3X3X3X3X3X3X3X3X5X5X5X5X5X5X3X3X3X5X5X5X5X5X8X5X8X8X8X8X8X7X8X8X7X8X8X7X7X7X7X7X7X7X7X0X7X0X0X0X7X7X7XdX0X0X0X0X0X0XdXdX0X0XdXdXdXdXaXaXaXaXaXaXaXaXaXaXaXaXsXaXsXsXsXsXsXsXsXsXsXsXsXsXxXxXxXsXxXxXcXcXxXxXxXvXxXcXvXvXcXcXcXcXcXcXcXvXvXvXvXvXvXvXvXvXbXbXbXbXbXbXbXbXbXbXbXbXbXbXnXnXbXbXbXnXnXnXnXnXbXnXnXnXnXnXnXnXnXMXnXMXMXMXMXMXNXNXMXMXMXMXFXFXMXMXSXSXCXrX$Xc.c.c.,.,.5.5.5.5.,.,.,.,.,.,.,.<.,.,.=.=.=.,.,.,.,.,.,.,.,.=.=.=.=.,.,.,.,.,.,.,.,.=.=.$.=.=.,.,.,.,.,.,.",
"V.V.C.C.C.C.C.C.C.C.C.C.C.C.C.C.K.K.C.C.C.C.C.C.C.C.C.C.C.C.C.C.C.C.C.D.D.D.D.C.C.C.C.K.K.C.C.C.C.C.C.C.C.C.K.K.C.D.D.D.D.D.D.D.D.D.D.D.D.D.D.D.C.C.C.C.D.D.D.D.C.C.K.K.K.K.K.I.D.D.I.I.I.L.L.L.I.I.I.I.I.I.I.U.I.U.I.U.U.U.U.U.I.U.I.U.U.U.U.U.U.U.U.U.U.U.U.U.U.U.U.U.U.U.U.U.U.U.U.U.Y.U.U.U.U.U.Y.Y.Y.Y.T.T.U.T.T.T.U.U.T.T.Y.Y.Y.Y.Y.T.T.T.R.R.T.T.T.R.R.R.R.R.R.R.R.R.R.R.R.R.R.R.R.T.R.R.R.~.Q.R.R.E.~.~.~.2X2X~.!.^.Q.Q.E.!.T.5X!.2X2X!.~.Q.E.E.2X2X3X4X4X1X1X1X1X1X!.^.^.^.^.^.^.^.^.^.2X2X2X2X2X2X2X2X2X2X2X2X2X2X2X3X2X2X2X2X3X3X3X3X3X3X3X3X3X3X3X3X3X3X3X3X5X5X5X5X5X5X3X3X5X5X5X5X5X8X5X5X8X8X8X8X5X5X5X5X7X7X7X7X7X7X7X7X7X7X7X0X0X0X7X7X7X7XdXdX0X0X0X0X0X0XdXdX0XaXdXdXaXaXaXaXaXaXaXaXaXaXaXaXaXsXsXsXsXsXsXsXsXsXsXsXsXsXsXsXxXxXxXsXxXxXcXcXxXxXxXxXxXxXvXvXcXvXcXcXcXcXvXvXvXvXvXvXvXbXbXbXbXbXbXbXbXbXbXbXbXbXbXbXbXbXnXbXbXbXbXnXnXnXbXbXbXnXnXnXnXnXnXnXMXMXMXMXMXMXMXNXNXMXMXMXSXSXGXGXGXpX-Xc.c.c.c.5.5.,.,.,.,.,.,.=.,.,.,.<.,.,.=.C =.=.,.,.,.,.=.=.,.=.=.=.=.=.,.,.,.,.,.,.=.=.$.$.=.=.=.=.=.,.,.,.,.,.,.,.",
"V.V.C.C.C.C.C.C.C.C.C.C.C.C.C.C.K.K.C.C.C.C.C.C.C.C.C.C.C.C.C.C.C.C.D.D.D.D.D.D.C.C.C.K.K.K.C.C.C.C.C.C.C.C.K.K.D.D.D.D.D.D.D.D.D.D.D.D.D.D.D.D.C.C.C.C.D.D.D.L.C.C.K.K.K.K.I.I.D.D.I.I.I.I.L.L.I.I.I.I.I.I.U.U.I.I.I.U.U.U.U.U.U.U.U.U.U.U.U.U.U.U.U.U.U.U.U.U.U.U.U.U.U.U.U.U.Y.U.U.U.Y.U.U.U.U.T.Y.Y.Y.T.T.T.U.T.T.T.U.T.T.T.Y.Y.Y.T.Y.T.T.T.R.R.T.T.T.T.R.R.R.R.R.R.R.R.R.R.R.R.R.R.R.T.R.R.R.~.Q.R.R.E.~.~.E.2X!.E.!.^.Q.Q.E.!.T.5X!.2X2X!.~.Q.!.E.2X1X4X4X3X1X1X2X2XE.!.2X^.^.^.^.^.^.^.^.2X2X2X2X2X2X2X2X2X2X2X2X2X2X3X3X2X2X2X3X3X3X3X3X3X3X3X3X3X3X3X3X3X3X3X5X5X5X5X5X5X5X5X3X5X5X5X5X8X8X8X8X8X8X8X8X5X5X5X7X7X7X7X7X7X7X7X7X7X7X7X0X7X7X7X7X7X7XdXdX0X0X0X0X0X0XdXdX0XaXaXaXaXaXaXaXaXaXaXaXaXaXaXaXsXsXsXsXsXsXsXsXsXsXsXsXsXsXsXsXxXxXxXxXxXxXcXcXxXxXxXxXxXxXvXvXcXvXcXcXcXvXvXvXvXbXvXvXbXbXbXbXbXbXbXbXbXbXbXbXbXbXbXbXbXbXbXnXbXbXbXnXnXnXbXbXbXnXnXnXnXnXnXnXMXMXMXMXMXMXMXMXNXNXMXNXSXzXrX#Xc.c.,.,.,.,.,.,.,.,.,.,.,.,.,.,.,.,.=.=.=.=.,.,.,.,.,.,.=.=.=.=.$.=.=.,.,.,.,.=.=.=.$.$.$.$.=.=.$.=.=.*.*.,.=.$.=.=.=.=.",
"C.C.D.D.C.C.C.C.C.C.C.C.C.C.C.C.C.C.C.C.C.C.C.C.C.C.C.C.C.C.C.C.C.C.C.K.K.L.L.L.D.D.D.D.D.D.D.D.C.C.C.C.C.C.C.C.C.C.K.K.K.C.D.D.D.D.D.C.D.D.D.D.D.D.D.D.D.D.D.D.K.K.K.K.L.L.L.L.L.L.I.I.I.I.I.I.I.I.I.I.I.I.I.U.U.U.I.I.I.U.U.U.U.U.U.U.U.U.U.U.U.U.U.U.U.U.U.U.U.U.Y.Y.Y.Y.Y.Y.U.U.U.Y.Y.Y.U.Y.Y.Y.T.Y.Y.T.T.T.T.T.T.T.T.Y.Y.Y.T.T.T.T.T.T.T.T.Y.Y.T.T.R.R.E.E.E.T.T.R.R.T.R.Q.Q.R.R.R.R.T.T.T.R.R.R.R.R.R.Q.Q.!.E.3XE.!.!.!.~.!.!.^.3X3X2X!.!.!.Q.!.1X1X1X3XgX2X2X2X^.^.^.^.^.!.!.^.^.^.^.^.^.2X2X2X2X2X2X2X2X2X2X2X2X2X2X3X3X2X2X2X2X2X2X3X3X3X3X3X3X3X3X3X5X3X3X3X3X5X5X5X5X5X5X5X5X5X5X5X5X5X5X5X5X5X7X7X7X8X7X5X7X7X7X7X7X7X7X7X7X7X7X7X7X7X7X0X0X0X0X0X0X7X0X0XdXdXdXdXdXdXdXaXaXaXaXaXaXdXdXdXaXaXaXaXaXaXaXaXsXsXsXsXsXsXsXsXsXsXsXsXxXsXsXsXsXcXvXvXvXxXxXxXxXxXvXvXxXxXxXcXvXvXvXvXvXbXvXvXvXvXvXbXbXbXbXbXbXbXbXbXbXbXbXbXbXbXnXnXnXbXnXnXnXnXnXnXbXnXnXnXnXBXMXNXNXNXNXNXNXBXBXNXMXFXGXpX*X$Xc.,.,.,.,.,.,.,.,.=.=.=.,.,.,.,.,.=.=.$.=.,.,.,.,.,.,.=.=.$.$.=.=.,.,.,.,.,.,.,.=.=.=.=.$.$.$.=.=.=.$.=.=.=.=.=.=.=.=.=.=.=.=.",
"C.C.D.D.C.C.C.C.C.C.C.C.C.C.C.C.C.C.C.C.C.C.C.C.C.C.C.C.C.C.C.C.C.C.K.K.K.K.K.L.D.D.D.D.D.D.D.D.C.C.C.C.C.C.C.C.C.C.K.K.C.C.D.D.D.D.D.D.D.D.D.D.L.L.L.L.L.L.L.L.L.K.K.K.L.L.L.L.L.L.I.I.I.I.I.I.I.I.I.I.I.I.U.U.U.U.I.I.U.U.U.U.U.U.U.U.U.U.U.U.U.U.U.U.U.U.U.U.U.U.Y.Y.Y.Y.Y.Y.U.U.U.Y.Y.Y.U.T.Y.Y.T.Y.T.T.T.T.T.T.T.T.T.Y.Y.Y.T.T.T.T.T.T.T.T.Y.T.T.T.R.R.E.E.~.E.E.R.R.T.R.R.Q.R.R.Q.Q.R.R.R.R.R.R.R.R.Q.Q.Q.~.E.3XE.!.!.Q.~.!.Q.^.3X3X2X!.!.!.Q.!.1X1X1X4XgX2X2X2X^.^.^.^.^.!.^.^.^.^.^.^.^.2X2X2X2X2X2X2X2X2X2X2X2X2X3X3X3X2X2X2X2X3X3X3X3X3X3X3X3X3X3X3X5X3X3X3X5X5X5X5X5X5X5X5X5X5X5X5X5X5X5X5X5X7X5X7X7X7X7X7X7X7X7X7X7X7X7X7X7X7X7X7X7X7X7X7X0X0X0X0X0X0X0X0X0XdXdXdXdXdXdXdXdXdXaXaXaXdXdXsXaXaXaXaXaXaXaXaXsXsXsXsXsXsXsXsXsXsXxXxXsXsXsXsXsXvXvXvXvXxXxXxXxXcXvXvXvXxXcXcXcXcXvXvXvXbXvXvXvXvXvXbXbXbXbXbXbXbXbXbXbXbXbXbXbXbXnXnXnXnXnXnXnXnXnXnXnXnXnXbXnXBXNXMXnXnXnXnXnXmXmXmXzXOX$Xc.3.,.,.,.,.,.,.=.=.=.=.=.,.,.,.=.=.$.=.=.,.,.,.,.=.=.=.=.=.=.=.,.,.,.,.,.,.,.=.=.=.=.=.=.$.$.$.$.$.=.=.$.$.=.=.=.=.=.=.=.=.=.=.=.=.",
"D.D.D.D.D.D.C.C.C.C.C.C.C.C.C.C.C.K.C.C.K.C.K.C.K.K.C.C.C.C.C.C.C.K.K.K.K.K.L.L.D.D.C.C.C.C.D.D.K.K.K.K.K.K.K.K.C.K.K.K.C.D.D.D.D.D.D.D.D.D.D.L.L.L.L.L.L.L.L.L.L.L.L.L.L.L.L.L.L.L.I.I.I.I.I.I.I.I.I.I.I.I.I.I.U.U.U.U.U.U.U.U.U.U.U.U.U.U.U.U.U.U.U.U.U.U.U.U.U.U.U.U.U.Y.Y.Y.U.Y.U.U.U.U.T.T.Y.Y.Y.Y.T.Y.T.T.T.T.T.T.T.Y.Y.Y.T.T.T.T.T.T.T.T.T.T.T.T.T.R.E.E.!.E.R.R.R.R.R.R.Q.R.R.Q.Q.Q.R.R.R.R.R.R.R.Q.Q.Q.E.T.3XE.2X^.Q.~.!.!.!.2X2X^.!.!.!.Q.!.2X1X1X4XgX2X2X2X^.^.^.^.^.!.^.^.^.^.^.^.^.2X2X2X2X2X2X2X2X2X2X2X2X2X3X3X3X2X3X3X3X3X3X3X3X3X3X3X3X3X3X3X3X3X3X5X5X5X5X5X5X5X5X5X5X5X5X5X5X5X5X5X5X5X5X5X5X8X7X7X7X7X7X7X7X7X7X7X7X7X7X7X7X7X7X7X0X7X7X7X0X0X0X0X0X0XdXdXdXdXdXdXdXdXaXaXaXsXsXsXaXaXaXaXaXaXaXaXsXsXsXsXsXsXsXsXsXsXsXxXxXsXsXcXvXvXvXvXvXxXxXxXvXvXvXvXvXcXcXcXcXcXvXvXvXvXbXvXvXvXbXbXbXbXbXbXbXbXbXbXbXbXbXbXbXbXbXbXnXbXbXbXnXnXBXBXnXMXMXMXMXMXBXnXbXMXMXMXmXpX-Xc.c.,.,.,.,.,.,.,.,.,.,.,.,.,.,.=.=.=.=.=.=.=.=.=.=.,.=.=.=.=.=.=.=.,.,.,.,.,.,.=.=.$.$.$.$.$.=.$.$.=.=.=.=.=.=.=.=.$.$.$.$.$.$.=.$.=.=.=.=.",
"D.D.D.D.D.D.D.D.C.C.C.C.C.C.C.C.C.C.C.C.K.C.K.K.K.K.K.K.K.K.K.K.K.K.K.K.K.L.L.L.D.D.C.C.C.C.D.D.K.K.K.K.K.K.K.K.C.C.K.K.D.D.D.D.D.D.D.D.D.L.L.L.L.L.L.L.L.L.L.L.L.L.L.L.L.L.L.L.D.I.I.I.I.I.U.U.I.I.U.U.I.I.U.U.U.U.U.U.U.U.U.U.U.U.U.U.U.U.U.U.U.U.U.U.U.U.U.U.U.U.U.U.Y.Y.Y.Y.Y.U.U.U.T.T.T.T.Y.Y.Y.T.T.T.T.T.T.T.T.T.T.T.T.T.T.T.T.T.T.T.T.T.T.R.T.R.R.R.E.E.!.!.E.E.E.R.R.R.R.R.R.R.Q.Q.R.R.Q.R.R.R.Q.Q.Q.Q.E.T.2X~.2X^.Q.~.!.!.!.2X2X^.!.!.!.!.!.2X1X1X3X4X1X2X2X^.^.^.^.^.!.^.^.^.^.^.^.^.2X2X2X2X2X2X2X2X2X2X2X2X3X3X3X3X3X3X3X3X3X3X3X3X3X3X3X3X3X3X3X5X3X3X5X5X5X5X5X5X5X5X5X5X5X5X5X5X5X5X5X7X5X5X5X7X7X7X7X7X7X7X7X7X7X7X7X7X7X7X7X7X7X0X0X0X7X0X0X0X0X0X0X0XdXdXaXaXdXdXdXdXaXaXaXaXsXsXsXsXaXaXsXsXsXsXsXsXsXsXxXxXsXsXsXsXsXsXsXxXxXxXxXvXvXvXvXvXvXvXvXvXvXvXvXvXcXcXcXvXvXvXvXvXbXbXvXvXvXbXbXbXbXbXbXbXbXbXbXbXbXbXbXbXbXbXbXbXbXbXnXnXnXnXnXbXnXnXnXnXmXMXFXFXGXtX$Xx.c.,.,.,.,.,.,.,.,.,.=.$.=.,.,.,.,.=.=.$.$.=.=.,.,.=.=.=.$.$.=.=.,.,.=.=.,.=.=.=.$.$.$.$.$.$.=.=.$.=.=.=.=.$.$.$.=.=.=.=.$.$.$.$.$.$.$.=.=.=.=.=.",
"D.D.C.C.C.D.D.D.C.C.C.C.C.C.C.C.C.C.C.C.C.C.C.C.K.K.K.K.K.K.K.K.K.K.K.K.K.L.L.L.D.D.D.D.D.D.D.D.K.K.K.K.K.K.K.K.C.C.C.D.D.D.D.D.D.D.D.D.D.D.D.D.L.L.L.L.L.L.L.L.I.I.I.I.L.L.L.L.I.I.I.I.I.I.I.U.U.U.U.U.U.U.U.U.I.U.U.U.U.U.U.U.U.U.U.U.U.U.U.U.U.U.U.U.U.U.U.U.U.U.U.Y.Y.Y.Y.Y.U.U.U.U.Y.Y.T.T.Y.T.Y.Y.Y.T.T.T.T.T.T.T.T.Y.Y.Y.T.T.T.T.T.T.T.T.R.R.R.R.R.E.E.E.!.!.!.E.E.R.E.R.R.R.R.R.R.R.R.T.Q.Q.R.Q.Q.Q.Q.Q.E.T.2X~.2X^.Q.Q.!.!.!.2X3X2X!.!.!.!.1X2X2X3X3X3X1X2X1X!.^.^.^.^.!.^.^.^.^.^.^.2X2X2X2X2X2X2X2X2X2X2X2X2X3X2X2X3X2X2X3X3X3X3X3X3X3X3X3X5X3X3X5X5X3X5X5X5X5X5X5X5X5X5X5X5X5X5X5X5X7X7X7X5X5X7X7X7X7X7X7X7X7X7X7X7X7X7X7X7X7X7X7X7X0X0X0X0X0X0X0X0X0X0X0X0XdXdXaXaXaXaXaXaXaXaXaXsXaXaXaXsXsXsXsXsXaXaXsXsXsXsXxXxXsXsXsXsXsXxXxXxXsXsXcXvXvXvXvXvXvXvXvXvXvXvXvXvXcXcXcXvXvXvXvXbXbXbXvXvXvXvXbXbXbXbXbXbXbXbXbXbXbXbXbXbXbXbXbXnXnXnXBXnXbXbXnXnXNXnXbXMXSXGXrXOXc.3.,.,.,.,.,.=.=.=.=.=.=.=.=.=.,.=.=.$.$.$.=.=.=.=.=.=.$.$.$.=.$.$.=.=.=.=.=.$.$.$.$.$.=.=.=.,.=.=.=.=.=.=.=.=.=.=.$.=.=.=.=.=.$.=.$.=.$.$.$.=.=.=.=.=.",
"D.D.D.D.D.D.D.D.C.C.C.C.C.C.C.C.C.C.C.C.C.C.C.C.K.K.K.K.K.K.K.K.K.K.K.K.K.L.L.L.D.D.D.D.D.D.D.D.L.L.L.L.L.L.L.L.L.L.L.L.L.L.L.L.D.D.D.L.D.D.D.D.L.L.L.L.L.L.L.L.F.I.I.I.L.L.L.L.I.I.I.I.I.I.U.U.U.U.U.U.U.U.U.U.U.U.U.U.U.U.U.U.U.U.U.U.U.U.U.U.U.U.U.U.U.U.U.U.U.Y.Y.Y.Y.Y.Y.Y.U.U.Y.Y.Y.Y.T.T.T.T.Y.Y.T.T.T.T.T.T.T.T.T.Y.Y.Y.T.T.T.T.T.T.T.R.R.R.R.R.R.E.E.E.!.E.!.E.E.E.E.R.R.R.Q.R.R.R.R.T.Q.Q.Q.Q.Q.Q.Q.Q.~.T.2X~.2X!.!.!.!.!.!.3X3X2X!.!.!.1X2X1X2X3X3X1X1X2X1X!.^.^.^.^.!.^.^.^.^.2X2X2X2X2X2X2X2X2X2X2X2X2X2X2X3X3X3X3X2X2X3X3X3X3X3X3X3X5X5X5X3X5X5X5X3X5X5X5X5X5X5X5X5X5X5X5X5X5X5X5X7X7X7X7X7X7X7X7X7X7X7X7X7X7X7X7X7X7X7X7X7X7X7X7X0X0X0X0X0X0X0X0X0X0X0XdXdXaXdXaXaXaXaXaXaXsXsXsXaXaXaXsXsXsXsXsXsXaXsXsXsXxXxXsXsXsXsXsXxXxXxXxXsXsXcXcXvXvXvXvXvXvXvXvXvXvXvXvXcXvXvXvXvXvXbXbXbXbXvXvXvXvXbXbXbXbXbXbXbXbXbXbXbXbXbXbXbXbXnXnXbXnXnXnXnXMXNXFXkXmXmXyX$Xc.[ [ ,.,.=.=.=.=.=.=.=.=.=.=.=.=.=.=.=.=.$.$.$.=.=.=.=.=.$.$.$.$.=.=.=.=.=.=.$.$.$.$.$.$.$.=.=.=.=.,.=.=.=.=.=.=.$.$.$.$.$.$.$.$.$.$.$.=.$.$.$.$.=.$.=.=.$.$.",
"D.D.D.D.D.D.D.D.D.D.D.D.D.D.D.D.L.L.L.L.L.L.L.L.K.K.K.K.K.K.K.K.K.K.K.K.K.L.L.L.D.D.D.D.D.D.D.D.L.L.L.L.L.L.L.L.L.L.L.L.L.L.L.L.D.D.D.L.L.L.D.L.L.L.L.L.L.L.L.L.I.I.I.I.I.L.L.L.I.I.I.I.I.I.I.I.U.U.U.U.U.U.U.U.U.U.U.U.U.U.U.U.U.U.U.U.U.U.U.U.U.U.U.U.Y.Y.Y.U.Y.Y.Y.Y.Y.Y.Y.Y.U.Y.Y.Y.Y.Y.T.T.T.T.Y.Y.T.T.T.T.T.T.T.T.T.T.Y.Y.T.T.T.T.T.T.R.R.R.R.E.R.R.E.E.E.E.E.E.E.E.E.E.R.R.Q.Q.R.Q.Q.R.T.Q.Q.Q.Q.Q.Q.Q.Q.~.T.2X!.2X!.Q.^.!.!.2X3X3X2X!.!.E.2X2X1X2X3X3X1X1X2X1X!.^.^.^.^.!.^.^.2X^.2X2X2X2X2X2X2X2X2X2X3X3X3X3X3X3X3X3X3X2X3X3X3X3X3X3X3X5X5X5X5X3X5X5X5X5X5X5X5X5X5X5X5X5X5X5X5X5X5X5X5X7X7X7X7X7X7X7X7X7X7X7X7X7X7X7X7X7X7X0X7X7XdX7X7X0X0X0X0X0X0X0X0X0X0X0XdXdXdXdXdXaXaXaXaXaXsXsXsXaXaXaXsXsXsXsXsXaXaXsXsXsXxXsXsXsXsXsXsXxXxXxXxXsXsXsXvXvXvXvXvXvXvXvXvXvXvXvXvXvXvXvXvXvXbXbXbXbXbXvXvXbXbXbXbXbXbXbXbXbXbXbXbXbXbXbXbXbXnXnXnXnXbXnXMXMXmXzXpXtX$Xj.[ [ ,.,.[ =.=.$.$.$.=.=.=.C C C =.=.=.$.C $.$.=.=.=.=.=.$.C C $.=.=.=.=.=.$.$.$.$.$.$.$.$.$.$.$.=.$.$.$.$.=.=.=.$.=.=.=.$.$.$.$.$.$.$.$.$.$.$.$.$.$.$.$.=.=.=.=.=.",
"D.D.D.D.D.D.D.D.D.D.D.D.D.D.D.D.L.L.L.L.L.L.L.L.K.K.K.K.K.K.K.K.K.K.K.K.K.L.L.L.D.D.D.D.D.D.D.D.L.L.L.L.L.L.L.L.L.L.L.L.L.L.L.L.D.D.L.L.L.L.L.L.L.L.L.L.L.L.L.L.I.I.I.I.I.L.L.L.I.I.I.I.I.I.I.I.U.U.U.U.U.U.U.U.U.U.U.U.U.U.U.U.U.U.U.U.U.U.U.U.U.U.U.U.Y.Y.Y.Y.Y.Y.Y.Y.Y.Y.Y.Y.U.Y.Y.Y.Y.T.T.T.T.T.Y.T.T.T.T.T.T.T.T.T.T.R.Y.Y.T.T.T.T.T.R.R.R.R.R.R.R.E.E.E.E.E.E.E.E.R.E.E.R.R.Q.Q.Q.Q.^.Q.T.Q.Q.Q.Q.Q.Q.Q.Q.~.T.2X!.3X!.!.^.!.!.2X3X3X2X!.!.E.2X2X1X2X4X3X1X1X2X1X!.^.^.^.^.2X^.^.2X2X2X2X2X2X2X2X2X2X2X3X3X3X3X2X2X3X3X3X3X2X3X3X3X3X3X3X5X5X5X5X5X5X5X5X5X5X5X5X5X5X5X5X5X5X5X5X5X5X5X5X5X7X7X7X7X7X7X7X7X7X7X7X7X7X7X7X7X0X0X0X0XdXdX0X0X0X0X0X0X0X0XdXdX0X0X0XdXdXdXdXsXaXaXaXaXaXaXaXaXaXaXaXsXsXsXsXsXaXaXaXsXsXxXsXsXsXsXsXxXxXxXxXxXsXsXsXvXvXvXvXvXvXvXvXvXvXvXvXvXvXvXvXvXbXbXbXbXbXbXvXvXbXbXbXbXbXbXbXbXbXbXbXbXbXbXnXbXnXnXnXnXnXnXnXMXmXiX#X|.[ [ [ [ [ $.$.$.C C C $.$.$.C C C C C $.=.=.$.$.=.$.$.C C C $.$.=.=.$.$.$.$.%.%.$.$.$.$.$.$.$.$.$.$.$.$.$.$.$.$.$.$.$.$.=.=.=.=.$.$.$.$.$.$.$.$.$.$.$.$.$.$.$.$.$.$.$.$.",
"D.D.D.D.D.D.D.D.D.D.D.D.D.D.D.D.K.K.K.K.C.D.D.D.K.K.K.K.L.L.K.K.K.K.K.K.K.L.L.L.D.D.L.L.L.L.L.L.D.D.D.L.K.K.K.K.K.K.L.L.L.I.I.I.I.I.I.I.I.L.I.I.L.L.L.L.L.L.L.L.I.I.I.I.I.I.I.I.I.I.I.I.U.U.I.U.U.U.U.U.U.U.U.U.U.U.U.U.U.U.U.U.U.U.U.U.U.U.U.U.U.U.U.Y.U.U.U.Y.U.U.U.U.Y.Y.Y.Y.Y.Y.Y.Y.U.Y.Y.Y.Y.Y.Y.Y.Y.Y.Y.Y.T.R.R.R.R.R.R.R.R.R.R.R.R.R.R.R.R.R.R.R.R.R.R.R.E.E.!.!.!.E.E.E.R.E.Q.E.E.!.!.E.R.R.Q.Q.Q.E.E.Q.~.~.~.2X!.!.!.~.!.T.2X3X2X2X!.1XE.1X1X3X1X0X4X1X2X^.^.^.^.^.^.^.2X2X2X2X2X2X2X2X2X2X2X2X2X2X3X3X/.3X/./.3X3X3X3X3X3X3X3X3X3X3X3X3X3X3X3X5X5X5X5X5X5X5X5X5X5X5X5X5X5X8X5X7X7X8X7X8X8X8X8X7X7X7X7X7X7X7X7X7X7X7X0X0X0X0X0XdXdX0X0X0X0X0X0X0X0X0XdX0X0XaXaXaXaXaXaXsXsXsXsXaXsXsXaXsXsXsXsXaXaXaXxXsXsXsXxXsXsXsXsXcXcXcXcXxXsXsXsXxXcXcXcXcXcXvXcXcXcXcXcXvXvXvXvXvXvXvXvXbXbXbXbXbXbXbXbXbXbXbXbXvXbXbXnXnXbXbXbXnXBXBXnXnXnXnXnXbXmXpXrX'.o.[ [ =.=.=.[ C C C C C C C $.$.$.$.$.C C C C $.$.$.$.$.$.C C C %.%.%.%.%.%.%.$.$.$.$.$.$.$.$.$.$.$.$.$.$.$.$.$.$.$.$.=.=.=.=.=.=.$.$.=.=.$.$.$.=.$.$.$.$.$.$.$.$.$.$.$.$.$.$.",
"D.D.D.D.D.D.D.D.D.D.D.D.D.D.D.D.K.K.K.C.C.D.D.D.K.K.K.K.L.L.K.K.K.K.K.K.K.L.L.L.D.L.L.L.L.L.L.L.D.D.D.L.K.K.K.K.K.L.L.L.L.I.I.I.I.I.I.I.L.I.I.I.L.L.L.L.L.L.L.L.I.I.I.I.I.I.I.I.I.I.I.U.U.U.U.U.U.U.U.U.U.U.U.U.U.U.U.U.U.U.U.U.U.U.U.U.U.U.U.U.U.U.Y.Y.U.U.U.Y.U.U.U.Y.Y.Y.Y.Y.Y.Y.Y.Y.U.U.Y.Y.Y.Y.Y.Y.Y.Y.Y.Y.R.R.T.R.R.R.R.R.R.R.R.R.R.R.R.R.R.R.R.R.R.R.R.R.E.E.!.!.!.E.E.E.R.E.Q.E.Q.!.!.E.R.R.Q.Q.Q.E.E.Q.~.~.~.2X!.!.!.~.!.E.2X3X2X2X!.1X1X1X1X3X1X0X4X2X2X^.^.^.^.^.^.^.2X2X2X2X2X2X2X2X2X2X2X2X2X3X3X3X3X3X/.3X3X3X3X3X3X3X3X3X3X3X3X3X3X3X3X5X5X5X5X5X5X5X5X5X5X5X5X5X5X5X8X5X7X7X7X7X8X8X8X7X7X7X7X7X7X7X7X7X7X7X7X0X7X7X7X7XdXdX0XdX0X0X0X0X0X0X0XdXdXdXdXdXdXdXaXaXsXsXsXsXaXsXsXsXsXsXsXsXaXaXaXxXsXsXsXxXsXsXsXsXcXcXxXxXxXxXxXxXcXcXcXcXcXcXcXcXcXcXcXcXvXvXvXvXvXvXvXbXbXbXbXbXbXbXbXbXbXbXbXbXnXnXbXbXbXbXbXbXbXbXbXvXcXnXMXMXGX%Xf.[ [ [ [ =.=.C C C C C C C C $.$.C C C C C C C C $.$.$.$.C $.$.%.%.%.%.$.$.%.%.%.%.%.%.%.%.%.%.%.$.$.$.$.$.$.$.$.$.$.$.$.$.=.=.$.$.$.$.$.$.$.$.$.$.$.=.=.=.$.$.$.$.$.$.$.$.$.$.$.$.",
"D.D.D.D.D.D.D.D.D.D.D.D.D.D.D.D.K.K.K.C.C.D.D.D.K.C.K.L.L.L.K.K.K.K.K.L.L.L.L.L.L.L.L.L.L.L.L.L.C.C.D.L.K.K.K.K.L.L.L.L.L.I.I.I.I.I.I.I.I.I.I.I.I.I.I.I.I.I.I.I.I.I.I.I.I.I.I.I.I.I.I.I.U.U.U.U.U.U.U.U.U.U.U.U.U.U.U.U.U.U.U.U.U.U.U.U.U.U.U.U.U.U.Y.Y.U.U.Y.Y.Y.U.U.Y.Y.Y.Y.Y.T.T.T.T.Y.Y.T.T.Y.Y.Y.Y.Y.Y.Y.Y.Y.T.T.R.R.R.R.R.R.R.R.R.R.R.R.R.R.R.R.R.R.R.R.R.E.E.!.!.!.!.E.E.R.E.Q.E.Q.!.!.E.R.R.Q.Q.Q.~.Q.Q.~.~.~.2X!.!.!.~.!.E.3X3X2X2X!.1X1X1X1X1X1X0X3X1X2X^.^.^.^.^.^.^.2X2X2X2X2X2X2X2X2X2X2X2X2X2X3X3X3X3X3X3X3X3X3X5X3X3X3X3X3X3X5X5X3X3X3X5X5X5X5X5X5X5X5X5X5X5X5X5X5X5X5X5X7X8X7X7X8X7X7X7X7X7X7X7X7X7X7X7X7X7X7X0X0X0X7XdXdXdXdXdX0X0X0X0X0XdXdXdXdXdXdXaXdXaXsXsXsXsXsXaXaXsXaXaXsXaXsXsXaXaXsXsXsXsXxXxXsXsXvXvXcXcXcXcXcXcXxXxXcXcXcXcXcXcXvXvXcXcXcXcXvXvXvXvXvXvXvXbXbXbXbXbXbXbXbXbXbXbXbXbXbXbXnXnXnXnXnXnXBXbXbXnXFXGXrXXXc.[ [ [ [ =.$.$.=.$.$.$.$.$.$.$.$.$.$.$.$.$.$.$.C C C C %.$.C C $.%.C C %.%.%.$.%.%.%.%.%.%.%.%.%.%.%.%.%.$.$.$.$.$.$.$.$.$.$.$.$.$.$.$.$.$.$.$.$.$.$.$.$.$.=.=.$.$.$.$.$.$.$.$.$.$.$.$.",
"D.D.D.D.D.D.D.D.D.D.D.D.D.D.D.D.K.K.K.C.C.D.D.D.D.C.K.L.L.L.K.K.K.K.K.L.L.L.L.L.L.L.L.L.L.L.L.L.L.L.I.I.I.I.L.L.L.L.L.L.I.I.I.I.I.I.I.I.I.I.I.I.I.I.I.I.I.I.I.I.I.I.I.I.I.I.I.I.I.I.I.U.U.U.U.U.U.U.U.U.U.U.U.U.U.U.U.U.U.U.U.U.U.U.U.U.U.U.U.U.U.U.Y.U.Y.Y.Y.Y.Y.Y.Y.Y.Y.Y.Y.Y.T.T.T.T.Y.Y.Y.T.T.T.T.T.Y.T.T.R.Y.R.R.R.R.R.R.R.R.R.R.R.R.R.R.R.R.R.R.R.R.R.R.Q.E.E.!.!.!.E.E.E.E.E.Q.Q.Q.!.Q.Q.R.R.Q.Q.Q.Q.Q.Q.~.~.~.2X!.!.!.~.!.~.3X3X!.2X1X1X2X1XE.1X4X0X2X!.2X^.^.^.^.^.^.^.2X2X2X2X2X2X2X2X2X2X2X2X3X3X2X2X3X3X3X3X3X5X5X5X3X3X3X3X5X5X5X5X3X5X5X5X5X5X5X5X5X5X5X5X5X5X5X5X5X5X5X5X8X7X7X7X7X7X7X7X7X7X7X7X7X7X7X7X7X7X7X0X7XdXdXdXdXdXdXdX0X0X0X0X0XdXdXdXaXaXaXaXaXsXsXsXsXsXsXaXaXsXaXsXaXsXsXsXsXsXsXsXsXsXxXxXxXxXcXvXxXcXcXvXcXcXcXcXcXcXcXcXcXvXvXvXcXcXvXvXvXvXvXvXvXvXvXbXbXbXbXbXbXbXbXbXbXbXbXbXbXnXnXnXnXnXnXnXbXBXNXzXeX`.o.[ C C =.=.$.C $.$.$.$.C C $.$.$.$.C C C %.%.%.$.%.$.$.$.$.$.$.$.$.$.$.$.C %.%.%.%.%.%.%.%.%.%.%.%.%.%.%.%.%.%.%.%.$.$.$.$.$.$.$.$.%.%.%.$.$.%.%.%.$.$.%.$.$.$.=.=.$.$.$.$.$.$.$.$.$.$.$.$.",
"D.D.D.D.L.L.L.L.D.D.D.D.D.D.D.D.K.K.K.C.C.D.D.D.D.D.C.L.I.I.L.K.K.K.K.L.L.L.L.L.L.L.L.L.L.L.L.L.L.I.I.I.L.L.L.L.L.L.L.I.I.I.I.I.I.I.I.I.I.I.I.I.I.I.I.I.I.I.I.I.I.I.I.I.I.U.U.U.U.U.U.U.U.U.U.U.U.U.U.U.U.U.U.U.U.U.U.U.U.U.U.U.U.U.U.Y.U.U.U.U.U.U.U.Y.Y.Y.Y.Y.Y.Y.Y.Y.Y.Y.Y.Y.T.T.Y.Y.Y.Y.T.T.T.T.Y.Y.Y.Y.R.R.R.R.R.R.R.R.R.R.R.R.R.R.R.R.R.R.R.R.R.R.R.R.Q.Q.E.E.Q.!.!.!.!.E.E.E.E.Q.!.Q.Q.!.R.Q.Q.Q.Q.~.Q.Q.~.~.!.2X2X!.!.~.!.~.3X2X!.2X!.!.2X1X1X1XqX0X2X1X2X^.^.2X^.^.^.^.2X2X2X2X2X2X2X3X2X2X2X3X2X2X2X3X3X3X3X2X5X5X5X5X3X3X3X3X3X3X5X5X5X5X5X5X5X5X5X5X5X5X5X5X5X5X5X5X5X5X5X5X8X7X7X7X7X7X7X7X7X7X7X7X7X7X7X7X0X7X7XdX7X7X7XfXdXfXdXdX0X0X0XdXdXdXdXdXsXsXdXdXdXdXaXaXsXsXsXsXsXaXaXaXaXaXaXsXsXsXsXsXsXsXxXxXxXxXcXvXxXvXcXcXcXvXvXvXcXcXcXcXvXvXvXvXvXvXvXvXvXvXvXbXvXvXvXbXbXbXbXbXbXbXbXbXbXbXbXbXbXbXnXbXbXnXBXMXFXzX*Xc.[ [ [ [ ,.$.C C C C $.=.=.=.=.=.=.=.=.=.=.=.=.=.=.$.$.%.$.%.%.%.%.%.C C %.%.%.%.%.$.$.$.C %.%.%.%.%.%.%.%.%.%.%.%.%.%.%.$.$.$.$.$.$.$.$.%.%.$.$.%.%.$.%.$.$.$.$.$.$.$.$.$.$.$.$.$.$.$.$.$.$.$.$.",
"D.L.L.L.L.L.L.L.L.L.L.L.L.L.L.L.K.K.K.L.L.D.D.D.D.D.D.D.I.I.L.C.K.K.K.K.K.L.L.L.L.L.L.L.L.L.L.L.I.I.I.I.L.L.L.L.I.I.I.I.I.I.I.I.I.I.I.I.I.I.I.I.I.I.I.I.I.I.I.I.I.I.I.I.U.U.U.U.U.U.U.U.U.U.U.U.U.U.U.U.U.U.U.U.U.U.U.U.U.U.U.U.U.U.U.Y.U.U.U.U.U.U.Y.Y.Y.Y.Y.Y.Y.Y.Y.Y.Y.Y.Y.Y.T.T.Y.Y.T.Y.T.T.T.T.T.T.Y.Y.T.T.R.R.R.R.R.R.R.R.R.R.R.R.R.R.R.R.R.R.R.R.Q.Q.Q.Q.E.E.!.!.!.!.Q.Q.Q.E.E.Q.!.Q.Q.^.E.Q.~.!.~.~.~.!.~.~.!.2X!.!.!.~.!.!.8X2X~.2X!.!.2X1X1X1XcX0X1X2X2X2X2X2X^.2X2X^.2X2X2X2X2X2X2X3X2X3X3X3X2X3X3X3X3X3X3X3X5X5X5X5X3X3X3X3X5X5X5X5X5X5X5X5X5X5X5X5X5X5X5X5X5X5X5X5X5X5X5X5X7X7X7X7X7X7X7X7X7X7X7X7X7X7X7X7X0XdXdXdX7X7X7XdXfXfXdXdXdX0X0XdXdXdXdXsXsXsXdXsXaXaXaXsXsXsXsXsXaXaXaXaXaXaXsXsXsXsXsXxXsXsXxXxXxXxXcXvXvXvXcXvXvXvXvXvXcXcXcXvXvXvXvXvXvXvXvXbXbXbXbXbXvXvXbXbXbXbXbXbXbXbXbXbXbXnXnXnXbXbXbXnXMXMXGXGXrX$X[ [ [ =.=.$.$.C C =.=.,.,.=.,.,.,.,.,.,.,.,.,.,.,.,.,.,.,.,.=.=.=.=.=.$.$.%.%.%.%.%.C C C C C %.%.%.%.%.%.%.%.%.%.%.%.%.%.%.%.%.%.%.%.%.%.%.%.%.%.%.%.%.%.%.%.$.%.$.$.$.$.$.$.$.$.$.$.$.$.$.$.$.$.$.",
"L.L.L.L.L.L.L.L.L.L.L.L.L.L.L.L.K.K.K.L.L.D.D.D.D.D.D.I.I.I.I.K.L.K.K.L.L.L.L.L.L.L.L.L.L.I.L.L.D.L.I.I.L.L.L.L.I.I.I.I.I.I.I.I.I.I.I.I.I.I.I.I.I.I.I.I.I.I.I.I.I.I.I.I.U.U.U.U.U.U.U.U.U.U.U.U.U.U.U.U.U.U.U.U.U.U.U.U.Y.U.U.U.U.U.U.Y.U.U.Y.U.Y.Y.Y.Y.Y.Y.Y.Y.Y.Y.Y.Y.Y.Y.Y.T.T.T.T.T.T.T.T.T.T.T.T.Y.Y.T.T.T.R.R.R.R.R.R.R.R.R.R.R.R.R.R.R.R.R.R.R.R.Q.Q.Q.Q.E.E.Q.!.^.!.!.Q.Q.E.E.!.!.Q.Q.^.Q.Q.~.~.~.~.!.!.~.~.!.2X2X!.!.~.!.!.8X2X~.!.!.1X2X1X1X1XcX6X1X2X2X2X2X2X^.2X2X^.2X2X2X2X2X2X2X3X3X3X3X3X2X3X3X3X3X3X2X3X3X5X3X5X3X3X5X5X5X5X5X5X5X5X5X5X5X5X5X5X5X5X5X5X5X5X5X5X5X5X8X8X7X7X7X7X8X7X7X7X7X7X7X7X7X7X7X7X7XdXdXdX7X7X7XfXfXfXdXdX0XdXdXdXdXdXaXaXsXsXsXsXaXaXsXsXsXsXsXsXaXaXaXaXaXsXsXsXsXsXxXxXsXsXxXxXxXxXvXvXvXcXcXvXvXvXvXvXcXcXvXvXvXvXbXbXvXvXbXbXbXbXbXbXvXvXvXbXbXbXbXbXbXbXbXbXnXnXnXnXnXbXbXnXMXzXrXOX[ [ [ [ =.=.=.=.,.,.,.,.,.,.,.,.,.,.,.,.,.,.,.,.*.*.,.,.,.,.,.,.<.<.<.<.<.<.,.,.=.=.=.$.$.%.C C %.%.%.%.%.%.%.%.%.%.%.%.%.%.%.%.%.%.%.%.%.%.%.%.%.%.%.%.%.%.%.$.$.$.%.%.$.$.$.$.$.$.$.$.$.$.$.$.$.$.$.$.",
"L.L.L.L.L.L.L.L.L.L.L.L.L.L.L.L.K.K.K.L.L.D.D.D.D.D.D.I.I.I.L.K.K.K.L.L.L.L.L.L.L.L.L.L.L.I.L.L.D.L.I.I.L.L.L.L.I.I.L.L.L.I.I.I.I.I.I.I.I.I.I.I.I.I.I.I.I.I.I.I.I.I.I.I.U.U.U.U.U.U.U.U.U.U.U.U.U.U.U.U.U.U.U.U.U.U.U.U.Y.U.U.U.U.U.Y.U.U.U.Y.Y.Y.Y.Y.Y.Y.Y.Y.Y.Y.Y.Y.Y.Y.Y.T.T.T.T.T.T.T.T.T.T.T.T.T.Y.Y.T.T.T.R.R.R.R.R.R.R.R.R.R.R.R.R.R.R.R.R.R.R.R.Q.Q.Q.Q.E.E.Q.!.^.^.!.!.!.E.E.!.^.Q.Q.^.Q.Q.~.~.~.!.!.!.~.~.!.2X2X!.!.~.!.!.8X2X~.!.!.1X2X1X1X1XkX1XE.2X2X2X2X2X2X2X2X^.2X2X2X2X2X2X3X3X3X3X3X3X3X3X3X3X3X3X3X3X3X3X5X5X3X5X5X5X5X5X5X5X5X5X5X5X5X5X5X5X5X5X5X5X5X5X5X5X5X8X8X8X7X7X7X7X8X7X7X7X7X7X7X7X7X7X7X7XdXdXdXdX7X7XfXfXfXfXfXfX0XdXdXdXdXsXsXdXaXaXaXaXaXaXaXaXsXsXsXaXaXaXaXaXaXsXsXsXsXxXxXxXsXsXxXxXxXxXvXvXcXcXcXvXvXvXvXvXvXvXvXvXvXvXbXbXvXbXbXbXbXbXbXbXvXvXbXbXbXbXbXbXnXnXnXnXnXnXnXnXBXbXmXmXmX*Xx.` [ [ [ ,.,.,.,.,.,.,.,.,.,.,.,.*.,.*.,.,.,.,.,.,.,.,.,.*.,.,.,.,.,.,.,.,.<.<.<.<.<.<.<.*.=.=.%.%.%.%.%.%.%.%.%.%.C %.%.%.%.%.%.%.%.%.%.%.%.%.%.%.%.%.%.%.%.%.$.$.$.$.$.$.$.%.%.%.$.$.$.$.$.$.$.$.$.$.$.$.",
"D.D.D.D.D.D.D.D.K.K.K.L.I.L.L.L.K.K.K.L.K.K.K.K.K.K.D.D.D.D.D.D.K.K.K.I.I.I.K.K.I.I.I.I.I.I.I.I.L.L.L.L.L.L.L.L.I.I.I.I.I.I.I.I.I.I.I.I.I.I.I.U.I.I.I.I.I.I.I.I.U.U.U.U.U.U.U.U.U.U.U.U.U.U.U.U.U.U.U.U.U.U.Y.U.U.U.U.U.U.U.U.Y.Y.Y.Y.Y.Y.Y.Y.Y.Y.Y.Y.Y.T.T.T.T.Y.Y.Y.T.Y.Y.Y.T.T.T.T.Y.Y.T.T.T.Y.Y.Y.Y.R.R.R.R.R.R.R.R.R.R.R.R.R.R.R.R.R.R.R.R.Q.R.R.R.Q.Q.Q.Q.R.Q.Q.!.!.!.!.~.Q.E.E.Q.!.!.!.Q.Q.Q.Q.~.!.~.!.!.!.Q./.3X2X!.Q.!.2X!.7X!.2X1X2X2X1X4X1X4XbX1X~.~.^.^.^.^.2X2X2X2X2X2X2X3X2X2X3X3X5X3X2X3X3X5X3X3X3X3X3X5X5X3X3X5X3X3X3X3X3X5X3X3X5X5X5X5X5X5X5X5X8X8X8X5X5X8X8X8X7X7X7X7X7X7X7X7X7X7X7X7X7X7X7X7X0X0XdXdXdXdXdXdX0X0X0X0XdXdX0XdXdXdXdXdXdXaXdXdXaXaXaXaXsXsXsXsXaXaXaXaXsXsXsXsXaXxXxXsXsXxXsXsXxXxXxXxXxXxXxXxXcXcXvXvXvXvXvXvXvXvXvXvXvXbXbXbXbXbXbXbXbXbXbXbXbXbXbXbXbXbXbXbXnXnXbXmXbXbXnXMXBXMXMXpX$X[ [ =.,.,.,.,.,.,.,.,.*.*.*.*.,.*.*.*.*.*.*.*.,.,.,.,.*.*.*.*.*.*.*.<.*.*.*.<.5.5.5.<.<.<.5.5.5.5.<.<.=.%.C =.%.%.$.%.%.%.%.%.%.%.%.C %.%.%.%.$.$.%.%.%.%.%.%.$.$.$.$.%.%.%.%.%.%.%.%.$.$.$.$.$.$.$.$.%.$.$.$.",
"D.D.D.D.D.D.D.D.K.K.K.L.I.L.L.L.L.L.L.L.L.L.L.L.K.K.D.D.D.D.D.D.K.K.K.I.I.I.K.K.I.I.I.I.I.I.I.L.L.L.L.L.L.L.L.I.I.I.I.I.I.I.I.I.I.I.I.I.I.I.I.U.I.I.I.I.I.I.I.I.U.U.U.U.U.U.U.U.U.U.U.U.U.U.U.U.U.U.U.U.U.Y.Y.Y.U.U.U.U.U.U.U.Y.Y.Y.Y.Y.Y.Y.Y.Y.Y.Y.Y.Y.T.T.T.T.Y.Y.T.T.Y.Y.Y.T.T.T.T.Y.Y.T.T.T.Y.Y.Y.R.R.R.R.R.R.R.R.R.R.R.R.R.R.R.R.Q.R.R.R.R.Q.Q.R.R.Q.Q.Q.Q.Q.Q.Q.!.!.!.!.~.Q.E.E.Q.Q.^.!.Q.Q.Q.Q.Q.!.Q.!.^.!.!./.3X2X!.!.!.2X!.7X!.2X1X2X2X1X1X1X9XcX1X~.~.2X2X2X2X2X2X2X2X2X2X2X2X3X3X3X3X3X3X2X3X3X5X3X3X3X3X5X5X3X3X3X5X3X3X3X3X5X5X5X5X5X5X5X5X5X5X5X5X8X8X8X8X8X8X8X8X7X7X7X7X7X7X7X7X7X7X7X7X7X7X7X7X0X0XdXdXdXdXdXdX0X0X0X0XdXdXdXdXdXdXdXdXdXsXdXsXaXaXaXsXsXsXsXsXaXaXaXaXsXsXsXsXxXxXxXsXsXxXsXsXsXxXxXxXxXcXcXcXcXcXcXvXcXvXvXvXvXvXvXvXvXbXbXbXbXbXbXbXbXbXbXbXbXbXbXbXbXbXbXbXnXnXnXnXnXnXbXbXnXMXtXx.[ [ ,.,.,.,.,.,.,.,.,.*.*.*.*.*.,.,.*.*.*.*.*.*.*.*.*.*.*.*.*.*.*.*.<.<.<.*.*.<.5.5.5.<.<.5.5.6.6.6.5.5.6.6.,.=.$.$.%.%.%.%.%.$.$.$.%.%.C %.$.$.%.C %.%.%.%.%.%.%.$.$.$.%.%.%.%.%.%.%.%.$.$.$.$.$.$.$.$.%.$.$.$.",
"L.L.L.L.I.I.L.L.K.K.K.L.I.L.L.L.I.I.I.I.I.I.I.I.K.K.I.I.K.K.K.K.K.K.K.K.I.I.I.K.I.I.I.I.I.I.I.I.L.L.L.L.L.I.I.I.I.I.I.I.I.I.I.I.I.I.I.I.I.I.U.U.I.I.U.U.U.U.U.U.U.U.U.U.U.U.U.U.U.U.U.U.U.U.U.U.U.U.U.U.U.Y.Y.Y.U.Y.U.U.U.U.Y.Y.Y.Y.Y.Y.Y.Y.Y.Y.Y.Y.Y.Y.T.T.T.T.Y.T.T.T.Y.Y.T.T.T.T.Y.Y.Y.Y.T.T.R.R.R.R.R.R.R.R.R.Q.R.R.R.R.R.R.R.R.R.Q.R.R.R.Q.Q.Q.R.R.Q.Q.Q.Q.Q.Q.Q.!.!.!.!.!.!.Q.E.Q.Q.!.Q.Q.Q.Q.Q.Q.!.Q.Q.^.!.!.!.2X3X!.!.!.2X!.7X!.2X1X2X2X1X1X1XVXqX1X~.2X^.^.^.2X2X2X2X2X2X3X3X3X3X3X3X3X3X3X3X3X3X5X3X3X3X5X5X5X5X3X5X5X3X3X3X3X5X5X5X5X5X5X5X5X5X5X5X5X8X8X8X8X8X8X8X8X7X7X7X7X7X7X7X7X7X7X7X7X7X7X7X7X7X7XdXdXdXdXdXdX0X0X0X0XdXdXdXdXdXdXdXdXaXaXsXsXsXsXsXsXsXsXaXaXaXaXaXaXsXsXsXsXxXxXxXxXxXxXsXsXxXxXxXxXxXcXcXvXcXcXcXvXcXvXvXvXvXvXvXvXbXbXbXbXbXbXbXbXbXbXbXbXbXbXbXbXbXnXnXnXnXnXnXnXnXbXnXMXGX*Xs.[ [ ,.,.,.,.,.,.,.,.*.*.*.*.*.*.*.*.*.*.*.*.*.*.*.*.*.*.*.*.*.*.*.*.*.*.*.<.<.<.<.<.5.5.5.5.5.6.6.6.6.6.6.6.v.5.*.1.-.%.*.$.$.$.$.%.%.%.%.%.%.%.%.$.$.$.%.%.%.%.%.%.%.$.$.%.%.%.%.%.%.%.%.%.%.$.$.$.$.$.$.%.$.$.$.",
"L.L.L.L.I.I.L.L.K.K.K.L.I.L.L.L.I.I.I.I.I.I.I.I.K.K.I.I.K.K.K.K.K.K.K.K.I.I.I.K.I.I.I.I.I.I.I.I.L.L.L.I.I.I.I.I.I.I.I.I.I.I.U.U.I.I.I.I.I.I.U.U.I.U.U.U.U.U.U.U.U.U.U.U.U.U.U.Y.U.U.U.U.U.U.U.U.U.U.U.U.Y.Y.Y.Y.Y.U.U.U.Y.Y.Y.Y.Y.Y.Y.T.Y.Y.Y.T.Y.Y.Y.T.T.T.T.T.Y.Y.T.T.R.R.R.R.R.R.R.R.R.R.R.R.R.R.R.R.R.R.R.R.Q.Q.R.R.Q.R.R.R.R.Q.R.R.R.Q.Q.Q.Q.Q.R.Q.Q.Q.Q.Q.Q.Q.Q.!.!.!.!.!.!.Q.E.Q.!.!.!.Q.Q.Q.Q.Q.!.Q.Q.^.!.!.!.2X3X2X!.!.2X~.7X1X2X1X1X1X1X1X1XbXgX1X~.2X^.2X2X2X2X2X2X2X3X3X3X3X3X3X3X3X3X3X3X3X5X5X5X3X5X5X5X5X5X5X5X5X3X3X3X5X5X5X5X8X5X5X5X5X5X5X5X5X8X8X8X8X8X8X8X7X7X7X7X7X7X7X7X7X7X7X7X7X7X7X7X7X7XdXdXdXdXdXdXdX0X0XdXdXdXdXaXaXdXdXaXaXaXdXsXsXsXsXsXsXsXsXaXsXaXaXsXsXsXsXsXsXxXxXxXxXxXxXxXxXxXxXxXxXcXcXcXcXcXcXvXvXvXvXvXvXbXbXvXbXbXbXbXbXbXbXbXbXbXbXbXbXbXbXbXnXnXnXnXnXnXnXMXbXbXnXMXMX-Xj.W [ ,.,.,.,.,.*.,.*.*.*.*.*.*.*.*.*.*.*.*.*.*.*.*.*.*.*.*.,.*.*.*.*.*.*.*.<.*.*.<.<.<.5.5.5.6.6.6.6.6.6.6.6.6.6.-.$.-.*.6.>XhX{.,.C $.=.$.%.=.%.C %.%.$.%.%.%.%.%.%.%.%.%.$.$.$.$.$.$.$.$.$.%.$.$.$.$.$.$.$.%.$.$.$.",
"L.L.L.L.I.I.I.I.K.K.K.I.I.L.L.L.L.L.L.L.L.L.L.L.I.I.I.I.I.I.I.I.I.I.I.I.I.I.I.I.I.I.I.I.I.I.I.I.I.I.I.I.I.I.I.I.I.I.I.I.I.I.I.I.I.I.I.I.I.I.U.U.U.U.Y.Y.U.U.Y.Y.U.U.U.U.U.U.U.Y.U.U.U.U.U.U.U.U.U.U.U.Y.Y.Y.Y.Y.Y.Y.U.U.Y.Y.Y.Y.Y.Y.Y.Y.Y.T.T.T.T.T.T.T.T.T.T.T.Y.T.T.T.R.R.R.R.R.R.R.R.R.R.R.R.R.R.R.R.R.R.R.R.Q.Q.R.R.R.R.R.R.Q.R.Q.Q.Q.Q.Q.Q.Q.Q.Q.Q.Q.Q.Q.Q.^.Q.Q.!.!.!.Q.!.^.!.E.E.Q.!.!.!.!.Q.R.Q.^.!.!.^.!.!.!.3X3X2X2X2X2X~.7X1X1X1X1X1X1X1XgXbX4X1X2X2X2X2X2X2X2X2X2X2X2X2X2X2X3X3X3X3X3X3X3X3X5X5X5X3X3X3X3X3X5X5X5X5X3X3X3X5X3X5X5X5X5X5X5X5X8X8X8X5X8X8X8X8X8X7X7X7X7X7X7X7X7X7X7X7X7X7X7X7X7X7X7XdX7X7X7XdXdXdXdXdXdXdXdXdXdXdXdXdXdXaXdXsXsXsXsXsXsXsXsXsXaXaXaXsXaXsXsXsXsXsXxXxXxXxXxXxXxXxXxXxXcXcXcXcXcXcXcXcXcXcXcXcXvXvXvXbXbXbXbXbXbXbXbXbXbXbXbXbXbXbXbXbXnXnXnXnXnXnXnXnXbXnXnXnXMXSXpX#X[ [ ,.,.,.,.*.*.*.*.*.*.*.*.*.*.*.*.*.*.*.*.*.*.*.*.*.*.*.*.*.*.*.*.*.*.*.<.<.<.<.<.<.<.<.5.5.5.6.6.6.6.6.6.6.6.5.<.-.%.%.6.<XIXJXJXAX=X4.=.C $.$.$.$.$.%.%.%.%.%.%.%.%.%.%.%.%.$.$.$.$.$.$.$.$.%.%.$.$.$.$.$.$.$.$.$.$.",
"L.L.L.L.I.I.I.I.K.K.K.I.I.L.L.L.L.L.L.L.L.L.L.L.I.I.I.I.I.I.I.I.I.I.I.I.I.I.I.I.I.I.I.I.I.I.I.I.I.I.I.I.I.I.I.I.I.I.I.I.I.I.U.U.I.I.I.I.I.I.U.U.Y.Y.Y.Y.U.Y.Y.Y.U.U.U.U.U.Y.Y.Y.U.U.U.U.U.U.U.U.U.U.Y.Y.Y.Y.Y.Y.Y.Y.Y.Y.Y.Y.Y.Y.Y.Y.Y.Y.T.T.T.T.T.T.T.T.T.T.T.T.Y.T.R.R.R.R.R.R.R.R.R.R.R.R.R.R.R.R.R.R.R.R.R.R.Q.Q.R.R.R.R.R.Q.Q.R.Q.Q.Q.Q.Q.Q.Q.Q.R.Q.Q.Q.Q.Q.^.Q.Q.!.Q.!.Q.~.^.!.E.Q.Q.!.^.^.!.Q.R.Q.^.^.!.^.!.!.~.2X3X2X2X2X2X1X7X1X1X1X1X1X1X1XqXcX1X1X2X2X2X2X2X2X2X2X2X2X2X2X3X3X3X3X3X5X3X3X3X3X3X3X3X3X3X3X5X5X5X5X5X5X3X3X3X5X5X5X5X5X5X5X8X8X8X8X8X8X8X8X8X8X7X7X7X7X7X7X7X7X7X7X7X7X7X7X7X7X7XdXdXdX7X7XdXdXdXdXdXdXdXdXdXdXdXdXdXdXaXaXdXsXaXsXsXaXsXsXaXaXaXaXsXsXsXsXsXxXsXxXxXxXxXxXxXxXxXcXcXcXcXcXcXcXcXcXvXvXcXcXcXvXvXbXbXbXbXbXbXbXbXbXbXbXbXbXbXbXbXbXnXnXnXnXnXnXnXnXnXnXnXnXbXNXFXpX$X[ [ ,.,.,.*.*.*.*.*.*.*.*.*.*.*.*.*.*.*.*.*.*.*.*.*.*.*.*.*.*.*.*.*.*.*.*.<.<.<.<.<.<.<.<.5.5.5.6.6.6.6.6.6.6.6.5.*.-.-.-.5.>XIXDXHXHXHXHXAX=Xv.,.[ C $.$.$.$.$.$.%.%.%.%.%.%.%.%.%.%.%.%.%.%.%.%.%.%.%.$.$.$.%.$.$.$.$.$.",
"L.I.I.I.I.I.I.I.L.L.I.I.I.L.L.L.I.I.I.I.I.I.I.I.I.I.I.I.I.I.I.I.I.I.I.K.I.I.I.I.I.I.I.I.I.I.I.I.I.I.I.I.I.I.I.I.I.I.I.U.U.U.U.U.I.I.I.I.I.I.U.U.U.Y.U.U.U.Y.Y.Y.U.U.U.U.Y.Y.Y.Y.U.U.U.U.U.U.U.U.U.U.U.U.U.Y.Y.Y.Y.Y.Y.Y.Y.Y.Y.Y.Y.Y.Y.Y.T.T.T.T.T.T.R.R.T.T.R.R.R.R.R.R.R.R.R.R.R.R.R.R.R.R.R.R.R.R.R.R.R.R.R.R.R.Q.R.R.R.R.R.R.R.R.Q.Q.Q.Q.Q.Q.Q.Q.Q.Q.Q.Q.Q.Q.Q.Q.E.E.E.Q.Q.~.^.!.E.E.Q.!.^.^.^.Q.R.Q.^.^.!.^.!.Q.~.2X1X2X2X2X1X1X6X1X1X1X1X1X1X1XiXqX4X3X2X2X2X2X2X2X2X2X2X3X2X3X3X3X3X3X5X5X3X3X3X3X3X3X3X3X3X5X5X5X5X5X5X5X3X3X3X3X5X5X5X5X5X8X8X8X8X5X8X8X8X8X8X8X7X7X7X7X7X7X7X7X7X7X7X7X0X0X7X7X7XdXdXdX7X7XdXdXdXdXdXdXdXdXdXdXsXsXdXdXaXaXsXsXsXsXaXaXsXsXaXaXaXaXaXaXsXsXxXxXxXxXxXxXxXxXxXcXcXcXcXcXcXcXcXcXcXcXcXvXcXcXcXvXvXbXvXbXbXbXbXbXbXbXbXbXbXbXbXbXbXnXnXnXnXnXnXnXnXnXnXnXMXnXnXNXpX$X3.[ ,.,.=.,.,.*.*.*.*.*.*.*.*.*.*.*.*.*.*.*.*.*.*.*.*.*.*.*.*.*.*.*.*.*.*.*.<.<.<.<.<.5.5.5.5.5.5.6.6.6.6.6.6.6.5.*.-.-.&.-.}.IXKXHXDXDXDXHXJXDXDXAX'.c.=.C $.$.$.%.%.%.%.%.%.%.%.%.%.%.%.%.%.%.%.%.%.%.%.$.$.$.$.%.$.$.$.$.",
"L.I.I.I.I.I.I.I.L.L.I.I.I.L.L.L.I.I.I.I.I.I.I.I.I.I.I.I.I.I.I.I.I.I.I.K.I.I.I.I.I.I.I.I.I.I.I.I.I.I.I.I.U.I.I.I.I.I.I.U.U.U.U.U.I.I.I.I.I.U.U.U.U.U.U.U.U.U.Y.Y.U.U.U.U.Y.Y.Y.Y.U.U.U.U.U.U.U.U.U.U.U.U.Y.Y.Y.Y.Y.Y.Y.Y.Y.Y.Y.Y.Y.Y.Y.Y.T.T.T.T.T.R.R.R.R.R.R.R.R.R.R.R.R.R.R.R.R.R.R.R.R.R.R.R.R.R.R.R.Q.R.R.R.R.Q.R.R.R.R.R.R.R.R.Q.Q.Q.Q.Q.Q.Q.Q.Q.Q.Q.Q.Q.Q.Q.Q.E.E.E.E.Q.~.^.^.Q.E.Q.!.^.^.^.Q.R.Q.^.^.^.^.!.!.!.2X1X1X1X2X1X1X6X1X1X1X1X1X1X1XcXgX6X3X2X^.2X2X2X2X2X2X3X3X2X3X3X3X3X3X5X5X3X3X3X3X3X3X3X3X3X5X5X5X5X5X5X5X3X3X3X5X5X5X5X5X8X8X8X8X8X8X8X8X8X8X8X7X7X7X7X7X7X7X7X7X7X7X7X7X0X0X7X7XdXdXdXdX7XdXdXdXdXdXdXdXdXdXdXaXsXsXdXdXaXaXsXsXsXsXaXaXaXsXsXaXaXaXaXaXsXsXxXxXxXxXxXxXxXxXxXcXcXxXcXvXcXcXcXcXcXcXvXvXcXcXvXvXvXbXbXbXbXbXbXbXbXbXbXbXbXbXbXbXnXnXnXnXnXnXnXnXnXnXnXnXMXnXMXMX#Xo.[ 5.=.,.,.,.*.,.*.=.*.*.*.*.*.*.*.*.*.*.*.*.*.*.*.*.*.*.*.*.*.*.*.*.*.*.*.<.<.<.<.<.5.5.5.5.5.5.6.6.6.6.6.6.6.6.<.=.&.-.-.b.IXJXSXFXDXDXDXDXDXDXDXDXJXAX-X5.=.$.$.=.$.%.%.%.%.%.%.%.%.%.%.%.%.%.%.%.%.%.%.%.$.$.$.%.$.$.$.$.",
"U.U.L.L.I.U.I.F.I.I.I.I.I.I.I.I.I.I.I.I.I.I.I.I.I.I.I.I.I.I.I.I.I.I.I.I.I.I.I.I.I.I.I.I.I.I.I.I.I.I.I.I.I.I.I.I.I.I.U.U.U.U.U.U.U.U.U.U.U.U.U.U.U.U.U.U.U.U.Y.Y.U.Y.U.U.U.Y.Y.Y.Y.Y.U.U.U.U.U.U.Y.Y.Y.Y.Y.Y.Y.Y.Y.Y.Y.Y.T.T.T.T.Y.Y.Y.T.T.T.Y.R.R.R.R.R.R.R.R.R.R.R.R.R.R.R.R.R.R.R.R.R.Q.Q.R.R.R.R.R.R.R.R.R.R.R.R.Q.Q.Q.Q.Q.Q.Q.Q.Q.Q.Q.Q.Q.Q.Q.Q.Q.R.Q.Q.!.!.Q.!.Q.E.E.E.1X1X!.2X2XQ.E.^.2X^.^.Q.R.Q./.^.Q./.!.!.!.2X3X2X!.1X~.1X1X2X1X1X1X4X1X1XqX9X2X4X2X3X2X2X2X2X3X3X3X3X3X3X3X3X3X3X3X5X3X3X3X3X3X3X3X3X3X3X3X3X5X3X3X3X5X5X5X5X8X8X5X5X8X5X8X8X8X8X7X7X7X7X7X7X7X7X7X7X7X7X7X7X7X7X7X0X7X7X0X0X0X0X0X0XdXdXdXdXdXdXdXdX0X0X0XsXsXsXsXsXdXdXsXsXsXsXsXsXsXsXsXsXsXaXxXxXxXxXxXxXxXxXcXcXxXcXvXvXvXvXvXvXcXcXcXcXcXcXcXcXvXvXvXbXbXbXbXbXbXbXbXbXbXbXbXbXbXbXnXnXnXnXnXnXnXMXnXbXnXnXnXMXBXnXSX=X[ =.5.*.,.*.*.*.*.*.*.*.*.*.*.*.*.*.*.*.*.*.*.*.*.*.*.*.*.*.*.*.*.*.*.*.*.*.<.<.<.<.<.<.<.5.5.5.6.6.6.6.6.6.6.6.5.<.=.-.&.-.v.AXDXDXDXDXDXDXDXDXDXDXDXDXHXPXPXDX=Xc.=.$.$.$.$.%.%.%.%.%.%.%.%.$.$.%.%.$.%.%.%.%.%.%.$.$.%.%.%.%.",
"V.D.U.U.L.D.D.U.I.I.I.I.I.I.I.I.I.I.I.I.I.I.I.I.I.I.I.I.I.I.I.I.I.I.I.I.I.I.I.I.I.I.I.I.I.I.I.I.I.I.I.I.I.I.I.I.I.U.U.U.U.U.U.U.U.U.U.U.U.U.U.U.U.U.U.U.U.U.Y.Y.Y.U.U.U.U.Y.Y.Y.Y.Y.U.U.U.U.U.U.Y.Y.Y.Y.Y.Y.Y.Y.Y.Y.Y.Y.T.T.T.T.Y.Y.R.R.T.T.R.R.R.R.R.R.R.R.R.R.R.R.R.R.R.R.R.R.R.R.R.Q.R.R.R.R.R.R.R.R.R.R.R.Q.R.R.R.Q.Q.Q.Q.Q.Q.Q.Q.Q.Q.Q.Q.Q.Q.Q.Q.R.Q.Q.!.!.Q.!.Q.E.E.E.1X1X!.2X2X!.E.!.^.^.^.Q.R.Q./.^.Q./.!.!.!.2X3X2X~.1X~.1X1X2X2X1X1X4X1X4XqX6X1X4X2X3X2X2X2X3X3X3X3X3X3X3X3X3X3X3X3X5X3X3X3X3X3X3X3X3X3X3X3X3X5X5X3X3X5X5X5X8X8X8X5X8X8X8X8X8X8X7X7X7X7X7X7X7X7X7X7X7X7X7X7X7X7X7X7X0X7X7X0X0X0X0X0X0XdXdXdXdXdXdXdXdX0X0X0XsXsXsXsXsXdX0XsXsXsXsXsXsXxXsXsXaXsXxXxXxXxXxXxXxXxXcXcXcXcXcXcXvXvXvXvXvXcXcXcXcXcXvXvXvXvXvXvXbXbXbXbXbXbXbXbXbXbXbXbXbXbXnXnXnXnXnXnXnXnXnXnXnXnXMXnXMXbXFXrXc.,.,.,.,.,.*.*.*.*.*.*.*.*.*.*.*.*.*.*.*.*.*.*.*.*.*.*.*.*.*.*.*.*.*.*.*.*.*.*.<.<.<.<.<.5.5.5.5.6.6.6.6.6.6.6.6.<.=.%.-.&.6.>XDXDXSXSXDXDXDXDXDXDXDXDXHXJXHXJXPXLXIX=Xv.=.=.$.$.$.%.%.$.$.$.%.%.%.%.%.%.%.%.%.%.%.%.$.$.%.%.%.%.",
"R.F.D.L.Y.U.I.F.I.I.I.I.I.I.I.I.I.I.I.I.I.I.I.I.I.I.I.I.I.I.I.I.I.I.I.I.I.I.I.I.I.I.I.I.I.I.I.I.I.I.I.I.I.I.I.I.I.U.U.U.U.U.U.U.U.U.U.U.U.U.U.U.Y.Y.U.U.U.U.U.U.U.U.U.U.U.U.Y.Y.Y.Y.Y.Y.Y.Y.U.Y.Y.Y.Y.Y.Y.Y.T.T.Y.Y.T.T.T.T.T.T.R.R.R.T.R.R.R.R.R.R.R.R.R.R.R.R.R.R.R.R.R.R.R.R.R.R.R.R.Q.Q.Q.Q.Q.Q.Q.R.Q.Q.Q.Q.R.R.R.R.Q.Q.Q.Q.Q.Q.Q.Q.Q.Q.Q.Q.Q.Q.Q.Q.Q.Q.Q.!.Q.!.!.~.E.E.1X1X1X2X2X!.Q.!.^.^.!.!.R.Q./.^.Q./.!.!.!.2X3X2X1X1X~.1X3X2X2X1X1X1X1X9XsX4X1X3X2X2X2X2X2X3X3X3X3X3X3X3X3X3X3X3X3X3X3X3X3X3X3X3X3X5X3X3X5X5X5X5X8X8X5X5X5X8X8X8X8X8X8X8X8X8X8X7X7X7X7X7X7X7X7X7X7X7X7X7X7X7X7X7X0X0X0X0X0X0X0X0X0X0XdXdXdXdXdXdXdXdX0X0X0X0XsXsXsXsXsXsXsXsXsXsXsXsXxXaXaXaXxXxXxXxXxXxXxXxXcXxXvXvXcXcXvXvXvXvXvXvXcXvXvXvXvXbXbXbXvXvXbXbXbXbXbXbXbXbXbXbXbXbXbXbXnXnXnXnXnXnXnXnXnXnXnXnXMXnXnXnXMXzX'.[ ,.,.=.*.*.*.*.*.*.*.*.*.*.*.*.*.*.*.*.*.*.*.*.*.*.*.*.*.*.*.*.*.*.*.*.*.*.*.<.<.<.<.<.5.5.5.5.6.6.6.6.6.6.6.6.5.-.&.&.7.*.;XIXDXSXSXDXDXDXDXDXDXDXDXHXKXKXKXKXKXPXPXPXKX>Xc.W C =.,.$.%.$.$.$.%.$.$.$.%.%.%.%.%.%.%.%.$.%.%.%.%.",
"F.F.U.T.U.D.I.Y.I.I.I.I.I.I.I.I.I.I.I.I.I.I.I.I.I.I.I.I.I.I.I.I.I.I.I.I.I.I.I.I.I.I.I.I.I.I.I.I.I.I.I.I.I.I.I.I.I.U.U.U.U.U.U.U.U.U.U.U.U.U.U.U.Y.U.U.U.U.U.U.U.Y.Y.U.U.U.Y.Y.Y.Y.Y.Y.Y.Y.Y.Y.Y.Y.Y.Y.Y.T.T.T.T.Y.Y.T.T.R.T.T.T.T.R.R.R.R.R.R.R.R.R.R.R.R.R.R.R.R.R.R.R.R.R.R.R.R.Q.Q.R.Q.Q.Q.Q.Q.Q.Q.Q.Q.Q.Q.Q.R.R.R.R.Q.Q.Q.Q.Q.Q.Q.Q.Q.Q.Q.Q.Q.Q.Q.Q.Q.Q.Q.Q.Q.!.!.~.E.!.1X1X1X2X^.!.Q.!.!.^.!.^.R.R.^.^.!.^.!.!.~.2X3X2X1X1X~.3X3X2X2X1X1X1X1XqXsX4X1X3X2X2X2X3X3X3X3X3X3X3X3X3X3X3X3X3X3X5X3X3X3X3X3X5X5X5X5X5X5X5X8X8X8X8X5X8X8X8X8X8X8X8X8X8X8X8X8X7X7X7X8X7X7X7X7X7X7X7X0X7X7X7X7X7X0X0X0X0X0X0X0X0XdXdXdXdXdXdXdXdXdXdX0X0X0XsXsXsXsXsXsXsXsXsXsXsXsXsXxXxXxXxXxXxXxXxXxXxXcXcXcXcXcXcXcXcXcXvXcXvXvXvXbXbXbXbXbXbXbXbXvXbXbXbXbXbXbXbXbXbXbXbXnXnXnXbXnXnXnXnXnXnXnXnXnXnXnXnXnXnXMXMXGX$X3.,.,.*.,.*.*.*.*.*.*.*.*.*.*.*.*.*.*.*.*.*.*.*.*.*.*.*.*.*.*.*.*.*.*.*.*.*.<.<.<.<.<.<.5.5.5.6.6.6.6.6.6.6.6.6.6.-.-.-.-.-.{.hXDXCXSXDXDXDXDXDXDXDXDXHXHXKXKXKXKXKXKXKXKXLXLXAX-X,.C C $.,.%.$.$.%.%.%.%.C %.%.%.%.%.%.%.%.%.%.%.%.",
"G.G.G.G.G.F.U.Y.U.U.I.I.I.I.U.U.I.I.I.I.I.I.I.I.I.I.I.I.I.I.I.I.I.I.I.I.I.I.I.I.I.I.I.I.I.I.I.I.I.I.I.I.I.I.I.I.I.U.U.U.U.U.U.Y.U.U.U.U.U.U.U.U.Y.Y.U.Y.U.U.U.Y.Y.Y.Y.Y.Y.Y.Y.Y.Y.Y.Y.Y.T.T.Y.Y.Y.Y.Y.Y.Y.Y.T.T.Y.Y.R.R.R.T.T.T.R.R.R.R.R.R.R.R.R.R.R.R.R.R.R.R.R.R.R.R.Q.Q.Q.Q.R.R.R.R.Q.Q.Q.Q.Q.Q.Q.Q.Q.Q.Q.Q.R.R.R.R.R.R.Q.Q.E.E.E.Q.Q.Q.Q.Q.Q.Q.Q.Q.Q.!.!.!.Q.Q.Q.~.!.!.1X1X2X2X^.!.!.Q.!.^.^.2X~.R.!.^.!./.~.~.~.2X1X2X1X1X~.3X3X2X2X1X1X1X4XcXsX3X2X3X3X2X3X3X3X3X3X3X3X3X3X3X3X3X3X3X5X5X3X3X3X3X3X3X3X3X5X5X5X5X8X8X8X8X5X5X8X8X8X8X8X8X8X8X8X7X8X8X8X7X7X7X7X7X7X7X7X7X0X0X7X7X7X7X0X0X0X0X0X0X0XdXdXdX0X0X0X0XdXdXdXdX0X0XsXsXsXsXsXsXsXsXsXsXsXsXsXsXxXxXxXxXxXxXxXxXcXcXcXcXcXcXcXvXcXcXcXcXvXvXvXvXbXbXbXbXbXbXbXbXbXbXbXbXbXbXbXbXbXbXbXnXbXbXbXnXnXnXnXnXnXnXnXnXMXnXnXnXnXMXNXMX*Xo.,.5.*.*.<.=.*.*.*.*.*.*.*.*.*.*.*.*.*.*.*.*.*.*.*.*.*.*.*.*.*.*.*.*.*.*.<.<.<.<.<.<.<.5.5.5.5.6.6.6.6.6.6.6.6.5.*.-.-.-.-.1.hXIXDXGXFXHXDXDXDXDXHXHXHXHXKXKXKXKXKXPXPXPXKXKXLXLXJXhXv.,.=.%.$.$.$.%.%.%.%.%.$.%.%.%.%.%.%.%.%.%.%.%.",
"FXkX+XG.G.E.T.D.U.U.U.U.I.I.U.U.I.I.I.I.I.I.I.I.I.I.I.I.I.I.I.I.I.I.I.I.I.U.I.I.I.I.I.I.I.I.I.I.I.I.I.I.I.I.I.I.I.U.U.U.U.Y.Y.Y.U.U.U.U.U.U.U.U.Y.Y.Y.Y.U.Y.Y.Y.Y.Y.Y.Y.Y.T.Y.Y.Y.Y.Y.Y.T.T.Y.Y.T.T.Y.Y.T.T.T.T.Y.Y.R.R.R.T.T.R.R.R.R.R.R.R.R.R.R.R.R.R.R.R.R.R.R.R.R.R.Q.Q.Q.Q.R.R.R.Q.Q.Q.Q.Q.Q.Q.Q.Q.Q.Q.Q.Q.Q.Q.Q.Q.Q.Q.Q.Q.!.!.!.!.!.!.!.!.^.Q.Q.Q.Q.!.!.!.Q.Q.!.!.1X1X1X1X2X2X!.!.!.~.!.!.!.2X~.E.!./.!././.~.~.2X1X1X1X1X~.3X3X2X2X1X1X4XgXcXqX1X3X3X3X2X3X3X3X3X3X3X3X3X3X5X5X5X3X5X5X5X3X3X3X5X3X3X3X3X5X5X5X5X8X8X8X8X5X5X8X8X8X8X8X8X8X7X7X7X8X7X7X7X8X8X7X7X7X7X7X7X0X0X0X0X7X7X0X0X0X0XdX0XdXdXdXdXdX0XdXdXdXdXsXsXsXsXsXsXsXsXsXsXsXsXsXsXsXsXxXxXxXxXxXxXxXcXcXcXcXcXcXcXvXvXvXvXcXcXcXvXvXvXvXvXbXbXbXbXbXbXbXbXbXbXbXbXbXbXbXbXbXbXbXnXnXnXnXnXnXnXnXnXnXnXnXnXnXnXnXMXnXFXFXpXc.,.,.,.*.,.,.=.*.*.*.*.*.*.*.*.*.*.*.*.*.*.*.*.*.*.*.*.*.*.*.*.*.*.*.*.*.<.<.<.*.<.<.<.<.5.5.6.5.6.6.6.6.6.{.{.6.*.=.-.&.&.1.;XDXDXDXSXDXDXDXDXHXHXHXHXHXKXKXKXKXPXLXKXJXJXKXLXKXPXPXPXPXIX-X[ =.$.$.$.=.=.$.$.$.$.$.%.%.%.%.%.%.%.%.%.",
"CXHXHXmXwXG.U.R.U.U.U.U.U.U.U.U.U.I.I.I.I.U.I.I.I.I.I.I.I.I.I.I.I.I.I.I.I.U.I.I.I.I.I.I.I.I.I.I.I.I.I.I.I.I.I.I.I.U.U.U.U.Y.Y.Y.U.U.U.U.U.U.U.U.Y.Y.Y.Y.U.Y.Y.Y.Y.Y.Y.T.T.T.T.T.Y.Y.Y.Y.Y.Y.Y.Y.T.T.R.R.T.R.R.R.Y.R.R.R.R.T.R.R.R.R.R.R.R.R.R.R.R.R.R.R.R.R.R.R.R.R.R.Q.Q.Q.Q.Q.R.R.R.Q.Q.Q.Q.Q.Q.Q.Q.Q.Q.Q.Q.Q.Q.Q.Q.Q.Q.Q.Q.Q.!.!.!.!.!.!.!.!.!.!.Q.Q.Q.Q.!.!.!.!.Q.!.1X1X1X1X2X2X!.2X!.~.!./.!.2X~.R.!././././.~.~.2X1X2X1X1X~.3X3X1X2X1X1X4XgXcX6X1X5X3X3X3X3X3X3X3X3X3X3X3X5X5X5X5X3X5X5X5X3X3X3X5X3X3X3X5X5X5X5X5X5X8X8X8X5X5X5X8X8X8X8X7X7X7X7X7X8X7X7X7X7X7X7X7X7X7X7X0X0X0X0X0X0X0X0X0X0X0XdXdXdXaXsXsX0X0X0X0XsXsXsXsXsXsXsXsXsXsXsXsXsXsXsXxXsXxXxXxXxXxXxXxXxXxXvXvXcXcXcXcXvXvXbXvXcXcXvXvXvXvXbXbXbXbXbXbXbXbXbXbXbXbXbXbXbXbXnXnXbXbXnXnXnXnXnXnXnXnXnXnXnXnXnXnXMXnXMXMXnXFXmX#X,.,.,.*.,.*.*.*.,.*.*.*.*.*.*.*.*.*.*.*.*.*.*.*.*.*.*.*.*.*.*.*.*.*.*.*.*.*.*.<.<.<.5.5.5.5.6.6.6.6.6.6.6.y.r.6.5.=.8.-.&.-.v.IXHXDXHXHXDXDXHXHXHXHXHXHXHXKXKXKXKXKXJXKXPXPXKXHXKXKXKXJXKXPXDXhXc.,.C $.$.$.%.%.$.$.$.$.%.%.$.$.%.%.%.%.",
").CXLXLXmX1XT.U.U.U.U.U.U.U.U.U.I.I.I.I.I.I.I.I.I.I.I.I.I.I.I.I.I.I.I.I.U.U.I.I.I.I.I.I.I.I.I.I.I.I.I.I.I.I.U.U.I.U.U.U.Y.Y.Y.Y.U.U.U.U.U.U.U.U.Y.Y.Y.Y.Y.Y.Y.Y.Y.Y.Y.T.T.T.T.T.T.T.T.T.T.T.T.T.Y.R.R.R.R.R.R.R.Y.R.R.R.R.R.R.R.R.R.R.R.R.R.R.R.R.R.R.R.R.R.R.R.R.R.R.Q.Q.Q.Q.Q.R.R.Q.Q.Q.Q.Q.Q.Q.Q.Q.Q.Q.Q.Q.Q.Q.Q.Q.Q.Q.Q.Q.Q.!.!.!.!.!.!.!.!.^.!.!.Q.Q.Q.!.!.!.!.Q.!.2X2X1X1X3X2X!.2X!.~.~./.!.2X~.R.!././././.~.~.2X1X2X1X1X~.1X3X1X2X1X1X4X6XiX1X1X6X3X3X5X3X3X3X3X3X3X3X3X5X5X5X5X5X5X5X5X3X3X5X5X3X3X5X5X5X8X5X5X5X8X8X8X5X5X8X8X8X8X7X7X7X7X7X7X7X7X7X7X7X7X7X7X7X7X0X0X0X0X0X0X0X0X0X0XdX0X0XdXdXaXaXsX0X0X0X0XsXsXsXsXsXsXsXsXsXsXsXsXsXsXsXxXsXxXxXxXxXxXxXcXcXvXvXvXcXvXvXvXvXvXbXbXcXcXvXvXvXvXbXbXbXbXbXbXbXbXbXbXbXbXbXbXbXbXnXnXbXbXnXnXnXnXnXnXnXnXnXnXnXnXnXnXNXnXMXMXMXSXtXd.,.,.,.,.*.=.*.*.,.*.*.*.*.*.*.*.*.*.*.*.*.*.*.*.*.*.*.*.*.*.*.<.*.*.*.*.*.<.<.<.5.5.5.5.5.6.6.6.6.6.6.6.6.6.6.6.-.-.-.&.&.7.>XLXPXJXKXKXDXJXKXHXHXHXHXHXHXHXKXKXKXKXKXKXKXKXKXKXKXKXKXHXHXJXKXKXIX-X,.=.=.=.$.=.$.$.$.$.$.$.$.$.%.%.%.%.",
"e.[.LXLXLXlX@XT.U.U.U.U.U.I.I.I.I.U.U.U.I.I.I.U.I.I.I.I.I.I.I.I.I.I.I.I.U.U.I.I.I.I.I.I.I.U.Y.Y.I.U.U.U.U.U.Y.U.U.U.U.U.U.U.U.U.U.U.U.U.Y.Y.Y.Y.Y.Y.Y.Y.Y.Y.Y.Y.Y.Y.Y.Y.Y.T.T.T.T.R.Y.Y.R.R.R.R.R.R.R.R.R.R.R.R.R.R.R.R.R.R.R.R.R.R.R.R.R.E.E.E.R.R.R.R.Q.Q.R.R.Q.Q.Q.Q.Q.Q.Q.Q.Q.Q.R.R.R.R.R.R.Q.Q.Q.Q.Q.Q.Q.Q.Q.Q.Q.Q.Q.Q.Q.Q.!.!.!.!.!.!.!.!.Q.Q.!.!.!.Q.Q.Q.Q.^.^.2X2X2X2X2X2X2X2X2X2X!.~.E.2X!.!.~.Q./.3X/.!.~.1X1X6X1X1XE.1X1X1X1X1X1X1X4X9XqX1X~.3X2X3X3X3X3X3X5X5X5X5X5X5X5X5X5X3X5X5X5X5X5X5X5X5X5X5X5X8X8X5X5X5X8X8X8X5X8X8X8X7X7X7X7X7X7X7X7X7X7X7X7X7X7X7X7X7X7X7X7XdX0XdXdXdXdXdXdXaX0X0X0XdXdXaX0XaXaXdX0XaXsXsXsXsXsXaXaXaXsXsXsXxXxXxXxXxXxXxXxXxXxXxXvXcXvXvXvXcXcXcXvXvXbXbXbXvXvXvXbXbXbXbXbXbXbXbXbXbXbXbXbXbXbXbXbXbXbXbXnXbXbXbXbXnXnXnXnXnXnXnXnXMXMXMXMXnXMXSXnXBXnX$X,.,.*.*.*.*.*.*.*.*.*.*.*.*.*.*.*.*.*.*.*.*.*.*.*.*.*.*.*.*.*.*.*.*.<.<.<.*.<.<.<.<.<.5.5.6.6.6.6.6.6.6.6.y.6.<.*.-.-.&.-.1.>XLXHXKXKXKXHXHXHXHXKXHXKXKXKXKXHXKXKXKXKXHXHXKXKXKXKXKXHXHXHXHXHXHXHXJXKXAXc.[ =.$.$.$.$.%.%.=.=.$.%.%.%.%.%.",
"w.w.-XJXLXDXwXG.U.U.U.U.U.U.I.U.I.I.U.U.I.I.I.I.I.I.I.I.I.I.I.I.I.I.I.I.U.U.I.U.I.I.U.I.I.U.U.U.I.U.U.U.Y.U.Y.Y.U.U.U.U.U.U.U.U.U.U.U.U.Y.Y.Y.Y.Y.Y.Y.Y.Y.Y.Y.Y.Y.Y.Y.Y.Y.Y.T.T.T.R.Y.R.R.R.R.R.R.R.R.R.R.R.R.R.R.R.R.R.R.R.R.R.R.R.R.R.R.E.E.E.R.R.R.R.Q.R.Q.R.Q.Q.Q.Q.Q.Q.Q.Q.Q.Q.R.R.R.R.R.R.Q.Q.Q.Q.Q.Q.Q.!.Q.Q.Q.Q.Q.Q.Q.Q.!.!.!.!.!.!.!.!.!.!.!.!.!.Q.Q.Q.Q.^.^.^.1X1X1X1X2X2X2X2X2X!.~.E.2X!.!.!.Q./.3X/./.~.1X~.6X1X1XE.1X1X1X1X1X1X6X6XqXqX1X1X3X2X3X3X3X3X3X5X5X5X5X5X5X5X5X5X5X5X5X5X5X5X5X5X5X5X5X5X8X8X8X8X8X8X8X8X8X8X8X8X7X7X7X7X7X7X7X7X7X7X7X7X7X7X7X7X7X7X7X7X7X7X7X0X0X0X0X0X0X0XdXaXdXsXsXaXaXaX0X0XaXsXsXsXaXsXsXaXaXsXsXsXsXsXsXxXxXxXxXcXxXxXxXcXcXcXcXcXcXcXvXvXbXbXvXbXvXvXvXbXbXbXbXbXbXbXbXbXbXbXbXbXbXbXbXbXnXnXbXnXbXbXnXnXnXnXnXnXnXnXnXnXMXMXMXMXnXMXmXMXBXmXc.,.,.*.*.*.*.*.*.*.*.*.*.*.*.*.*.*.*.*.*.*.*.*.*.*.*.*.*.*.*.*.*.<.*.<.<.*.<.<.<.<.5.5.5.6.6.6.6.6.6.r.6.6.6.5.*.-.-.-.-.-.6.IXJXPXKXKXHXHXHXHXKXKXHXHXHXHXHXHXKXKXKXKXKXKXKXPXKXKXHXHXHXHXHXHXHXHXDXJXPXJX=X5.=.$.$.$.$.$.%.C %.=.%.%.%.%.",
"t.w._ =XJXHXwXE.U.U.G.G.F.G.U.G.U.U.U.U.I.I.I.I.I.I.I.I.I.I.I.I.U.I.I.I.U.U.U.U.U.U.U.U.U.U.U.U.I.Y.U.U.Y.Y.Y.Y.U.U.U.U.U.U.U.U.U.U.Y.Y.Y.Y.Y.Y.Y.Y.Y.Y.Y.T.Y.Y.Y.Y.Y.T.Y.Y.Y.Y.R.R.T.R.R.R.R.R.R.R.R.R.R.R.R.R.R.R.R.R.R.R.R.R.Q.Q.Q.R.R.E.E.E.R.R.R.R.Q.R.Q.Q.Q.Q.Q.Q.Q.Q.Q.Q.Q.Q.Q.Q.Q.Q.Q.Q.Q.Q.Q.Q.Q.!.!.!.Q.Q.Q.Q.Q.Q.Q.Q.Q.!.!.!.Q.Q.!.!.^.^.^.^.^.!.Q.E.Q.^.^.^.1X!.1X1X1X2X2X2X2X!.~.~.2X!.!.!.Q.!.3X/./.~.2X~.6X1X1XE.1X1X1X3X1X1X4XgXqXqX1X2X3X2X3X3X3X3X3X5X5X5X5X5X5X5X5X5X5X5X5X5X5X5X5X5X5X5X5X5X8X8X8X8X8X8X8X8X8X8X8X7X7X7X7X7X7X7X7X7X7X7X7X7X7X7X7X7X7X7X7X7X7X7X7X0X0X0X0X0X0X0XdXaXaXaXvXbXvXsXaXaXsXsXsXsXsXsXsXsXsXsXsXsXsXxXxXxXxXcXcXcXcXcXcXcXcXcXvXvXcXvXvXvXvXbXbXbXvXvXbXbXbXbXbXbXbXbXbXbXbXbXbXnXbXbXbXbXnXnXnXnXnXnXnXnXnXnXnXnXnXnXMXMXMXMXMXMXnXNXzXNXNXpXc.,.,.*.*.*.*.*.*.*.*.*.*.*.*.*.*.*.*.*.*.*.*.*.*.*.*.*.*.<.<.<.<.<.*.<.<.<.<.5.5.<.5.5.5.6.6.6.6.y.6.{.r.6.5.*.=.-.&.-.7.-.>XJXJXKXKXHXHXHXHXHXHXKXKXKXHXHXHXHXKXKXKXKXKXKXLXLXLXPXHXHXHXDXDXHXHXHXKXHXKXPXLXIX{.,.=.=.$.$.$.=.$.%.%.%.%.%.",
"q.t.e.e.=XJX+X@XG.G.F.G.G.F.U.U.U.U.U.U.I.I.I.I.U.U.U.U.U.U.U.U.I.I.I.I.U.U.U.U.U.U.U.U.U.U.U.U.I.Y.U.Y.Y.Y.Y.Y.U.U.U.U.U.U.Y.Y.Y.Y.Y.Y.Y.Y.Y.Y.Y.Y.Y.Y.T.T.Y.T.T.T.T.T.Y.R.R.R.R.R.R.R.R.R.R.R.R.R.R.R.R.R.R.R.R.R.R.R.R.R.R.R.R.R.Q.Q.Q.E.E.E.E.E.E.E.E.E.E.E.Q.Q.Q.Q.Q.Q.R.Q.Q.Q.Q.Q.Q.Q.Q.Q.Q.Q.Q.Q.Q.!.!.!.^.^.^.^.!.!.!.!.!.!.!.!.!.!.!.!.^.^.^.^.^.!.Q.Q.Q.^.2X2X2X1X1X1X1X2X2X2X2X2X!.~.2X!.2X!.Q.!././.2X~.2X~.6X2X1XE.4X4X3X3X1X3X4XgXqX9X1X3X3X3X3X3X3X3X3X3X5X5X5X5X3X3X3X5X5X5X5X5X5X8X8X8X8X8X8X5X8X8X8X8X8X8X8X7X7X7X7X7X7X7X7X7X7X7X7X7X7X7X7X7X7X7X7X7X7X7X7X7X7X0X0X0X0X0XdXdXaXaX0XqXsXbXBXNXbXvXsXaX0XsXaXaXsXsXsXaXsXsXxXxXxXxXxXxXcXcXcXcXcXcXcXcXcXvXvXvXvXvXvXbXbXbXbXbXbXbXbXbXbXbXbXbXbXbXbXbXbXnXnXnXbXbXbXnXnXnXnXnXnXnXnXMXnXMXnXMXnXnXnXnXMXMXMXMXMXNXzXNXFXrX3.,.,.*.*.*.*.*.*.*.*.*.*.*.*.*.*.*.*.*.*.*.*.*.*.*.*.*.*.<.<.<.<.<.*.<.<.<.5.5.5.<.5.5.5.6.6.6.6.{.6.{.6.5.*.=.&.&.&.7.7.{.IXDXHXDXKXKXHXHXHXHXHXHXKXKXKXKXKXKXKXKXPXPXLXLXLXLXLXPXHXHXDXDXDXDXHXHXDXKXKXJXLXLXIX=X=.=.$.$.$.$.%.%.$.$.$.$.",
"q.t.t.e.{.IXlXS.G.G.F.F.U.F.U.U.U.U.I.I.I.U.U.U.I.I.I.I.U.U.U.U.I.I.I.I.I.U.U.U.U.U.U.U.U.U.U.U.Y.Y.Y.Y.Y.Y.Y.Y.U.U.Y.Y.Y.Y.Y.Y.Y.Y.Y.Y.Y.Y.Y.Y.Y.Y.Y.T.T.T.T.R.T.T.T.R.R.R.R.R.R.R.R.R.R.R.R.R.R.R.R.R.R.R.R.R.R.R.R.R.R.R.Q.R.Q.Q.Q.Q.R.E.E.E.E.E.Q.Q.E.E.E.Q.Q.Q.Q.Q.Q.Q.Q.Q.Q.Q.Q.Q.Q.^.^.^.Q.Q.Q.Q.Q.!.!.!.^.^.!.!.!.!.!.!.!.!.!.!.^.^.^.^.^.^.^.^.^.!.!.Q.Q.Q.^.2X2X2X2X2X2X2X2X2X2X2X!.!.2X^.2X/.Q.!./.!.2X~.1X~.6X1X1XE.9X4X4X3X1X1X6X4XqX6X1X2X3X3X3X3X3X3X3X3X3X3X3X5X3X5X5X5X5X5X5X5X5X5X5X5X8X8X8X8X8X8X8X8X8X7X7X7X7X7X7X7X7X7X7X7X7X7X7X7X7X7X7X7X7X7X7X0X0X0X0X0X0X0X0X0X0X0X0X0XaXaXaXcXnXNXNXNXbXbXcXaXsXaXaXaXsXsXsXsXxXxXxXxXcXcXcXcXcXcXvXvXcXcXcXcXvXvXvXbXcXbXbXbXbXbXbXbXbXbXbXbXbXbXbXbXbXbXbXbXnXnXnXnXbXnXbXnXnXnXnXnXnXnXnXnXnXMXMXMXnXMXMXMXMXMXMXMXMXMXMXMXSX$X,.,.*.*.*.*.*.*.*.*.*.*.*.*.*.*.*.*.*.*.*.*.*.*.*.*.*.*.*.<.<.*.*.*.<.<.<.<.5.6.6.5.5.5.5.6.6.6.6.y.{.{.6.*.=.-.-.-.&.7.1.,XJXHXHXJXKXKXHXHXHXHXHXHXKXPXLXLXLXPXPXPXPXLXLXLXLXPXKXHXHXDXDXDXDXDXDXDXHXHXKXPXLXLXPXKX-Xc.=.$.$.$.$.=.=.=.$.$.",
"q.q.e.e...-XKX@XF.F.G.F.U.U.U.U.I.I.I.I.U.U.U.U.U.U.U.U.U.U.U.U.I.I.I.U.U.U.U.U.U.U.U.U.U.Y.U.U.Y.Y.Y.Y.Y.Y.Y.Y.Y.Y.Y.Y.Y.Y.Y.Y.Y.Y.Y.Y.Y.Y.Y.Y.Y.T.T.T.T.T.R.R.R.R.R.R.R.R.R.R.R.R.R.R.R.R.R.R.R.R.R.R.R.R.R.R.R.R.R.R.R.Q.Q.Q.Q.Q.Q.Q.Q.E.E.E.Q.Q.Q.Q.Q.Q.E.Q.Q.Q.Q.Q.!.!.Q.Q.Q.Q.Q.Q.Q.^.^.^.Q.Q.Q.Q.Q.!.!.!.^.^.!.!.!.!.!.!.Q.Q.^.^.^.^.^.^.^.^.^.^.^.^.!.!.R.Q.!.^.!.!.2X2X2X2X3X3X2X2X2X!.!.!.2X/.Q.!./././.~.2X~.4X1X1X1X0XgX4X3X1X4X6X4XiX1X1X3X3X5X3X5X3X3X3X3X3X3X5X5X5X5X5X5X5X5X5X5X5X5X8X8X8X8X8X6X8X8X8X8X7X7X7X7X7X7X7X7X7X7X7X7X7X7X7X7X7X7X7X7X0X0X0X0X0X0X0X0X0X0X0X0X0XsXsXsXaXsXbXMXFXFXFXMXbXbXcXxXxXsXsXsXxXxXxXxXxXxXxXcXcXcXcXcXcXcXvXvXcXcXcXvXvXvXbXbXbXbXbXbXbXbXbXbXbXbXbXbXbXbXbXbXbXbXbXnXnXnXnXnXnXnXbXnXnXnXmXnXmXmXmXMXMXMXMXMXMXMXMXMXMXMXMXMXMXmXMXMXzXc.,.*.*.*.*.*.*.*.*.*.*.*.*.*.*.*.*.*.*.*.*.*.*.*.<.<.*.*.*.<.<.<.*.*.<.<.<.5.5.6.6.6.6.6.6.6.6.6.y.y.{.6.5.*.-.-.&.&.-.-.>XIXHXHXDXKXHXHXKXKXKXKXKXKXPXLXLXLXLXLXPXPXPXLXLXKXKXHXHXDXHXDXDXDXDXHXHXDXKXHXHXKXLXLXLXLXLXIX-X,.=.=.=.$.=.=.=.=.",
"0._ 0.0.K } kX1XU.G.G.U.U.U.I.I.U.U.U.U.U.U.U.U.U.U.U.U.U.U.U.U.I.U.U.U.U.Y.U.U.U.U.U.U.Y.Y.Y.Y.Y.Y.Y.Y.Y.Y.Y.Y.U.U.Y.Y.Y.Y.Y.Y.Y.Y.R.R.Y.Y.R.R.T.T.T.T.T.T.T.T.R.R.R.R.R.R.R.R.R.R.R.R.R.R.R.R.R.R.R.R.R.R.R.R.Q.Q.Q.Q.Q.Q.Q.Q.Q.Q.Q.Q.Q.Q.Q.Q.E.Q.!.!.!.E.!.!.Q.Q.Q.!.!.!.!.!.Q.Q.Q.Q.Q.^.^.^.Q.!.!.Q.Q.^.^.^.^.!.!.!.!.^.!.!.Q.^.^.^.^.^.^.^.!.^.^.^.^.^.^.^.R.R.Q.!.!.2X2X2X2X2X3X3X2X2X2X2X!.!.2X/.~.!./././.~.1X~.4X1X1X1X9X4X1X1X3X4X4XgXcX1X3X3X3X5X3X5X3X3X3X3X3X3X5X5X5X5X5X5X5X5X5X5X5X8X8X8X8X5X6X6X8X8X8X8X8X6X6X6X7X7X7X7X7X7X7X7X7X7X7X7X7X7X7X7X0X0X0X0X0X0X0X0X0X0X0X0XsXsXaXaXxXbXMXFXHXHXSXmXmXbXcXcXxXxXxXxXxXxXxXxXcXcXvXvXcXcXcXcXcXvXvXvXcXcXvXvXvXbXbXbXbXbXbXbXbXbXbXbXbXbXbXbXbXbXbXbXbXbXbXnXnXnXnXnXnXnXnXnXnXnXnXnXmXnXmXMXMXMXMXMXMXMXMXMXMXMXMXMXSXmXMXMXeX3.,.*.*.*.*.*.*.*.*.*.*.*.*.*.*.*.*.*.*.*.*.*.*.<.<.<.<.<.<.<.<.*.*.*.<.<.<.<.5.5.6.6.6.6.6.6.6.y.y.r.6.5.-.-.-.&.&.&.-.6.IXDXKXHXKXJXHXHXKXKXKXKXKXKXKXPXLXPXPXPXPXPXKXKXKXKXHXHXHXDXHXHXHXHXHXHXHXHXHXKXKXJXJXPXLXLXLXLXLXhX4.C $.=.$.$.=.=.",
"@.@.@.Z K } g.E.U.U.U.U.I.I.I.I.U.U.U.U.U.U.U.U.U.U.U.U.U.U.U.U.U.U.U.U.Y.Y.U.U.U.U.U.U.Y.Y.Y.Y.Y.Y.Y.Y.Y.Y.Y.Y.U.Y.Y.Y.Y.Y.Y.Y.T.R.R.R.Y.R.R.R.T.T.T.T.T.T.T.T.R.R.R.R.R.R.R.R.R.R.R.R.R.R.R.R.R.R.R.R.R.R.Q.Q.Q.Q.Q.Q.Q.Q.Q.Q.Q.Q.Q.Q.Q.Q.Q.Q.E.!.!.!.!.!.!.!.Q.Q.Q.!.!.!.!.!.Q.Q.Q.Q.Q.^.^.^.!.!.!.Q.^.^.!.^.^.!.!.!.!.^.!.!.^.^.^.^.^.^.^.^.!.!.^.^.^.^.^.2XR.Q.!./.2X2X2X2X3X3X3X3X2X2X2X2X!.!.2X/.~./.3X/.!.~.3X~.1X1X4X4XgX4X1X1X1X4X9XgXvX1X3X5X3X5X3X5X3X3X3X3X3X3X5X5X5X5X5X5X5X5X5X5X5X8X8X8X5X6X6X6X8X8X8X8X8X6X6X6X7X7X7X7X7X7X7X0X7X7X7X7X7X7X7X7X0X0X0X0X0X0X0X0X0X0X0X0XaXaXaXaXbXnXGXDXDXDXGXGXmXbXvXcXvXvXxXxXxXxXxXcXvXvXvXvXcXcXcXvXcXvXvXvXcXcXvXvXvXbXbXbXbXbXbXbXbXbXbXbXbXbXbXbXbXbXbXbXbXbXnXnXnXnXnXnXnXnXnXmXnXnXnXnXmXnXmXmXMXMXMXMXMXMXMXMXMXMXMXMXSXMXMXSXOX[ ,.*.*.*.*.*.*.*.*.*.*.*.*.*.*.*.*.*.*.*.*.*.*.<.<.<.<.<.<.<.<.<.<.<.<.<.<.<.<.5.6.6.6.6.6.6.6.y.6.6.5.-.-.-.-.-.&.&.7.,XJXKXHXKXPXHXKXKXKXKXKXKXKXKXKXKXKXKXKXJXJXKXHXHXKXHXHXHXHXHXHXHXHXHXHXKXKXKXJXJXKXPXPXPXLXLXLXPXLXLXIX6.$.=.%.$.$.$.",
"S H S Z M H z.E.I.F.F.U.U.U.U.U.U.Y.Y.Y.U.U.U.U.U.U.Y.U.U.U.U.U.I.U.U.U.Y.Y.U.U.U.U.U.Y.U.U.U.Y.Y.Y.Y.Y.Y.T.T.T.Y.Y.Y.Y.Y.T.T.R.T.T.T.T.T.R.R.R.T.T.T.T.R.R.R.R.R.R.R.R.R.R.R.R.T.R.R.R.R.R.R.R.Q.R.R.R.R.R.Q.Q.R.Q.Q.Q.R.E.E.E.Q.Q.Q.E.Q.Q.!.!.Q.!.!.E.!.!.!.!.Q.Q.!.!.Q.Q.!.!.Q.!.!.!.!.!.!.!.!.!.!.!.!.2X^.^.^.^.^.^.^.^.^.^.^.^.^.^.^.^.^.^.^.^.^.^.^.^.^.2X/.!.!.2X3X2X!.2X1X1X2X2X2X2X2X2X!.2X3X/./.Q.8X/./.Q.3X2X1X4X4X4XgXqX1X1X1XqX1XvXaX4X3X3X5X3X3X8X3X3X3X3X5X3X3X3X5X5X5X5X8X8X5X5X8X8X8X8X8X8X8X6X8X8X8X8X8X8X7X7X7X7X7X7X7X7X7X7X7X7X7X7X0X0X0X0X0XfXfXfXfXfXfXfXaXaX0X0X0XaXxXvXbXmXGXSXSXFXMXMXcXcXcXcXcXcXcXcXcXcXcXcXcXcXcXcXcXcXcXvXvXvXvXbXcXcXvXvXbXbXbXbXbXbXbXbXbXbXbXbXbXbXbXbXbXbXnXnXbXbXbXnXnXnXnXnXnXnXnXnXnXnXnXmXMXMXMXMXMXMXMXMXMXMXMXMXMXMXMXMXMXMXNXGXc.,.,.*.*.*.*.*.*.*.*.*.*.*.*.*.*.*.*.*.*.*.*.*.*.*.*.<.*.<.<.<.<.<.<.<.<.<.5.5.5.5.6.6.6.6.6.6.{.}.6.:.=.*.-.8.-.&.7.&.{.IXKXDXHXKXDXKXKXKXKXKXKXJXHXHXHXHXHXHXHXHXHXHXHXHXHXJXJXKXKXKXKXKXKXKXKXKXKXKXKXKXKXPXPXLXLXLXLXLXLXLXLXIX{.[ $.$.$.$.",
"M Z Z Z Z M z.F.Y.U.U.U.Y.U.U.U.U.Y.Y.Y.U.U.U.U.U.Y.Y.Y.U.U.U.U.I.U.U.Y.Y.Y.U.Y.U.U.Y.Y.U.U.U.Y.Y.Y.Y.Y.Y.Y.Y.Y.Y.Y.Y.Y.T.T.T.R.T.T.T.T.R.R.R.R.T.T.T.T.R.R.R.R.R.R.R.R.R.R.R.R.R.R.R.R.R.R.R.R.Q.R.R.R.R.R.Q.Q.Q.Q.Q.Q.R.E.E.E.Q.Q.Q.Q.Q.Q.!.!.Q.Q.!.!.!.!.!.!.Q.!.!.!.Q.!.!.!.Q.Q.!.!.!.!.!.!.!.!.!.!.2X2X^.2X^.^.^.^.^.^.^.^.^.^.^.^.^.^.^.^.^.^.^.^.^.^.^.2X^.^.!.2X2X2X!.2X1X1X2X2X2X2X/.2X!.!.3X2X/.Q.8X/./.~.3X3X1X4X4X4X9X9X1X1X1X0X1XvX0X4X3X3X5X3X3X8X3X3X3X3X5X5X3X3X5X5X5X8X8X8X5X8X8X8X8X8X8X8X8X6X8X8X8X7X7X7X7X7X7X7X7X7X7X7X7X7X7X7X7X0X0X0X0X0X0X0X0X0XdXdXdXdXdXaX0X0X0XaXxXvXbXmXmXmXGXmXmXmXcXcXcXcXcXcXcXcXcXcXcXcXcXcXcXcXcXcXcXvXvXvXbXbXcXvXvXvXbXbXbXbXbXbXbXbXbXbXbXbXbXbXbXbXnXbXnXnXnXnXnXnXnXnXnXnXmXmXmXmXMXMXMXmXMXMXMXMXMXMXMXMXMXMXMXMXMXMXMXMXMXNXMXGXc.,.<.*.*.*.*.*.*.*.*.*.*.*.*.*.*.*.*.*.*.*.*.*.*.*.*.*.*.*.<.<.<.<.<.<.<.5.5.5.5.5.6.6.6.6.6.6.y.6.5.=.=.=.-.&.&.&.-.1.<XJXKXHXKXKXHXKXKXKXKXKXKXHXHXDXHXHXHXHXHXHXHXHXHXHXJXJXJXKXKXJXKXKXKXPXPXPXKXKXPXPXPXPXLXLXLXLXLXLXLXLXLXLXIXhX,.%.%.,.",
"Z Z Z H H M ' l.Y.Y.U.U.U.U.U.Y.U.U.Y.Y.Y.Y.U.U.Y.Y.Y.Y.Y.Y.U.U.I.U.U.U.Y.Y.Y.Y.U.Y.U.Y.U.U.Y.Y.Y.Y.Y.Y.Y.Y.Y.Y.Y.Y.Y.Y.T.R.R.R.T.T.T.T.R.R.R.R.T.T.R.R.R.R.R.R.R.R.R.R.R.R.R.R.R.R.R.R.R.R.R.R.Q.Q.Q.Q.Q.Q.Q.Q.Q.Q.Q.Q.Q.E.E.E.Q.Q.Q.Q.Q.!.!.!.Q.Q.!.!.!.!.!.!.!.!.Q.!.Q.!.!.!.!.!.!.!.!.!.!.!.!.!.!.!.2X2X2X2X^.^.^.^.^.^.^.^.^.^.^.^.^.^.^.2X^.^.^.^.^.^.2X2X/.!.!.^.2X2X2X2X1X1X2X2X2X2X2X2X!.!.2X2X/.Q.8X3X/.~.3X2X1X4X4X4X9X1X4X1X4XqX1XbX0X4X3X3X5X3X3X5X3X3X5X5X5X5X8X8X5X5X5X8X8X8X8X8X8X5X8X8X7X7X7X7X8X8X7X7X7X7X7X7X7X7X7X7X7X7X7X0X7X7X7X0X0X0X0X0X0X0X0X0X0X0XdXdXdXdX0X0X0XaXxXcXcXkXkXzXzXkXkXcXcXcXcXcXcXcXcXcXcXcXcXcXcXcXcXcXcXcXvXvXvXvXvXvXvXvXvXvXbXbXbXbXbXbXbXbXbXbXbXbXbXbXnXnXnXnXnXnXnXnXnXnXnXMXnXMXmXmXmXmXMXMXMXnXMXMXMXMXMXMXMXMXMXMXMXMXMXMXMXMXSXNXNXpXc.,.,.*.*.*.*.*.*.*.*.*.*.*.*.*.*.*.*.<.*.*.*.*.*.*.*.*.<.<.<.<.5.5.5.5.5.5.5.5.5.6.6.6.6.6.6.6.6.5.*.=.-.=.-.-.&.&.-.;XJXKXKXHXKXJXHXKXKXKXKXKXKXHXHXDXHXHXHXHXHXHXHXHXHXJXJXJXKXKXKXKXKXPXPXPXPXPXPXPXPXPXPXPXLXLXLXLXLXLXLXLXLXLXLXLXhXc.C %.",
"M M M Z V M H z.I.I.I.I.U.U.Y.Y.Y.Y.Y.Y.Y.Y.Y.Y.Y.Y.Y.Y.Y.Y.U.U.I.U.U.Y.Y.Y.Y.Y.Y.U.U.U.Y.Y.Y.Y.Y.Y.Y.Y.Y.Y.Y.T.Y.Y.Y.Y.Y.R.R.R.T.T.T.R.R.R.R.R.R.R.R.R.R.R.R.R.R.R.R.R.R.R.R.R.R.R.R.R.R.R.R.R.Q.Q.Q.Q.R.R.R.Q.Q.Q.Q.Q.Q.Q.Q.Q.Q.Q.Q.Q.!.!.!.!.!.!.!.!.!.!.!.!.!.!.Q.Q.!.!.!.!.!.!.!.!.!.!.!.!.!.!.!.^.2X2X2X2X^.^.^.^.^.^.^.^.^.^.^.^.^.^.^.^.^.^.^.^.2X2X2X2X/.^.!.!.2X2X2X2X1X1X3X2X2X2X2X2X!.!.2X2X2XQ.8X3X3X!.3X3X2X6X4X4XqX1X4X1X6XqX1XbX4X1X3X5X5X5X3X3X5X5X5X5X8X8X8X8X5X8X8X8X8X8X8X8X8X8X8X8X7X7X7X7X7X7X7X7X7X7X7X7X7X7X7X7X0X7X0X0X7X0X0X0X0X0X0X0X0X0X0XdXdXdXdXdXdXdX0X0X0XaXsXcXcXkXkXkXkXkXkXkXcXcXcXcXcXcXcXcXcXcXcXcXcXcXcXcXcXcXvXvXcXcXvXvXbXbXbXbXbXbXbXbXbXbXbXbXbXbXnXnXnXnXnXnXmXmXmXmXnXnXmXnXMXMXMXMXMXnXmXnXMXMXMXMXMXMXMXMXMXMXMXMXMXMXMXMXSXSXSXSXSXSXSXrX4.,.,.*.*.*.*.*.*.*.*.*.*.*.*.*.*.<.<.<.*.*.*.*.*.*.*.<.<.<.*.<.5.5.5.5.5.5.5.5.5.6.6.6.6.6.r.6.<.=.=.*.-.-.-.-.&.-.6.,XLXJXKXPXKXJXJXHXKXKXKXKXKXJXHXDXHXHXHXHXHXHXJXJXJXJXJXJXKXKXKXKXPXPXPXPXPXPXPXPXPXPXLXLXLXLXLXLXLXLXLXPXLXLXLXLXLXAXc.W ",
"S S S S K K J ' G.U.U.I.U.U.Y.W.Y.Y.Y.Y.Y.Y.Y.Y.Y.Y.Y.Y.Y.Y.Y.Y.Y.Y.Y.Y.Y.Y.Y.Y.Y.U.U.Y.Y.Y.Y.Y.Y.Y.Y.Y.Y.Y.Y.Y.Y.Y.Y.Y.R.R.R.R.T.R.R.R.R.R.R.R.R.R.R.R.R.R.R.R.Q.R.R.R.R.R.R.R.R.R.R.R.Q.Q.Q.Q.Q.Q.Q.Q.Q.Q.Q.Q.Q.Q.Q.Q.Q.Q.Q.Q.Q.Q.Q.Q.!.!.!.!.!.!.!.!.!.!.^.^.!.Q.Q.!.!.!.!.^.!.!.!.!.!.!.!.!.!.^.^.^.^.2X2X2X^.^.^.^.^.^.^.^.^.^.^.^.^.^.2X2X^.^.^.^.2X2X2X2X/.2X!.!.2X2X2X1X1X1X1X1X3X3X2X2X2X!.2X2X3XQ.8X3X3X~.8X3X2X6X4X4XqX1X4X1X9XqX4XvX4X1X3X5X5X5X3X3X5X5X5X5X8X8X8X8X5X8X8X8X8X8X8X8X8X8X7X7X7X7X7X7X7X7X7X7X7X7X7X7X7X7X7X7X7X7X0X0X0X0X0X0X0X0X0XdX0X0X0X0X0X0X0X0XdXaXsXaXaXaXsXxXkXkXkXkXkXcXcXkXcXcXcXcXcXvXvXvXcXcXcXcXcXcXcXcXcXvXcXbXbXbXvXvXbXbXbXbXbXbXbXbXbXbXbXbXbXbXnXnXnXnXnXnXnXmXnXnXmXmXmXMXSXFXFXFXNXMXMXMXMXMXMXmXMXMXMXMXMXMXMXSXMXMXMXMXSXSXSXSXSXSXSX*X,.,.*.*.*.*.*.*.*.*.*.*.*.*.*.*.*.*.*.*.*.*.*.*.*.<.<.<.<.*.*.<.5.5.5.5.5.5.5.5.6.6.6.6.r.{.{.6.*.=.=.-.&.&.-.-.-.-.;XIXPXKXKXPXKXKXKXHXJXKXKXKXKXJXHXHXHXHXHXHXHXHXKXJXKXKXKXKXKXKXKXKXPXPXPXPXLXLXPXLXLXLXLXLXLXLXLXLXLXLXLXLXLXLXLXLXPXLXhXv.",
"h J _ ) e.{.{.].+XG.T.U.U.U.U.Y.Y.Y.Y.Y.Y.Y.Y.Y.Y.Y.Y.Y.Y.Y.Y.Y.Y.Y.Y.Y.Y.Y.Y.Y.Y.U.Y.Y.Y.Y.Y.Y.Y.Y.Y.Y.Y.Y.Y.Y.Y.Y.Y.Y.R.R.R.R.R.R.R.R.R.R.R.R.R.R.R.R.R.R.R.R.Q.Q.R.R.R.R.R.R.R.R.R.R.Q.Q.Q.Q.~.Q.Q.Q.Q.Q.Q.Q.Q.Q.Q.Q.Q.!.Q.Q.Q.Q.Q.!.!.!.!.!.!.!.!.!.^.^.^.^.!.!.!.!.!.^.^.^.!.!.!.!.!.^.^.^.^.^.^.^.2X2X2X2X^.^.^.^.^.^.^.^.^.^.^.^.2X2X2X2X^.^.2X2X2X2X2X2X/.2X2X!.2X1X3X1X1X1X1X3X3X3X2X2X3X!.2X3X3XQ.8X/.3X~.4X3X2X6X4X4XqX1X4X4X9X9X0XcX1X3X3X5X5X5X3X3X5X5X5X5X8X8X8X8X5X5X8X8X8X8X8X8X8X7X8X7X7X7X7X7X7X7X7X7X7X7X7X7X7X7X7X7X0X0X0X0X0X0X0X0X0XdXdXdX0X0X0X0XsXsXsXsXaXsXsXaXaXaXsXxXqXkXkXcXcXcXcXcXcXcXcXcXcXvXvXvXcXcXcXcXcXcXcXvXcXcXcXbXbXbXbXbXbXbXbXbXbXbXbXbXbXbXbXbXbXnXnXnXnXnXnXnXnXnXnXMXMXMXMXSXFXFXFXFXFXSXMXMXMXMXMXMXMXMXMXMXMXMXSXSXMXMXSXSXSXSXFXFXSXSXSX-X,.,.*.*.*.*.*.*.*.*.*.*.*.*.*.<.*.*.*.<.*.*.*.<.<.<.<.<.<.*.*.<.<.5.5.5.5.5.6.6.6.6.6.6.r.r.6.*.=.-.-.8.&.&.&.&.-.1.<XPXPXKXKXHXDXJXKXHXKXKXKXKXJXHXHXDXHXHXHXHXHXKXKXKXKXKXKXKXKXKXKXKXKXKXPXPXPXPXPXPXLXLXLXLXLXLXLXLXLXLXLXLXLXLXLXLXLXLXLXIX",
"w.{.r.t.t.t.r.r.-X+XE.W.U.U.U.Y.Y.Y.Y.Y.Y.Y.Y.Y.Y.Y.Y.Y.Y.Y.Y.Y.Y.Y.Y.Y.Y.Y.Y.Y.U.Y.Y.Y.Y.Y.Y.Y.Y.Y.Y.Y.Y.Y.Y.Y.Y.Y.R.R.R.R.R.R.R.R.R.R.R.R.R.R.R.R.R.R.R.R.R.Q.Q.Q.Q.Q.Q.Q.Q.Q.R.R.R.R.Q.Q.Q.Q.!.!.!.!.!.!.Q.^.Q.Q.Q.Q.Q.!.!.!.Q.^.Q.!.!.^.^.^.!.!.^.^.^.^.^.^.!.!.^.^.!.^.^.^.!.!.!.^.^.^.^.^.^.^.^.^.2X2X2X2X^.^.^.^.^.^.^.^.^.^.^.^.2X2X3X3X^.2X2X2X2X2X2X2X/.2X!.~.2X2X1X1X1X1X2X3X3X3X3X3X3X!.2X3X3XQ.8X3X3X!.8X3X1X6X4X4XqX6X4X4XqX4XxXqX1X3X5X5X5X5X3X3X5X5X5X5X5X8X8X8X5X5X5X8X8X8X8X8X8X8X7X7X7X7X7X0X7X7X7X7X7X7X0X0X7X7X7X0X0X0X0X0X0X0X0X0X0XdXdXaX0X0XsXsXsXsXsXsXsXsXaXaXaXsXxXxXcXcXcXcXcXcXcXcXcXcXcXcXcXvXvXvXcXcXcXcXcXcXvXvXcXcXbXbXbXbXbXbXbXbXbXbXbXbXbXbXbXbXbXbXnXnXnXnXmXnXnXmXnXMXMXMXSXSXSXFXFXFXFXFXFXSXMXMXMXMXMXMXMXMXMXMXMXSXSXSXMXSXSXSXSXFXFXFXSXSXSX$X,.<.*.*.*.<.*.*.*.*.*.*.*.*.*.*.*.*.<.<.<.<.<.<.<.<.<.<.<.<.<.<.<.5.5.5.5.5.6.6.6.6.6.6.5.4.:.=.=.-.&.&.&.&.&.-.1.>XIXJXKXJXHXHXDXDXDXHXJXJXJXJXHXHXHXHXHXHXHXHXHXKXKXKXKXKXKXKXKXPXPXPXKXKXPXPXPXPXPXPXLXPXPXLXLXLXLXLXLXLXLXLXLXLXLXLXLXPXPXLX",
"t.t.t.t.t.t.t.r.[.OXE.Y.U.U.U.Y.Y.Y.Y.Y.Y.Y.Y.Y.Y.Y.Y.Y.Y.Y.Y.Y.Y.Y.Y.Y.Y.Y.Y.Y.U.Y.Y.Y.Y.Y.Y.Y.Y.Y.Y.Y.Y.Y.Y.Y.Y.R.R.R.R.R.R.R.R.R.R.R.R.R.R.R.R.R.R.R.R.R.R.R.Q.Q.Q.Q.Q.Q.Q.Q.R.R.R.R.Q.Q.Q.Q.!.!.!.!.!.!.Q.^.Q.Q.Q.Q.Q.!.!.^.^.^.Q.!.^.^.^.^.!.^.^.^.^.^.^.^.!.!.!.!.^.^.^.^.!.!.!.^.^.^.^.^.^.^.^.2X2X2X2X2X^.^.^.^.^.^.^.^.^.^.^.^.2X3X3X3X^.2X2X2X2X2X2X2X/.2X2X!.!.2X1X1X1X1X2X3X3X3X3X3X3X!.!.3X8XQ.8X/.3X~.8X4X1X6X4X4XqX9X4X4X0X1XvX0X4X4X5X3X3X3X3X5X5X8X5X5X5X8X8X8X5X5X8X8X8X8X8X8X8X7X7X7X7X7X7X0X7X7X0X0X0X0X0X0X7X7X7X0X0X0X0X0X0X0X0X0XdXdXaXsX0X0X0X0X0XsXsXsXsXsXsXsXsXsXxXcXcXcXcXcXcXcXbXcXcXcXcXcXcXvXvXvXcXcXcXcXcXvXvXbXcXcXbXbXbXbXbXbXbXbXbXbXbXbXbXbXnXbXbXnXnXmXmXmXmXnXnXmXnXMXMXMXSXSXSXFXFXSXSXSXSXSXMXMXMXMXSXMXMXMXMXMXMXSXSXSXSXSXSXSXSXFXFXFXSXSXSX$X,.<.*.*.*.*.*.*.<.<.*.*.*.*.*.*.*.*.<.<.<.<.<.<.<.<.<.<.<.<.<.<.<.5.5.5.5.5.6.6.6.6.6.6.<.*.:.*.-.-.&.&.-.8.&.7.1.,XIXJXJXJXHXHXKXJXDXJXHXHXHXHXHXHXJXJXHXHXHXHXKXKXKXKXKXKXKXKXKXKXPXPXKXKXKXPXPXKXKXKXPXLXPXLXLXLXLXLXLXLXLXLXLXLXLXLXLXLXLXLX",
"t.t.t.t.t.t.t.i.t.[.@XT.Y.Y.Y.Y.Y.Y.Y.Y.Y.Y.Y.Y.Y.Y.Y.Y.Y.Y.Y.Y.Y.Y.Y.Y.Y.Y.Y.Y.Y.Y.Y.Y.Y.R.R.W.R.Y.Y.Y.R.R.R.R.T.T.T.T.R.R.R.R.R.R.R.R.R.Q.Q.Q.Q.Q.Q.Q.R.R.R.R.Q.Q.Q.R.R.R.R.R.R.R.R.Q.Q.Q.Q.Q.Q.Q.Q.Q.Q.!.!.!.Q.!.Q.Q.!.!.!.!.!.!.!.!.!.^.!.!.!.!.!.!.!.!.!.!.^.^.^.^.^.^.^.^.!.^.^.^.^.^.^.^.^.^.^.^.^.^.^.2X!.^.^.^.^.^.^.!.2X2X2X2X2X2X2X2X!.!.!.2X2X2X2X2X!.2X2X!.!./.3X/.2X2X1X1X3X3X3X2X8X~.2X3X/././.3X3X~.7X1X1X4X9XwX9X6X1X0X0X1XBX6X4X5X5X5X5X5X5X8X8X8X5X8X7X7X7X7X8X8X8X6X6X6X6X6X7X7X7X7X7X7X7X7X7X7X7X0XdXdXdX0X0X0X0X0X0X0XfX0X0X0X0X0X0X0XqXaXaXaXaXaXsXsXsXsXqXqXaXaXxXxXxXxXxXxXcXcXcXcXcXcXcXcXcXcXcXcXcXvXcXcXcXcXcXbXbXcXcXcXcXbXbXbXbXbXbXbXbXbXnXbXnXnXnXnXnXmXmXnXnXMXnXnXnXMXMXMXSXSXSXSXSXFXSXSXSXSXSXSXSXMXMXMXNXFXSXSXSXSXSXSXSXSXSXSXFXFXFXFXFXFXNXSXDXc.,.,.,.,.*.*.*.*.*.*.*.<.*.<.*.*.*.<.<.<.<.<.<.*.<.<.5.5.5.5.5.<.5.5.5.5.5.5.5.6.6.6.5.*.:.:.*.-.-.&.&.&.&.&.-.-.v.JXDXJXJXJXKXKXJXHXHXHXHXHXHXHXJXJXJXJXHXHXHXKXKXKXKXKXKXKXKXKXKXKXPXPXKXKXKXKXKXKXKXKXPXLXLXLXLXLXLXLXLXLXLXLXLXLXLXLXLXLXLXLX",
"e.t.t.t.t.t.t.t.t.{.+XE.T.Y.Y.Y.Y.Y.Y.Y.Y.Y.Y.Y.Y.Y.Y.Y.Y.Y.Y.Y.Y.Y.Y.Y.Y.Y.Y.Y.Y.Y.Y.Y.R.R.R.R.R.R.Y.R.R.R.R.R.R.R.R.R.R.R.R.R.R.R.R.R.Q.Q.Q.Q.Q.Q.Q.Q.R.R.R.R.Q.Q.Q.Q.Q.R.R.R.R.R.Q.Q.Q.Q.Q.Q.Q.Q.Q.Q.Q.Q.!.!.!.!.Q.Q.Q.!.!.!.!.!.!.!.^.!.!.!.!.!.^.^.!.!.!.!.^.^.^.^.^.^.^.^.^.^.^.^.2X^.^.^.^.^.^.^.^.^.^.2X^.^.^.^.^.^.^.^.2X2X2X2X2X2X2X2X!.!.2X2X2X2X2X2X2X2X3X2X!.!././.2X2X1X1X3X3X3X2X3X!.2X/.3X/.!.8X3X~.7X1X1X4X9XwX9XgX4XqX9X1XBX6X4X5X5X5X5X5X5X8X8X8X8X8X7X7X7X7X8X8X8X8X6X6X6X6X7X7X7X7X7X7X7X7X7X7X7X0X0X0X0X0X0X0X0X0X0X0XdXdX0X0X0X0X0X0XaXaXaXaXaXaXsXsXsXsXqXqXaXaXxXxXcXcXxXcXcXcXcXcXcXcXcXcXcXcXcXcXvXvXcXcXcXcXcXbXcXcXcXcXbXbXbXbXbXbXbXbXbXbXnXbXnXnXnXnXnXmXnXnXMXMXnXnXmXMXMXMXSXSXSXSXSXSXSXSXSXSXSXSXSXMXMXMXMXNXSXSXSXSXSXSXSXSXSXSXSXSXFXFXFXFXFXFXDXc.,.,.<.,.*.*.*.<.*.*.*.*.<.<.*.<.*.<.<.<.<.<.<.<.<.<.5.5.5.5.5.5.5.5.5.5.5.6.6.6.6.5.*.=.=.=.=.-.-.-.-.-.&.-.-.1.,XJXJXJXJXKXJXJXJXHXHXHXHXHXHXJXJXJXJXJXHXHXKXKXKXKXKXKXKXKXKXKXKXKXPXPXKXKXKXPXKXKXPXPXPXLXLXLXLXLXLXLXLXLXLXLXLXLXLXLXLXLXLXLX",
"e.t.t.t.t.t.t.t.t.r.OX+XE.U.Y.Y.Y.Y.Y.Y.Y.Y.Y.Y.Y.Y.Y.Y.Y.Y.Y.Y.Y.Y.Y.Y.Y.Y.Y.Y.Y.Y.Y.Y.R.R.R.R.R.R.R.R.R.R.R.R.R.R.R.R.R.R.R.R.Q.R.R.R.Q.Q.Q.Q.Q.Q.Q.Q.R.R.R.R.Q.Q.Q.Q.Q.Q.Q.Q.Q.Q.Q.Q.Q.Q.Q.Q.Q.Q.!.!.Q.Q.!.!.!.!.!.!.!.!.!.!.!.!.!.!.^.!.!.!.^.^.^.^.^.^.^.^.^.^.^.^.^.^.^.^.!.!.2X^.2X^.^.^.^.^.^.^.^.^.2X2X^.^.^.^.^.^.^.^.2X2X2X2X2X2X2X2X2X2X2X2X2X2X2X2X2X2X2X2X!.!.!.3X2X2X1X1X3X3X3X2X3X2X^.!.3X3XQ.8X8X~.7X1X1X1X9XwX9XwX4X0X6X8XvX4X4X5X5X5X5X5X8X8X8X8X8X8X8X8X7X7X8X8X8X6X6X6X6X6X7X7X7X7X7X7X7X7X7X7X0X0X0X0X0X0X0X0X0X0X0X0X0X0X0X0X0X0X0XqXqXqXaXaXaXsXsXsXsXsXsXaXxXsXxXxXxXcXcXcXcXcXcXcXcXcXcXcXcXcXcXcXvXvXcXcXbXbXbXbXcXcXbXbXbXbXbXbXbXbXbXbXbXbXbXnXnXnXnXnXnXnXnXnXMXMXMXnXnXmXMXMXMXMXSXSXSXSXSXSXSXFXSXSXSXSXSXNXNXNXSXSXSXSXSXSXSXSXSXSXSXSXSXSXSXSXFXSXZXc.,.,.<.*.*.*.*.<.*.*.*.*.<.*.<.<.<.<.<.<.<.<.<.<.<.5.5.5.<.5.5.5.5.5.5.5.5.6.6.5.<.*.=.=.*.-.-.-.-.-.&.&.&.&.-.;XIXJXPXHXJXJXJXJXKXHXHXHXHXJXJXJXJXJXJXJXKXKXKXKXKXKXKXKXKXKXKXKXKXKXKXKXPXPXPXPXPXPXPXPXPXPXLXLXLXLXLXLXLXLXLXLXLXLXLXLXLXLXLXLX",
"e.t.t.t.t.t.t.t.t.t.].#X1XT.Y.Y.Y.Y.Y.Y.Y.Y.Y.Y.Y.Y.Y.Y.Y.Y.Y.Y.Y.Y.Y.Y.Y.Y.Y.Y.Y.Y.Y.Y.Y.R.R.W.R.R.R.R.R.R.R.R.R.R.R.R.R.R.R.R.Q.R.R.Q.Q.Q.Q.Q.Q.Q.Q.Q.Q.Q.Q.Q.Q.R.R.R.Q.Q.Q.Q.Q.Q.Q.Q.Q.Q.!.Q.!.!.!.!.!.!.!.!.!.!.!.!.!.!.!.!.!.!.!.!.^.!.!.!.^.^.^.^.^.^.^.^.^.^.^.^.^.^.^.^.!.!.2X^.2X2X^.^.^.^.^.^.2X2X2X2X^.^.^.2X2X^.^.^.2X2X2X2X2X2X2X3X2X2X2X2X2X2X2X2X3X2X2X3X2X~.!.3X2X2X1X3X3X5X3X3X2X3X!.Q.3X3XQ.8X8X~.7X1X1X1XwXwX9XgX9X9X4XqXxX4X4X5X5X5X5X5X8X8X8X8X8X8X7X7X7X7X6X6X6X6X6X6X6X7X7X7X7X7X7X7X7X7X7X7X0X0X0X0X0X0X0X0X0X0X0X0X0X0X0X0X0X0XqXqXaXaXaXaXsXsXsXsXsXsXxXxXxXsXxXcXcXcXcXcXcXcXcXcXcXcXcXcXcXcXcXcXcXcXcXcXbXbXbXbXbXbXbXbXbXbXbXbXbXbXbXbXbXbXnXnXmXmXnXmXnXnXmXMXMXMXMXMXmXmXmXMXMXSXSXSXSXSXSXSXSXSXSXSXSXSXSXSXSXSXSXSXSXSXSXSXFXFXSXSXSXSXSXSXSXSXFXSXCXc.,.,.<.*.*.*.*.<.*.*.*.*.<.<.<.<.<.<.<.<.<.<.<.<.5.5.5.<.5.5.5.5.5.5.5.6.6.6.5.:.:.:.:.:.-.-.-.-.-.-.&.&.-.7.-.<XJXPXPXHXJXJXJXJXKXJXHXHXJXJXJXJXJXJXJXKXKXKXKXKXKXKXKXKXKXKXKXKXKXKXKXKXPXPXPXPXPXPXPXPXPXPXLXLXLXLXLXLXLXLXLXLXLXLXLXLXLXLXLXLX",
"e.t.t.t.t.t.t.t.t.t.{.OX@XT.Y.Y.Y.Y.Y.Y.Y.Y.Y.Y.Y.Y.Y.Y.Y.Y.Y.Y.Y.Y.Y.Y.Y.Y.Y.Y.Y.T.T.R.R.R.R.R.R.R.R.R.R.R.R.R.R.R.R.R.R.R.R.R.Q.Q.Q.Q.Q.Q.Q.Q.Q.Q.~.Q.Q.Q.Q.Q.R.R.Q.Q.Q.Q.Q.Q.Q.Q.Q.Q.!.!.!.!.!.!.!.!.!.!.!.!.!.!.!.!.!.!.!.!.!.!.!.!.!.!.!.!.^.^.^.^.^.^.^.^.^.^.^.^.^.^.^.^.!.!.!.2X2X^.^.^.^.^.^.^.2X2X2X2X^.2X2X2X2X2X2X^.^.2X2X2X3X3X3X3X2X2X2X2X2X2X2X2X2X!.2X3X2X!.!.3X2X1X1X3X3X4X3X3X2X3X2XQ.3X8XQ./.8XQ.7X1X1X+XwX%XwXwXqX9X4XsXaX4X4X5X5X5X5X8X8X8X8X8X7X7X7X7X7X7X6X6X6X7X7X7X7X7X7X7X7X7X7X7X0X0X0X0X0X0X0X0X0X0X0X0X0X0X0X0X0X0X0X0X0XaXaXaXaXaXsXsXsXsXsXsXsXsXsXsXsXcXxXcXcXcXcXcXcXcXcXcXcXcXcXcXcXcXcXcXcXcXbXbXbXbXbXbXbXbXbXbXbXbXbXbXbXbXbXbXbXbXnXmXnXnXmXmXnXMXMXMXMXMXMXMXMXMXMXGXGXSXSXSXFXFXFXFXSXSXSXSXSXSXSXSXSXSXSXSXSXSXSXSXSXSXSXSXSXSXSXSXSXSXFXDXhX,.,.,.<.*.*.*.*.<.<.<.<.*.*.*.<.<.<.<.<.<.<.<.<.5.5.5.5.<.5.5.5.5.5.6.6.6.6.5.*.=.:.=.:.*.-.-.&.&.&.&.&.&.-.-.b.IXJXPXPXHXJXJXKXKXKXHXHXHXJXJXKXKXKXKXKXKXKXKXKXKXPXPXKXKXKXKXKXKXPXPXPXPXPXPXPXPXPXPXPXPXPXPXLXPXLXLXLXLXLXLXLXLXLXLXLXLXLXPXPXPX",
"e.e.t.t.t.t.t.t.t.t.r.].@XE.R.Y.R.R.Y.Y.Y.Y.Y.Y.Y.Y.Y.Y.Y.Y.Y.Y.Y.Y.Y.Y.Y.Y.Y.Y.Y.T.T.R.R.R.R.R.R.R.R.R.R.R.R.R.R.R.R.R.Q.Q.R.R.Q.Q.Q.Q.Q.Q.Q.Q.Q.Q.Q.~.Q.Q.Q.Q.E.E.E.E.Q.Q.Q.!.Q.Q.!.!.!.!.!.!.!.!.!.!.!.!.!.!.!.!.!.!.!.^.^.^.^.^.^.^.!.!.!.!.^.^.^.^.^.^.^.^.^.^.^.^.^.^.^.^.!.!.!.2X2X^.^.^.^.^.2X2X2X2X2X2X2X2X2X2X2X2X2X2X2X2X2X2X3X3X3X3X2X2X2X2X3X3X2X2X2X2X2X3X3X/.!.!.2X1X1X3X4X4X4X3X2X3X3X~.3X8XQ.Q.8XQ.8X1X1X+X%X%XwXwXqX9X4XbXqX4X4X5X5X5X7X7X8X6X7X7X7X7X7X7X7X7X7X7X7X7X7X7X7X7X7X7X7X7X0X0X0X0X0X0X0X0X0X0X0X0X0X0X0X0X0X0X0X0X0X0XqXqXaXaXaXsXsXsXsXsXsXsXsXsXsXsXxXcXcXcXcXcXcXcXcXcXcXcXcXcXcXcXcXcXkXcXbXbXbXbXbXbXbXbXbXbXbXbXbXbXbXbXbXbXmXbXbXnXmXmXmXmXmXmXMXMXMXMXMXMXMXMXMXMXGXGXSXSXFXFXHXHXKXKXHXHXHXSXSXSXSXSXSXSXFXSXSXSXFXFXFXFXSXSXSXSXSXSXSXSXDXDXuX,.,.,.<.*.*.*.<.<.<.<.<.<.<.<.<.<.<.<.<.<.<.<.<.5.5.5.5.5.5.5.5.5.6.6.6.6.5.:.=.=.:.=.#.#.-.-.&.&.&.&.&.&.-.-.<XJXKXKXPXHXJXJXKXKXJXJXJXJXJXJXKXKXKXKXKXJXKXKXKXKXPXPXPXPXKXKXKXPXPXPXPXPXPXPXPXPXPXPXPXPXPXPXLXPXPXPXLXLXLXLXLXPXPXPXPXPXPXPXPXKX",
"e.e.t.t.t.t.t.t.t.t.t.[.@XE.T.Y.R.R.R.R.Y.R.R.R.Y.Y.Y.Y.Y.Y.Y.Y.Y.Y.Y.R.R.R.R.R.Y.R.R.R.R.R.R.R.R.R.R.R.R.Q.R.R.R.R.R.R.Q.R.Q.Q.Q.Q.Q.Q.Q.Q.Q.Q.Q.Q.~.~.Q.Q.Q.Q.E.Q.~.Q.Q.Q.!.!.!.!.!.!.!.!.!.!.!.!.!.!.!.!.^.^.!.!.!.^.^.^.^.^.^.^.^.^.^.^.!.!.^.^.^.^.^.^.^.^.^.^.^.^.^.^.^.^.!.!.2X2X2X2X^.^.^.2X2X2X2X2X2X2X2X2X2X2X2X2X2X2X2X2X2X2X3X3X3X3X2X2X2X2X3X3X3X2X2X2X2X2X3X3X!.T.2X2X3X3X4X5X4X3X3X3X3X!./.8XQ.U.8XQ.4X1X1X@X+X%XwXwXqX9XgXBX0X4X4X4X5X5X7X7X8X8X7X7X7X7X7X7X7X7X7X7X7X7X7X7X7X7X7X7X0X0X0X0X0X0X0X0X0X0X0X0X0X0X0X0X0X0X0X0X0X0X0X0XqXaXaXaXaXsXsXsXsXsXsXsXsXsXsXsXsXcXcXcXcXcXcXcXcXcXcXcXvXvXbXbXcXcXkXcXbXbXbXbXbXbXbXbXbXbXbXbXbXbXbXbXbXnXnXmXnXbXmXmXmXmXmXmXmXmXmXMXMXMXMXMXMXMXGXSXSXSXDXHXHXKXKXPXPXPXKXHXHXFXSXSXSXSXSXSXFXFXFXFXSXSXSXSXSXSXFXFXFXFXHXJXhX,.,.*.<.*.*.*.*.<.<.<.<.<.*.*.<.<.<.<.<.<.<.<.<.5.5.6.6.5.5.5.5.5.6.6.6.6.=.=.b #.#.#.#.-.-.-.&.&.&.&.&.&.-.6.IXJXKXKXKXJXKXKXKXKXJXJXJXKXJXKXKXKXKXKXKXKXKXKXKXKXKXPXPXPXKXKXKXPXPXPXPXPXPXPXPXPXPXPXPXPXPXPXPXPXPXPXLXLXLXLXPXPXPXPXPXPXKXKXKXKX",
"e.e.t.t.t.t.t.t.t.t.t.[.XXE.T.Y.R.R.R.R.R.R.Y.Y.Y.Y.Y.Y.Y.Y.Y.Y.Y.Y.R.R.R.R.Y.R.Y.R.R.R.R.R.R.R.R.R.R.R.Q.Q.R.R.Y.Q.Q.Q.Q.Q.Q.Q.Q.Q.Q.Q.Q.Q.Q.Q.Q.Q.~.~.Q.Q.Q.Q.E.~.~.Q.Q.Q.!.!.!.!.!.!.!.!.!.!.!.!.!.!.!.^.^.^.!.!.!.^.^.^.^.2X^.^.^.^.^.^.!.^.^.^.^.^.^.^.^.^.^.^.^.^.^.^.^.^.!.!.2X2X2X2X^.^.^.2X2X2X2X2X2X2X2X2X2X3X3X2X2X2X2X2X2X3X3X3X3X3X2X2X2X2X3X3X3X2X3X3X2X2X3X3X~.G.2X2X3X3X4X5X5X3X3X2X8X/.!.8XQ.G.8XT.3X1X+XG.+X%XwXwXiXgXgXBX9X6X4X4X5X8X7X7X8X8X7X7X7X7X7X7X7X7X7X7X7X7X7X7X7X7X0X0X0X0X0X0X0X0X0X0X0X0X0X0X0X0X0X0X0X0X0X0X0XqX0X0XqXaXaXsXsXsXsXsXsXsXsXsXsXxXsXsXsXcXxXcXcXcXcXcXcXcXcXvXvXvXbXbXcXcXkXcXbXcXbXbXbXbXbXbXbXbXbXbXbXmXbXnXnXnXmXmXnXbXmXmXmXMXmXmXmXmXMXMXMXMXMXMXMXGXSXSXSXSXDXDXHXHXKXKXPXPXPXKXHXDXFXSXSXSXFXFXFXFXFXFXFXSXHXHXDXDXHXHXHXHXHXKXhX,.5.*.<.*.*.*.*.<.<.<.<.<.*.*.<.<.<.<.<.<.<.<.<.5.5.6.6.6.5.5.5.5.6.5.5.*.:.:.:.:.:.#.-.-.&.&.&.&.&.&.&.&.-.>XJXPXKXKXHXPXKXKXKXKXJXJXKXKXKXKXKXKXKXKXKXKXJXKXKXKXKXPXPXPXKXKXKXKXPXPXPXKXPXPXPXPXPXPXPXPXPXPXPXPXPXPXLXLXLXLXPXPXPXPXPXPXPXPXPXPX",
"x z e.e.e.t.t.t.t.t.t.t.[.#XT.I.Y.Y.Y.Y.Y.Y.Y.Y.Y.Y.Y.Y.Y.Y.Y.Y.Y.Y.Y.Y.R.R.R.R.R.R.R.R.R.R.R.R.R.R.R.R.Q.Q.R.R.R.Q.Q.Q.Q.Q.Q.Q.Q.Q.Q.Q.Q.Q.Q.Q.Q.Q.Q.Q.Q.Q.Q.Q.Q.Q.!.!.!.!.!.!.!.!.!.!.!.!.!.!.!.!.!.!.^.^.^.^.!.!.^.^.^.^.^.2X!.!.!.!.!.!.2X2X!.!.!.2X!.!.!.2X2X2X2X2X2X2X2X2X^.^.^.^.^.^.^.^.2X2X2X2X2X2X2X2X2X2X2X2X2X2X2X2X/././.3X3X3X3X3X2X2X2X2X3X3X3X3X2X3X3X3X8X5XQ.D.~.2X~.5X0X1X4X4X5X2X8X5XG.8X2XA./.G.6X1XwXS.+X%X%XwXwXgX9XbX7X7X8X8X8X8X8X7X7X7X7X7X7X7X7X7X7X7X7X7X7X7X7X0X0X0X0X0X0X0X0X0X0X0X0X0X0X0XqXqXqXqX0X0X0XqXaXaXaXaXaXaXaXaXaXaXsXsXsXsXsXsXsXxXxXxXxXxXcXcXcXcXcXcXcXcXcXcXcXvXvXvXcXcXcXbXbXbXbXbXbXbXbXbXbXbXbXbXbXbXmXbXmXmXmXmXmXbXmXmXmXmXmXmXMXMXMXMXMXMXMXMXSXSXSXSXSXSXSXSXDXDXHXHXHXKXKXKXKXKXKXHXHXHXHXHXFXHXHXHXFXFXFXFXHXHXHXHXHXHXHXHXHXKXZX3.,.<.*.,.*.*.*.*.*.*.*.*.*.*.<.<.<.<.<.<.<.<.<.5.<.5.5.6.5.6.6.6.4.:.:.=.:.:.:.=.-.&.&.&.&.&.&.&.&.8.7.7.6.IXDXJXPXJXKXHXJXJXJXJXKXKXKXKXKXKXKXKXKXJXKXKXJXJXKXPXPXPXPXPXPXPXPXKXKXJXKXKXPXPXPXPXPXPXPXPXPXPXPXPXPXPXPXPXPXPXPXKXJXKXPXPXPXPXPXPX",
"! 7 ) e.t.t.t.t.t.t.t.t.[.XXE.Y.Y.R.Y.Y.Y.Y.Y.Y.Y.Y.Y.Y.Y.Y.Y.Y.Y.Y.Y.R.R.R.R.R.R.R.R.R.R.R.R.R.R.R.R.R.Q.Q.R.Q.Q.Q.Q.Q.Q.Q.Q.Q.Q.Q.Q.Q.Q.Q.Q.Q.Q.Q.Q.Q.Q.Q.!.!.Q.!.!.!.Q.!.!.!.!.!.!.!.!.!.!.!.!.!.!.!.^.^.^.^.!.!.^.^.^.^.^.2X!.!.!.!.!.2X2X2X!.!.2X2X!.!.!.2X2X2X2X2X2X2X2X2X^.^.^.^.^.^.^.^.2X2X2X2X2X2X2X2X2X2X2X2X2X2X2X2X/./.3X3X3X3X3X3X2X2X2X2X3X3X3X3X2X3X3X3X5X8X^.T.G.3XE.5X5X1X4X3X5X3X5X3XT.2X2XA.~.G.3X1XwXS.+X%X%XwXwXgX0XBX6X7X8X8X8X8X7X7X7X7X7X7X7X7X7X7X7X7X7X7X7X7X0X0X0X0X0X0X0X0X0X0X0X0X0X0X0X0XqXqXqXqX0XsX0XaXaXaXaXaXaXaXaXaXsXaXaXsXsXsXsXsXsXxXxXcXxXxXcXcXcXcXcXcXcXcXcXcXcXvXvXvXcXkXcXbXbXbXbXbXbXbXbXbXbXbXbXbXbXbXmXmXmXmXmXmXmXmXmXmXMXMXmXmXMXMXMXMXMXSXSXSXmXGXSXSXSXSXSXSXDXDXHXHXHXJXKXKXKXKXKXHXHXHXHXHXHXHXHXDXFXFXFXFXHXHXHXHXHXHXHXHXHXKXZX3.,.<.*.,.*.*.*.<.*.*.*.*.<.*.<.<.<.<.<.<.<.<.5.5.5.5.5.6.6.6.6.4.:.T T =.T #.#.#.&.&.&.&.&.-.&.&.&.&.&.7.>XIXJXJXPXJXKXHXKXKXKXKXKXKXKXKXKXKXKXKXJXKXKXKXKXKXKXKXPXPXPXPXPXPXPXPXKXKXKXKXPXPXPXPXPXPXPXPXPXPXPXPXPXPXPXPXPXPXKXJXJXJXKXPXPXPXPXPX",
"e._ d t.t.t.t.t.t.t.t.t.e.].@XR.Y.Y.R.R.Y.R.R.R.Y.Y.Y.Y.Y.Y.Y.Y.R.R.R.R.R.R.R.R.R.R.R.R.R.R.R.R.R.R.R.R.Q.Q.Q.Q.Q.Q.Q.Q.Q.Q.Q.Q.Q.Q.Q.Q.Q.Q.Q.Q.Q.Q.Q.Q.!.!.!.!.!.!.Q.Q.Q.!.^.!.!.!.!.!.!.!.!.^.!.^.^.^.^.^.^.^.!.!.!.^.^.^.^.2X!.!.!.!.!.2X2X2X!.2X!.!.!.!.2X2X2X2X2X2X2X2X2X2X^.^././././././.2X2X2X2X2X2X2X2X2X2X2X2X2X2X2X2X/.3X3X/.3X3X3X3X2X2X2X2X3X3X3X3X2X3X3X2X3X8X3X^.F.3XE.3X3X3X0X3X5X5X5X5X!.~.3XA.~.G.1X+X%XS.+X%X%XiXwX9XcXbX4X9X6X6X6X6X6X7X7X0X7X7X7X7X7X0X0X7X7X7X7X0X0X0X0X0X0X0X0X0X0X0X0X0X0X0X0X0X0XqXaXaXsXsXsXaXaXaXaXsXaXaXaXaXsXsXsXsXqXqXqXqXxXxXxXxXxXxXcXcXcXcXcXcXcXcXcXcXvXvXvXvXkXkXbXbXbXbXbXbXbXbXbXbXbXkXmXmXbXmXmXbXmXmXmXmXmXmXMXmXMXMXmXmXmXMXmXGXGXSXSXSXSXSXSXHXHXHXDXDXDXDXHXJXJXJXKXKXKXKXKXJXJXHXHXHXHXHXDXDXDXDXHXHXHXHXHXHXHXHXHXHXHXKXZX3.5.<.*.<.*.*.*.<.<.*.<.<.*.<.<.<.<.<.<.<.<.5.5.5.5.5.6.6.6.6.4.=.T b b T T #.#.#.&.&.-.-.-.&.&.&.&.&.-.7.IXPXJXJXKXJXPXJXKXKXKXKXKXKXKXKXKXKXKXKXJXJXKXKXKXKXKXKXKXPXPXPXPXPXPXPXPXKXKXPXPXPXPXPXPXPXPXPXPXPXPXPXPXPXPXPXKXJXJXJXJXJXJXJXKXKXKXKX",
"2.{.v e.t.t.t.t.t.t.t.t.e.[.@XE.Y.R.R.R.R.R.T.T.R.R.Y.Y.Y.Y.Y.Y.R.R.R.R.R.R.R.R.R.R.R.R.R.R.R.R.R.R.R.Q.Q.Q.Q.Q.Q.Q.Q.Q.Q.Q.Q.Q.Q.Q.Q.Q.Q.Q.Q.Q.Q.Q.Q.Q.!.!.!.!.!.!.!.Q.!.!.^.!.!.!.!.!.!.^.^.^.!.^.^.^.^.^.^.^.!.!.!.^.^.^.^.2X!.!.!.!.2X2X2X2X2X!.!.!.2X2X2X2X2X2X2X2X2X2X2X2X^.^././././././.2X2X2X2X2X2X2X2X2X2X2X2X2X2X2X2X2X3X3X3X3X3X3X3X2X2X2X3X3X3X3X3X2X3X3X2X2X5X8X5XG.E.!.1X4X4X3X3X5X8X3X3X3XT.3XA.G.G.1X+XwXS..X&X%XkXwX9XbXvX1X9X6X6X6X6X7X7X7X0X7X7X7X7X0X0X0X0X7X7X0X0X0X0X0X0X0X0X0X0X0X0X0X0X0X0X0X0XaXaXaXaX0XaXaXaXqXaXsXsXqXqXqXsXqXsXsXsXqXqXqXqXxXxXxXxXxXxXcXcXcXcXcXcXcXcXcXcXcXvXbXbXbXbXbXbXbXbXbXbXbXbXbXbXmXmXmXmXbXmXbXmXmXmXmXmXmXmXmXmXMXMXSXSXGXGXSXSXSXSXSXSXHXHXHXHXHXDXDXDXDXDXHXJXJXJXKXKXJXKXJXJXKXJXKXKXKXJXHXDXDXDXDXHXDXHXHXHXHXHXHXHXHXHXZXc.5.<.,.<.*.*.*.<.<.<.<.<.<.<.<.<.<.<.<.<.5.5.5.5.5.6.6.6.4.:.T b b T =.T =.=.-.&.&.&.-.-.&.&.&.&.&.7.-.6.JXPXJXKXJXJXPXJXKXKXKXKXKXKXKXKXKXKXKXKXKXJXPXPXKXKXKXPXKXPXPXPXPXPXPXPXKXKXKXPXPXPXPXPXPXPXPXPXPXPXPXPXPXPXPXJXKXKXJXJXKXKXKXKXKXKXKXKX",
"f ^ {._ e.t.t.t.t.t.t.t.t.w.oX1XR.R.R.E.R.R.R.R.R.R.R.R.R.Y.Y.Y.R.R.R.R.R.R.R.R.R.R.R.R.Q.Q.Q.Q.Q.Q.Q.Q.Q.Q.Q.Q.Q.Q.Q.Q.Q.Q.Q.Q.Q.Q.Q.Q.Q.Q.Q.Q.Q.Q.Q.!.!.!.!.!.Q.Q.Q.!.!.!.!.^.!.!.!.!.^.^.^.^.!.^.^.^.^.^.^.^.!.^.^.^.^.2X2X2X!.!.!.2X!.!.!.2X2X!.!.!.2X2X2X2X2X2X2X2X2X2X2X2X/./././././././.2X2X2X2X2X2X2X3X2X2X2X2X2X2X2X2X3X3X3X3X3X3X3X3X3X3X3X3X3X3X3X3X2X3X5X3X2X3X5X5X2XF.2XG.0X7X1X4X4X7X3X5X8XT.2XF.G.G.1X+XwXS.S.&X%XkXwX9XBXxX1X9X7X7X6X7X7X7X7X0X7X7X0X0X0X0X0X0X0X0X0X0X0X0X0X0X0X0X0X0X0X0X0X0XqXqXqXqXaXaXaXaXqXqXqXaXaXsXsXsXqXsXsXsXsXsXsXsXqXxXxXxXxXcXxXxXxXcXcXcXcXcXcXcXcXcXcXcXcXbXbXbXbXbXbXbXbXbXbXbXbXbXbXbXmXmXmXmXbXmXmXmXmXmXmXmXmXmXMXGXSXSXFXFXSXSXFXFXDXDXDXDXHXHXHXDXDXDXDXDXDXDXHXJXKXKXKXKXJXJXJXJXJXKXKXKXKXHXHXDXDXDXDXDXDXDXDXDXDXDXDXDXHXHXZXc.,.,.,.<.*.<.<.<.<.<.<.<.<.<.<.<.<.<.5.5.5.5.<.5.5.5.4.,.=.T b b T :.=.=.#.#.8.-.-.&.-.-.&.-.-.&.&.&.1.>XJXJXJXKXJXJXKXJXKXKXKXKXKXKXKXKXKXKXKXKXKXPXPXPXPXPXPXPXKXKXKXKXKXKXKXKXKXKXKXKXPXPXPXPXPXPXPXPXKXKXPXPXPXPXKXJXJXJXKXKXKXJXJXJXJXJXKXKX",
"5 7 _.r.e.e.t.t.t.t.t.t.t.t.[.+XE.E.E.E.R.R.R.R.R.R.R.R.R.R.Y.Y.R.R.R.R.R.R.R.R.Q.Q.Q.Q.Q.Q.Q.Q.Q.Q.Q.Q.Q.Q.Q.Q.Q.Q.Q.Q.Q.!.!.!.Q.Q.Q.Q.Q.Q.^.!.~.~.~.~.!.!.!.Q.Q.!.!.!.!.^.^.^.!.!.!.^.^.^.^.^.!.^.^.^.^.^.^.^.^.^.^.^.2X2X2X2X!.2X!.2X!.2X2X2X2X2X2X2X2X2X2X2X2X2X2X2X2X2X2X2X/./././././.2X2X2X2X2X2X2X2X3X3X2X2X2X2X2X2X2X2X3X3X3X3X3X3X3X3X3X3X3X3X3X3X3X3X2X3X5X3X3X2X3X3X8XF.~.G.7X4XE.4X6X7X3X8X5XE.~.F.A.F.1X~.wXS.S.&XwXiXwXqXBX0X6X7X7X7X7X7X7X7X7X0X0X0X0X0X0X0X0X0X0X0X0X0X0X0X0X0X0X0X0X0X0X0X0XqXqXqXqXqXaXaXaXaXqXqXaXaXsXsXsXsXsXsXsXsXsXsXsXxXVXVXVXcXVXkXVXcXcXcXcXcXcXcXcXvXkXkXcXcXbXbXbXbXbXbXbXbXbXbXbXbXmXbXbXbXmXmXmXmXmXmXmXmXmXmXmXGXGXGXSXSXFXDXHXHXHXHXHXDXDXDXDXDXHXDXDXDXDXDXDXDXDXDXDXJXJXKXKXKXJXJXJXJXJXJXJXJXJXHXDXDXDXDXDXDXDXDXDXDXDXDXDXDXHXDXDX$X,.<.<.<.<.<.<.<.<.<.<.<.<.<.<.<.<.<.5.5.5.5.5.6.6.4.:.T W T T T b b b #.#.8.&.&.&.&.-.-.&.-.-.&.&.-.6.IXJXJXJXPXJXJXKXKXKXKXKXKXKXKXKXKXJXJXKXJXJXJXKXPXPXPXPXPXKXKXKXKXJXJXKXKXKXKXKXKXPXPXPXPXPXPXPXPXKXKXKXPXPXPXJXJXJXJXKXKXKXJXJXJXJXJXJXJX",
"0 5 f [.e._ n t.t.t.t.t.t.t.[.OXE.E.E.R.R.R.R.Y.R.R.R.R.R.R.R.R.R.R.R.R.R.R.R.R.Q.Q.Q.Q.Q.Q.Q.Q.Q.Q.Q.Q.Q.Q.Q.Q.Q.Q.Q.Q.!.!.!.!.Q.Q.Q.Q.^.^.^.^.~.~.~.~.!.!.!.!.!.!.!.!.!.^.^.^.^.!.!.^.^.^.^.^.!.^.^.^.^.^.^.^.^.^.^.^.2X2X2X2X2X!.!.!.!.2X2X2X!.2X2X2X2X2X2X2X2X2X2X2X2X2X2X2X/./././.2X2X2X2X2X2X2X2X2X2X2X2X2X2X3X2X2X2X3X3X3X3X3X5X5X5X3X3X3X3X3X3X3X3X3X3X3X3X3X5X3X3X3X3X5XE.G.E.3X6X1X4X7X8X3X7X3X~.T.G.A.A.~.G.wX.XS.&XwXwXwXqXBX0X7X6X7X7X7X7X7X7X0X0X0X0X0X0X0X0X0X0X0X0X0X0X0X0X0X0XqXqX0X0X0XqXqXqXqXqXaXaXaXaXaXaXqXqXqXqXqXsXqXiXqXVXVXVXqXqXxXxXVXxXcXcXkXVXcXcXxXcXcXcXcXcXvXvXkXkXcXcXbXbXbXbXbXbXbXbXbXbXbXbXmXmXbXbXbXmXbXbXmXmXmXmXmXmXSXSXSXSXSXDXDXHXHXHXHXHXHXDXDXDXDXDXDXDXDXDXDXDXDXDXDXDXHXJXJXJXJXKXJXJXJXJXJXJXJXJXHXDXDXDXDXDXDXDXDXDXDXDXDXDXDXDXHXSXDX=X,.5.<.,.<.<.<.<.<.<.<.<.<.<.<.<.<.5.5.5.5.5.6.6.4.:.T W W T T T b b #.#.&.&.-.-.&.&.&.&.&.&.-.7.&.&.>XIXKXJXKXJXJXKXJXKXKXKXKXKXKXKXKXKXKXKXJXJXJXJXJXJXKXKXKXKXKXKXJXJXPXKXPXKXKXKXKXKXPXPXPXPXPXPXPXPXKXJXKXKXPXKXJXJXJXKXKXKXKXJXJXJXJXJXJXJX",
"M 4 3 f w.r.n e.t.t.t.t.t.t.w.[.E.E.E.R.R.R.Y.Y.R.R.R.R.R.R.R.R.R.R.R.R.R.R.R.R.Q.Q.Q.Q.Q.R.R.Q.Q.Q.Q.Q.Q.Q.Q.Q.~.~.~.~.~.~.~.!.!.Q.Q.Q.!.!.^.!.~.~.~.!.!.!.!.!.!.!.!.!.^.^.^.^.!.!.^.^.^.^.^.^.2X^.^.^.^.^.^.^.^.^.^.^.2X2X2X2X!.!.!.!.2X2X2X2X!.2X2X2X2X2X2X2X2X2X2X2X2X2X2X2X/./././.2X2X2X2X2X2X2X2X2X2X3X2X2X2X3X3X2X3X3X3X5X5X5X5X5X5X5X5X3X3X3X3X3X3X3X3X3X3X3X3X3X3X3X8X2X7XF.2X!.4X4X4X7X3X3X7X2X2XG.T.A.A.~.G.wX+XoX&XtXwXwXqXbX6X0X6X7X7X7X7X7X7X0X0X0X0X0X0X0X0X0X0X0X0X0X0X0X0X0X0XqXqX0X0XqXqXqXqXaXaXaXaXaXaXaXaXqXqXqXqXsXsXiXVXqXVXVXxXqXxXxXxXVXVXcXcXkXkXcXcXcXcXcXcXcXcXvXvXkXcXcXcXbXbXbXbXkXkXbXbXbXbXmXmXmXmXbXbXbXmXbXbXmXmXmXmXmXGXFXSXDXDXDXDXDXDXDXHXHXHXDXDXDXDXDXDXDXDXDXDXDXDXDXDXDXDXHXHXHXHXJXJXJXJXJXJXJXJXJXJXHXDXDXDXDXDXDXDXDXDXDXDXDXDXDXDXFXSXHXhX,.5.<.,.<.<.<.<.<.<.<.<.<.<.<.<.<.<.5.5.5.5.5.,.=.W W W T T b T b #.#.#.8.8.-.-.&.&.&.&.&.&.-.&.&.7.,XPXKXJXJXJXJXKXJXPXJXJXJXKXKXKXKXKXJXJXJXJXJXJXJXJXKXKXKXKXJXJXJXJXPXPXPXPXPXPXPXPXPXPXPXPXPXKXKXPXPXJXJXJXJXJXJXJXJXJXKXKXKXJXJXHXJXJXJXJX",
"9 9 8 4 S {.w.n n t.t.t.t.t.t.e.%XS.G.G.G./.Q.W.Q.Q.Q.Q.Q.Q.R.R.R.R.R.R.Q.R.R.R.Q.Q.Q.Q.Q.Q.Q.R.Q.Q.Q.Q.Q.Q.Q.Q.Q.Q.Q.Q.Q.Q.!.!.!.^.!.!.!.!.!.!.!.!.!.!.!.!.^.!.!.!.!.!.!.!.!.!.!.!.^.^.^.^.^.^.^.^.^.^.^.^.^.2X2X2X2X2X2X2X/./.!.!.2X2X2X2X2X2X2X2X2X2X2X2X2X2X2X2X2X2X2X2X2X2X2X2X2X2X2X2X2X2X2X2X3X3X3X3X3X3X3X3X3X3X3X3X3X3X3X3X3X5X5X5X5X5X3X3X3X3X3X3X3X3X3X3X3X3X3X3X3X3X3X0XG.G.1X1X4X1X6X8X3X8X7X2XG.G.A.A.G.1XwX&XM.&XkXqX9XqXxX0X6X7X7X7X7X7X0X0X0X0X0X0X0X0X0X0X0X0X0X0X0XqXqXaXaXaX0XqXqXqXaXaXaXaXaXaXaXaXaXaXaXaXsXsXsXqXsXsXxXxXxXxXxXxXxXcXcXcXVXVXVXVXkXcXcXcXcXcXcXcXcXcXcXcXcXcXbXbXbXbXbXbXbXbXbXbXmXbXbXmXbXbXbXmXmXmXmXmXmXzXmXmXGXSXDXHXDXDXSXSXDXDXDXDXDXDXDXDXDXDXDXDXGXGXGXDXDXDXDXDXDXDXDXDXDXDXDXHXJXJXJXJXJXJXDXDXDXDXDXDXDXDXDXDXDXDXDXDXDXDXDXDXDXDXHXuXc.,.,.<.<.<.<.<.<.<.<.<.<.<.<.<.<.<.5.<.<.*.=.W W W W W T T T T b b #.#.8.8.&.&.-.-.-.&.-.&.&.&.7.6.IXJXKXKXJXJXJXJXJXJXJXJXJXJXJXJXJXJXJXJXJXJXJXJXJXKXPXKXKXJXJXKXKXKXPXPXKXJXJXPXPXPXPXPXPXKXKXKXKXKXKXKXKXKXKXJXJXJXJXJXJXJXJXJXJXJXJXJXJXHX",
"Z 8 9 4 3 / {.e.n q.q.q.t.t.t.t.|.+X~.R.Q.R.R.R.Q.R.R.Q.Q.Q.R.R.R.R.R.R.Q.Q.R.Q.Q.Q.Q.Q.Q.Q.Q.R.Q.Q.Q.Q.Q.Q.Q.Q.Q.!.Q.Q.Q.!.!.!.^.^.!.!.!.!.!.!.!.!.!.!.!.!.!.!.!.!.!.!.!.!.!.!.!.^.^.^.^.^.^.^.^.^.^.^.^.^.^.2X2X2X2X2X2X2X2X2X!.!.!.2X2X2X2X2X2X2X2X2X2X2X2X2X2X2X2X2X2X2X2X2X2X2X2X2X2X2X2X2X2X3X3X3X3X3X3X3X3X3X3X3X3X3X3X3X3X3X3X5X5X5X5X5X3X3X3X3X3X5X3X3X3X3X3X3X5X5X5X5X3X8X2XG.E.4X1X4X6X8X3X8X8X3XT.G.A.l.A.1XwX%XM.UXqX9X9XqXsX0X7X7X7X7X7X7X0X0X0X0X0X0X0X0X0X0X0X0X0X0XqXqXqXaXaXaXqXqXqXqXaXaXaXsXqXqXqXqXaXaXaXaXsXsXsXsXsXsXxXxXxXxXxXxXcXcXcXcXkXVXVXVXcXkXcXcXcXcXcXcXcXcXcXcXcXbXbXbXbXbXbXbXkXkXkXmXmXmXmXmXbXbXmXmXmXmXmXmXmXmXmXmXmXGXSXDXDXSXSXSXDXDXDXDXDXDXDXDXSXGXGXGXGXGXGXDXDXDXDXDXDXDXDXDXDXDXDXDXJXJXJXJXJXDXDXDXDXDXDXDXDXDXDXDXDXDXDXDXDXDXDXDXDXDXDXhXc.,.,.,.<.<.<.<.<.<.<.<.<.<.<.<.<.5.5.<.*.=.T W W W W W T T T T b b =.#.8.&.&.-.-.-.-.&.-.&.&.&.-.>XPXPXJXJXJXJXJXJXJXJXJXJXJXJXJXJXKXKXJXJXJXJXJXJXJXJXKXJXJXJXJXJXJXJXJXJXJXJXJXJXKXPXPXKXKXJXJXJXJXJXJXJXKXKXJXJXJXJXJXJXHXHXHXHXJXJXJXJXHXHX",
"M Z 9 ; < * ..}.e.n t.t.t.i.t.t.+.+XG.U.Q.U.Q.!.R.R.R.R.Q.R.R.R.R.R.Q.R.R.Q.Q.Q.Q.Q.Q.Q.Q.Q.Q.Q.Q.Q.Q.Q.Q.Q.Q.!.!.!.!.!.Q.!.!.!.^.^.^.!.!.!.!.!.!.!.!.!.!.!.!.^.!.!.!.!.!.!.!.!.^.^.^.^.^.^.^.^.^.^.^.^.^.^.2X2X2X2X2X2X2X2X2X2X!.!.!.2X2X2X2X2X2X2X2X2X2X2X2X2X2X2X2X2X2X2X2X2X2X2X2X2X2X2X2X2X2X3X3X3X3X3X3X3X3X3X3X3X3X3X3X3X3X3X3X3X5X5X5X5X3X3X3X3X3X5X3X5X3X3X3X3X5X3X5X5X8X3X8XG.F.4X4X4X4X8X5X3X8X5X~.G.A.z.A.9X4X%XB.rXqXwX9XxX0X0X9X6X7X7X7X9X0X0X0X0X0X0X0X0X0X0X0XaX0X0XqXqXqXaXaXaXaXaXqXqXqXaXqXqXqXqXqXqXqXqXsXsXsXsXxXxXqXVXVXVXxXxXxXxXcXcXcXcXkXkXcXcXcXcXcXcXcXcXcXcXcXcXcXbXbXbXbXbXbXbXbXbXkXkXkXmXmXmXmXmXbXmXmXmXmXmXmXmXmXmXmXmXmXGXGXGXSXGXGXGXGXSXSXSXDXDXDXGXZXZXGXZXGXGXGXDXDXDXDXDXDXDXDXDXDXDXDXDXJXJXJXJXDXDXDXDXDXDXDXDXDXDXDXDXSXSXSXDXDXDXDXDXDXDXDXCXc.,.,.<.<.<.<.<.<.<.<.<.<.<.<.<.<.<.5.<.<.,.*.=.=.=.W W T b T T T T =.=.8.8.&.&.&.-.&.&.&.&.&.7.-.,XLXJXJXJXJXJXJXJXJXJXJXJXJXJXJXJXJXJXJXJXJXJXJXJXJXJXJXJXJXJXJXJXJXJXJXJXJXJXJXJXJXJXJXJXJXJXJXJXJXJXJXJXJXJXJXJXKXKXJXJXJXJXHXHXHXJXHXHXDXDX",
"9 Z m 1 8 # f e.r.t.t.q.q.q.t.t.).&XG.T.Q.R.Q.Q.R.R.R.R.R.R.R.R.R.Q.Q.Q.Q.Q.Q.Q.Q.Q.Q.Q.Q.Q.Q.Q.Q.Q.Q.Q.Q.!.!.!.!.!.!.!.!.!.!.!.^.^.^.!.!.!.^.^.!.!.!.!.!.^.^.^.!.!.!.!.!.!.!.!.^.^.^.^.^.^.^.^.^.^.^.^.2X2X2X2X2X2X2X2X2X2X2X2X!.2X2X2X2X2X2X2X2X2X2X2X2X2X2X2X2X2X2X2X3X3X2X2X2X2X2X2X2X2X2X2X3X3X3X3X3X3X3X3X3X3X3X3X3X3X3X3X3X4X4X3X4X4X5X4X3X3X3X3X5X5X5X5X5X5X3X3X5X5X5X5X7X2X5XT.F.1X0X4X4X6X8X3X5X7X1XG.A.z.G.qXgX%XN.tXqXwXqXvXqX9X0X6X7X7X9X9X0X0X0X0X0X0X0X0XqXqX0X0X0X0XqXqXqXqXaXaXaXaXqXaXaXaXqXqXqXqXqXqXsXsXsXsXxXxXxXxXVXVXVXcXxXxXxXcXcXcXcXcXcXcXcXkXcXcXcXcXkXcXkXkXcXbXbXbXbXbXbXbXbXbXbXbXkXbXmXmXmXmXmXmXmXmXmXmXmXmXmXmXmXmXmXmXmXmXmXzXZXGXGXGXGXGXZXZXZXZXZXZXZXZXGXGXZXZXGXGXDXDXDXDXDXDXDXDXDXDXDXDXJXJXDXDXDXDXDXDXDXDXDXDXDXDXDXDXDXDXDXDXDXDXDXDXDXDXDXZXc.,.,.,.<.<.<.<.<.<.<.<.<.<.<.<.<.<.5.<.5.5.5.5.5.*.=.=.T T T T T T T T #.8.8.&.&.&.&.&.&.&.&.-.6.IXPXJXJXJXJXJXJXHXHXHXJXJXJXJXJXJXJXJXDXDXDXDXJXJXJXJXJXJXJXJXJXJXJXJXJXJXJXJXJXJXJXJXDXDXDXDXJXJXJXJXJXJXJXJXJXJXJXJXJXJXJXJXHXJXHXHXHXHXDXDX",
"m 9 M M < < 5 S e.}.t.t.t._ _ _ O.+.G.2XR.^.Q.Y.R.R.R.R.R.R.R.R.Q.Q.Q.Q.Q.Q.Q.Q.Q.Q.Q.Q.Q.Q.Q.Q.Q.Q.Q.Q.!.!.!.!.!.!.!.!.!.!.!.!.^.^.^.^.^.^.^.^.!.!.!.!.^.^.^.^.!.!.!.!.!.!.!.!.^.^.^.^.^.!.!.2X^.^.^.^.2X2X2X2X2X2X2X2X2X2X2X2X2X2X2X2X2X2X2X2X2X2X2X2X2X2X2X2X2X2X2X2X3X3X2X2X3X3X2X2X3X2X2X2X1X1X3X3X3X3X1X1X1X1X1X3X3X3X3X4X3X3X3X3X4X4X3X3X3X3X3X3X8X8X5X8X5X5X8X8X5X5X8X8X8X3X3X2XF.G.0X4X9X6X0X7X8X0X4XG.A.z.G.9X9X%X%XzXqXwXiXbX0X9X0X6X9X9X0X0X0X0X0X0XqXqXqXqXqXqXqXqX0XqXqXqXqXqXaXaXqXqXqXqXqXsXqXqXqXqXqXqXqXqXqXqXqXxXxXxXsXxXxXxXxXcXxXxXcXcXcXcXcXcXcXcXcXcXcXcXcXcXcXcXcXbXbXbXbXbXbXbXbXbXbXmXzXzXzXmXmXmXmXmXmXmXmXmXmXmXmXmXmXmXmXmXGXGXmXzXCXZXGXGXGXGXCXCXCXCXCXZXZXGXGXGXZXZXZXGXGXGXDXDXDXDXDXDXDXDXDXHXDXDXDXDXDXDXDXDXDXDXDXDXDXDXDXDXDXDXDXDXDXDXDXDXDXDXDXDX-X4.5.,.<.<.<.<.<.<.<.<.<.<.<.<.<.<.5.<.<.<.5.5.6.5.5.5.:.:.=.T T b T T =.-.&.&.&.&.&.&.&.&.&.-.;XIXDXJXJXJXJXJXJXJXJXJXJXHXHXJXJXJXJXJXDXDXDXDXDXJXJXKXJXJXJXJXJXJXJXJXKXJXJXJXJXJXJXJXDXDXDXJXJXJXJXJXJXJXJXJXJXJXJXJXJXJXHXJXJXHXHXHXHXHXDXDX",
"8 m M m < 8 < Z / w.}.) s = = f S m g.^.R.E.R.Q.Q.Q.Q.Q.Q.Q.Q.Q.Q.Q.Q.Q.Q.Q.Q.Q.Q.Q.Q.Q.Q.Q.Q.^.Q.Q.Q.Q.Q.Q.Q.Q.Q.!.!.!.!.!.!.!.^.^.^.^.^.^.^.^.!.!.!.^.^.^.^.^.!.!.!.!.!.!.!.!.^.^.^.^.^.2X2X2X^.^.2X2X2X2X2X2X2X2X2X2X2X2X2X2X2X2X2X2X2X2X2X2X2X2X2X2X2X2X2X3X2X2X2X2X3X3X2X3X3X3X2X2X3X3X2X2X1X1X3X3X3X3X3X1X1X3X3X3X3X4X4X4X3X3X3X4X3X3X3X3X3X3X3X8X5X8X8X8X8X8X8X8X8X8X8X8X3X7X6X6XG.A.4X9X9X4X0X0X4X0X0XG.A.A.G.wXwX%XkXMXqXwXkXcXqXqX0X0X9X9X0X0X0X0XqXqXqXqXqXqXqXqXqXqXqXqXqXqXqXqXaXsXqXqXqXqXsXsXqXqXqXqXqXqXqXqXqXqXqXqXVXVXVXVXVXVXkXkXVXcXcXcXcXcXcXcXcXcXcXcXcXcXcXcXcXbXbXbXbXbXbXbXbXbXbXbXmXmXkXmXmXmXmXmXmXmXmXmXmXmXmXmXmXmXmXmXmXmXGXGXGXCXCXCXGXGXGXCXCXCXCXCXCXCXCXGXZXGXZXZXZXZXGXGXDXDXDXDXDXDXDXDXDXHXDXDXDXDXDXDXDXDXDXDXDXDXDXDXDXDXDXDXDXDXDXDXDXDXDXDXDXHXhXc.4.,.<.<.<.<.<.<.5.<.<.<.<.<.<.<.<.<.<.<.<.<.5.6.6.6.5.4.:.=.T T T T =.-.-.&.&.&.&.&.&.&.&.1.,XJXZXJXDXJXJXJXJXJXJXJXJXJXHXJXJXJXJXHXDXDXDXDXDXHXJXKXJXJXJXJXJXJXJXJXJXJXJXJXJXJXJXJXJXJXJXJXJXJXJXJXJXJXJXJXJXJXJXJXJXHXHXHXHXHXDXDXDXDXDXDX",
"< M m 8 9 < ; M q S ].[.f S | X.K m z.E.2XR.T.W.Q.Q.Q.Q.Q.Q.Q.Q.Q.Q.Q.Q.Q.Q.Q.Q.Q.Q.Q.Q.Q.!.^.^.Q.Q.Q.Q.Q.Q.Q.!.!.!.!.!.!.!.!.!.^.^.^.^.^.^.^.^.!.!.!.^.^.^.^.^.!.!.2X2X2X2X2X2X^.^.^.^.^.2X2X2X^.2X2X2X2X2X2X2X2X2X2X2X2X2X2X2X2X2X2X2X2X2X2X2X2X2X2X2X2X2X3X3X2X3X2X2X3X3X3X3X2X2X2X2X3X3X2X2X1X1X1X3X3X3X3X3X3X3X3X3X3X3X4X4X3X3X5X5X3X5X3X8X4X4X4X8X8X8X8X8X4X5X8X8X8X8X8X6X4X8X0X6XG.~.9X9X9X6X9X0X4XqXqX1XG.@XS.iX%X&XzXzXqXqXiXkXqX0X0X0X9X9X0X0X0X0XqXqXqXqXqXqXqXqXqXqXqXqXqXqXqXqXaXaXqXqXqXqXsXVXVXsXqXqXsXsXxXxXxXxXqXqXqXVXVXVXqXVXkXkXkXcXcXcXcXcXcXcXcXcXcXcXbXbXcXcXcXbXbXbXbXbXbXbXbXbXbXzXzXmXmXmXmXmXmXmXmXmXmXmXmXmXmXmXmXmXmXGXGXGXGXGXGXGXCXGXGXGXGXzXzXzXzXzXCXCXCXCXZXZXZXZXZXZXZXGXGXDXDXDXDXDXDXDXDXDXDXDXDXDXDXDXDXDXDXDXDXDXDXDXDXDXDXDXDXDXDXDXDXDXDXDXSXDXAXc.4.,.,.<.<.*.<.<.5.5.<.<.<.<.<.<.<.<.5.5.5.5.5.5.5.6.6.6.5.4.:.=.T T =.=.-.&.&.&.&.&.-.&.&.b.IXJXDXJXDXDXDXDXJXJXJXJXJXJXHXHXJXJXHXHXDXDXDXDXDXDXHXJXJXJXJXJXJXJXJXJXJXJXJXJXJXJXJXJXJXJXJXJXJXJXJXJXHXHXHXHXDXHXJXJXHXDXDXDXDXDXDXDXDXDXDXDX",
"; 1 m M m ; 8 ; 8 8 S J S H `.j.{ M N A.3XT.Q.^.Q.Q.Q.Q.Q.Q.Q.Q.Q.Q.Q.Q.Q.Q.Q.Q.Q.Q.Q.Q.Q.!.^.^.Q.Q.Q.Q.Q.Q.!.!.!.!.!.!.!.!.!.!.^.^.^.^.^.^.^.^.!.!.^.^.^.^.^.^.!.!.2X2X2X2X2X2X^.^.^.^.2X2X2X2X^.2X2X2X2X2X2X2X2X2X2X2X2X2X2X2X2X2X2X2X2X2X2X2X2X2X2X2X2X2X3X3X2X2X2X2X3X3X3X3X2X2X2X2X3X3X2X2X1X1X3X3X3X3X1X1X3X1X1X1X3X4X4X4X5X5X5X5X5X5X5X5X4X4X8X8X8X8X8X8X4X4X6X6X4X6X6X6X9X1X6X1X1XcXqX9X9X1X9XqX4X0XqX1XS.+XN.zX%X&XzXzXwXqXiXqXkXqXqXaX9X0X0X0X0XqXqXqXqXqXqXqXqXqXqXqXqXqXqXqXqXqXqXaXqXqXqXqXkXkXkXiXqXqXkXkXkXkXkXkXqXqXqXcXVXVXqXqXkXkXcXcXcXcXcXcXcXcXcXcXcXcXbXbXcXcXbXbXbXbXbXbXbXbXbXbXbXzXmXmXzXzXmXmXmXmXmXmXmXmXmXmXmXmXmXmXGXGXGXGXGXGXGXGXGXGXGXGXCXzXzXzXzXzXzXzXzXCXCXCXCXZXZXZXZXGXGXGXDXDXDXDXDXDXDXDXDXDXDXDXDXDXDXDXDXDXDXDXDXDXDXDXDXDXDXDXDXDXDXDXDXDXSXDXDXc.4.,.,.<.<.*.<.<.5.5.<.<.<.<.<.<.<.<.,.<.5.5.5.5.6.5.5.6.6.6.4.:.=.T =.=.-.&.&.&.&.&.-.&.&.>XIXHXHXDXDXDXDXDXJXJXJXJXHXHXDXHXHXHXDXDXDXDXDXDXDXDXHXHXJXJXJXJXJXJXJXJXJXHXDXDXDXJXJXJXJXHXJXDXJXJXJXJXDXDXDXDXDXHXHXHXDXDXDXDXDXDXDXDXDXSXSXSX",
"; < 8 M 9 1 : 8 8 9 8 8 4 H X.f.+.H N z.2X!.W.R.R.R.R.R.Q.Q.Q.Q.Q.Q.Q.Q.Q.Q.Q.Q.Q.Q.Q.Q.Q.Q.Q.Q.!.!.!.^.!.!.!.^.!.!.!.!.!.!.!.!.^.^.^.^.^.^.^.^.^.^.^.^.!.^.^.^.!.2X2X2X2X2X2X2X2X2X2X2X2X2X2X2X!.!.2X2X2X2X2X2X2X2X2X2X2X2X2X2X2X2X2X2X2X2X2X2X2X2X2X2X2X2X2X2X3X3X/./././././.3X3X3X3X3X3X3X3X3X3X3X3X3X3X3X3X4X4X3X3X4X4X4X3X3X4X4X4X4X4X4X4X3X5X5X5X8X8X8X4X8X7X8X8X8X7X7X7X6X4X9X9XG.@XN.wXwXwXqX6X4X0X9XS.N.%XM.OXyX%XGXzXiXiXiXiXqXsXgXqX0XqXqX0X0XqXqXqXqXqXqXqXqXqXqXqXqXqXqXqXqXqXqXsXqXqXqXqXqXqXqXqXsXVXVXVXVXVXVXVXkXkXkXiXcXcXkXcXcXcXcXcXcXcXcXcXkXkXcXcXbXbXbXbXkXkXkXkXbXbXbXbXbXbXbXbXmXmXmXmXzXmXmXmXmXmXmXmXmXmXmXmXmXmXmXGXmXGXGXCXCXGXGXCXCXCXGXGXGXzXzXzXlXzXzXzXlXCXCXCXZXZXZXZXGXDXDXDXDXDXDXDXDXDXDXDXDXDXDXDXDXDXDXDXDXDXDXDXDXDXDXDXDXDXDXDXDXDXDXDXDXDXDXHXDXc.,.<.,.,.<.*.<.<.<.<.<.<.<.<.<.<.<.5.<.5.5.5.6.6.5.5.6.6.6.6.6.4.:.T T =.=.8.-.&.&.&.&.&.-.<XAXDXJXDXDXDXDXDXDXDXJXJXDXDXDXDXDXDXDXDXDXDXDXDXDXDXDXDXDXDXDXDXDXDXHXJXHXDXHXHXJXDXHXJXJXJXJXJXHXHXDXDXDXDXDXDXHXDXDXDXDXDXDXDXDXDXDXDXZXGXGXGX",
"< < 8 m m 8 1 8 9 8 ; 9 8 0 K o.X.' M Z E.E.Q.^.R.R.Q.Q.Q.Q.Q.Q.Q.Q.Q.Q.Q.Q.Q.Q.Q.Q.Q.Q.Q.Q.Q.Q.!.!.^.^.!.!.^.^.!.!.!.!.!.!.!.!.^.^.^.^.^.^.^.^.^.^.^.^.!.!.^.^.!.!.2X2X2X2X2X2X2X2X2X2X2X2X2X2X!.2X2X2X2X2X2X2X2X2X2X2X2X2X2X2X2X2X2X2X2X2X2X2X2X2X2X2X2X2X2X2X3X3X/.3X/././.3X3X3X3X3X3X3X3X3X3X3X3X3X3X3X3X3X4X4X3X4X4X4X3X3X3X3X3X3X3X4X6X4X8X5X5X5X8X8X8X7X8X6X8X8X8X7X7X7X6X6X6X6XG.N.g..XtXwX6X7X7X9X1XN.%X&X|.&X*X`.M.tXiXiXiXiXqXqX9XqXqXqXqXqX0XqX0XqXqXqXqXqXqXqXqXqXqXqXsXsXsXqXqXsXqXqXqXqXqXqXqXqXVXVXcXcXVXVXVXVXkXcXkXcXcXcXcXcXkXkXkXcXkXkXkXkXkXkXcXcXbXbXbXbXkXkXkXkXbXbXmXmXbXbXbXbXmXmXmXmXmXmXmXmXmXmXmXmXmXmXmXmXmXmXGXGXSXSXGXGXGXGXGXCXlXCXCXCXzXzXzXzXzXzXlXzXzXlXCXCXCXCXZXGXDXDXDXDXDXDXDXDXDXDXDXDXDXDXDXDXDXDXDXDXDXDXDXDXDXDXDXDXDXDXDXDXDXDXDXDXDXDXDXHXDX].,.,.,.,.<.<.<.<.<.<.<.<.<.<.<.<.<.<.<.5.5.5.6.6.5.5.5.5.5.5.6.6.4.:.=.=.=.-.-.&.&.&.&.&.1.IXDXDXJXDXDXDXDXDXDXDXDXDXDXDXDXDXDXDXDXDXDXDXDXDXDXDXDXDXDXDXDXDXDXDXJXJXDXDXDXHXHXDXDXHXDXDXDXDXDXDXDXDXDXDXDXDXDXDXDXDXDXDXZXZXDXDXDXGXGXGXGXSX",
"< ; 1 m m 8 1 1 8 M 1 8 8 8 M ` X.a.' B A.E.R.Q.Q.Q.Q.Q.Q.Q.Q.Q.Q.Q.Q.Q.Q.Q.Q.Q.Q.Q.!.!.Q.Q.Q.Q.!.!.^.^.^.^.^.^.!.!.!.!.!.!.!.!.^.^.^.^.^.^.^.^.^.^.^.^.!.!.!.!.2X2X2X2X2X2X2X2X2X2X2X2X2X2X2X2X!.2X2X2X2X2X2X2X/./././././././.2X2X2X2X3X3X2X2X2X2X2X2X2X2X2X2X3X3X3X3X3X3X3X3X3X3X3X3X3X3X3X3X3X3X3X3X3X3X3X3X4X4X4X4X4X4X6X6X4X4X4X6X4X6X6X4X8X8X8X8X8X6X8X6X6X6X6X6X6X6X6X6X6X9X6X1X1Xz.z.a.wXwXgX0X6X4XgX+X*Xd.s.oX*X|.H +XtXiXbXqXqXqXqXqXqXqXqXqXqXqXqXqXqXqXqXqXqXqXqXqXqXsXsXaXsXqXxXsXqXqXqXqXiXqXqXqXcXcXcXcXVXVXVXVXcXcXcXcXcXcXcXcXkXkXkXkXkXkXcXcXkXkXcXcXbXbXbXbXbXbXbXbXbXmXmXmXbXbXmXmXmXmXmXmXmXmXmXmXmXmXmXmXmXmXmXmXGXGXGXGXFXFXSXGXGXGXZXlXlXlXzXzXlXzXzXzXlXlXzXlXzXlXCXCXCXZXZXDXDXDXDXDXDXDXDXDXDXDXDXDXDXDXDXDXDXDXDXDXDXDXDXDXDXDXDXDXDXDXDXDXDXDXDXDXDXDXDXDXDX=X4.,.,.<.<.<.<.<.<.<.<.5.<.<.<.<.<.5.5.5.5.5.6.6.5.5.6.5.5.5.6.6.6.4.:.=.=.-.&.&.&.&.&.&.b.IXDXDXDXDXDXDXDXDXDXDXDXDXDXDXDXDXDXDXDXDXDXDXDXDXDXDXDXDXDXDXDXDXDXDXDXDXDXDXDXDXDXDXDXDXDXDXDXDXDXDXDXDXDXDXDXDXDXDXDXDXDXZXZXZXZXZXGXZXZXZXGXZX",
"< ; : 8 8 8 1 1 1 m m 9 m 8 8 ` s.s.{ m z.E.R.W.Q.Q.Q.Q.Q.Q.Q.Q.Q.Q.Q.Q.Q.Q.Q.Q.!.!.!.Q.Q.Q.!.!.!.!.^.^.^.^.^.^.!.!.!.!.!.!.!.!.^.^.^.^.^.^.^.^.^.^.^.^.^.^.^.^.2X2X2X2X2X2X2X2X2X2X2X2X2X2X2X2X2X2X2X2X2X2X2X2X/./././././././.2X2X2X2X3X3X3X3X2X3X3X3X2X2X2X2X3X3X3X3X3X3X3X3X3X3X3X3X3X3X3X3X3X3X4X4X4X4X3X3X4X4X4X4X4X6X6X6X6X6X6X6X6X8X8X8X8X8X8X8X6X6X8X6X6X6X6X6X6X0X0X0X6X6X9X1X9Xz.' { +XwX9XqX9X6XqXwX).H ` f.yX%XZ N.tXiXnXqXqXqXqX9XqXqXqXqXqXqXqXqXqXqXqXqXqXqXqXqXqXqXqXqXkXkXkXiXqXqXkXkXkXkXqXqXcXcXcXcXcXVXVXVXkXkXkXkXkXkXkXkXkXkXkXcXcXbXcXcXkXkXkXkXkXkXkXbXkXkXbXbXmXmXmXmXmXmXmXzXmXmXmXmXmXmXmXmXmXmXmXmXmXmXmXmXGXGXGXGXFXSXGXCXzXzXzXzXjXjXlXlXlXlXlXlXlXlXlXlXzXCXCXZXZXZXGXDXDXDXDXDXDXDXDXDXDXDXDXDXDXDXDXDXDXDXDXDXDXDXDXDXDXDXDXDXDXDXDXDXDXDXDXDXDXDXDXDXDXAXc.,.,.,.<.<.<.<.<.<.<.5.<.<.<.<.5.5.5.5.5.5.6.5.5.5.6.6.5.6.6.6.6.6.4.:.=.-.&.&.&.&.&.-.>XIXDXZXDXDXDXDXDXDXDXDXDXDXDXDXDXDXDXDXDXSXDXDXDXDXDXDXDXDXDXDXDXDXDXDXDXDXDXDXDXDXDXDXDXDXZXDXDXDXDXDXDXDXDXZXZXDXDXDXZXDXZXZXZXZXZXZXGXZXZXZXZXZX",
"1 ; : 1 1 1 : 1 : m M ; Z s.O.OX].+.X.' M g.2XQ.Q.Q.Q.Q.!.!.Q.Q.Q.!.Q.Q.Q.Q.!.Q.!.!.Q.Q.Q.Q.^.^.^.^.^.^.^.^.^.^.!.!.!.!.!.!.!.!.^.^.^.^.^.^.^.^.^.^.2X2X2X2X2X2X2X2X2X2X2X2X2X2X2X2X2X2X2X2X2X2X2X2X2X2X2X2X2X2X/./././././././.2X2X2X2X3X3X3X3X3X3X3X3X3X3X3X3X3X3X3X3X3X3X3X3X3X3X3X3X3X3X3X3X4X4X4X4X4X3X3X3X3X3X6X4X6X6X6X6X4X5X5X8X8X8X8X8X8X8X8X8X8X6X6X6X6X6X6X6X7X7X7X7X9X4X0X6X9XS.' { S.wXgX9XaX0XgXA.H M { +.yX%X{ S.tXiXnXqXqXqXqXqXqXqXqXqXqXqXqXqXqXqXqXqXqXiXiXiXqXqXqXqXqXqXqXqXqXkXkXkXiXqXqXqXVXVXVXVXcXcXcXcXkXkXkXkXkXcXkXkXkXkXkXcXbXbXbXbXkXkXcXbXkXbXbXbXbXbXbXbXbXmXmXmXmXzXmXmXmXmXmXzXmXmXmXmXmXmXmXmXmXmXmXGXGXGXGXGXGXGXCXzXlXlXzXlXlXpXpXpXpXjXzXzXzXlXlXzXlXCXZXZXZXGXDXDXDXDXDXDXDXDXDXDXDXDXDXDXDXDXDXDXDXDXDXDXDXDXSXSXDXDXDXDXDXDXDXDXDXDXDXDXSXDXZXZXDXDX].,.,.,.<.<.<.<.<.<.<.5.<.<.<.<.5.5.<.5.5.5.6.5.5.5.6.5.5.6.6.6.6.6.6.:.=.-.-.&.&.&.&.-.>XAXDXGXDXDXDXDXDXDXDXDXDXDXDXDXSXSXDXDXDXDXDXDXDXDXDXDXDXDXDXDXDXDXDXDXDXDXDXDXDXDXDXZXZXDXZXZXDXDXDXDXDXDXDXZXZXDXDXDXZXZXZXZXZXZXZXZXGXZXZXZXGXGX",
"1 < < 1 < : < 1 < 8 M 9 +.OX`.OXrX+.f.` M ' 2X^.Q.Q.Q.Q.!.!.!.!.^.^.!.!.!.!.^.^.^.^.Q.Q.^.^.^.^.^.^.^.^.^.^.^.^.!.!.!.!.!.!.!.!.^.^.^.^.^.^.^.^.^.^.2X2X2X2X2X2X2X2X2X2X2X2X2X2X2X2X2X2X2X2X2X2X2X2X2X2X2X2X2X2X2X2X2X2X2X2X2X2X2X2X3X3X3X3X3X3X3X3X3X3X3X3X3X3X3X3X3X3X3X3X3X3X3X3X3X3X3X3X3X3X4X4X4X4X4X4X4X4X6X8X5X4X8X8X5X5X5X8X8X8X8X6X6X6X8X8X8X8X6X6X6X6X9X9X9X9X9X0X0X0X9X4X0X9X9X1X' { g.iX9XgXdXqXgXg.M Z X.{ *X%X.XwXtXiXbXqXqXqXqXqXqXqXqXqXqXqXqXqXqXqXqXqXqXiXiXiXqXqXqXqXqXqXqXiXkXkXcXcXiXiXkXkXiXiXkXkXiXkXkXkXkXkXkXkXcXkXkXkXcXcXcXbXbXbXbXbXkXkXkXkXzXzXzXzXkXkXbXbXmXmXmXmXmXmXmXzXmXmXmXmXzXmXmXmXmXmXmXmXmXmXGXGXGXGXGXGXCXCXzXjXjXlXlXzXpXpXpXpXlXzXzXlXzXlXzXCXCXZXZXZXDXDXDXDXDXDXDXDXDXDXDXDXDXDXDXDXDXDXDXDXDXDXDXDXDXDXDXSXDXDXDXDXDXDXDXDXDXDXDXDXZXZXZXZXZXDX=X3.,.,.<.<.<.<.<.<.5.5.<.<.<.<.5.5.5.5.5.5.6.5.5.5.5.5.5.6.6.6.6.6.r.5.*.-.-.&.&.&.&.6.AXZXDXDXDXDXDXDXDXDXDXDXDXDXDXDXSXSXDXDXDXDXSXDXDXDXDXDXDXDXDXDXDXDXDXZXZXDXDXDXDXDXDXZXZXDXZXZXDXDXDXDXDXDXDXZXZXZXDXSXZXZXZXZXZXZXZXZXGXZXZXZXGXGX",
"1 < < 1 1 < < 1 8 : 8 a.&X' 8 H OX+.+.{ ' N k.!.Q.Q.Q.Q.^.^.^.^.^.^.^.^.!.!.!.!.!.!.^.^.^.^.^.2X^.^.^.^.^.^.^.^.2X2X2X2X!.!.!.2X^.^.^.^.^.^.^.^.2X2X2X2X2X2X2X2X2X2X2X2X2X2X2X2X2X2X2X2X2X2X2X2X2X2X2X2X2X2X2X2X2X2X2X2X2X2X2X2X3X3X3X3X3X3X3X3X3X3X3X3X3X3X3X3X3X3X3X3X3X3X3X3X3X3X3X5X3X3X3X3X4X4X4X4X4X4X4X4X6X6X8X8X4X5X6X6X8X8X8X8X6X8X6X6X8X6X8X8X6X6X7X7X9X9X9X9X0X0X0X9X9X6X6X7X0X0Xg.z.z.iXiX9X0X9XqXG.M Z { { %X%X%XiXiXiXkXiX9XkXqXqXqXqXqXqXqXqXqXqXqXVXqXqXqXiXiXiXiXiXiXiXiXiXqXqXqXkXcXcXcXcXcXcXkXcXiXiXiXiXkXkXkXkXcXcXkXcXkXkXcXcXbXbXbXbXbXbXkXkXkXzXmXmXmXmXkXkXkXkXzXmXmXmXmXmXmXmXmXmXmXmXzXzXzXmXmXmXmXmXmXGXGXGXGXZXCXCXzXlXlXpXpXkXkXpXpXpXzXlXzXlXzXzXlXzXCXZXZXZXGXGXDXDXDXDXDXDXDXDXDXDXDXDXDXDXDXDXDXDXDXDXDXDXDXDXSXSXSXSXDXDXDXDXDXDXDXDXDXZXDXZXDXZXDXZXZXDXAXc.,.,.,.<.<.<.<.<.5.5.5.<.<.<.<.5.5.5.5.5.5.5.5.5.5.5.5.6.6.6.6.6.6.6.<.-.-.&.&.&.-.;XIXDXDXDXZXAXDXZXZXZXDXDXDXDXSXSXGXSXDXDXDXSXSXSXSXSXDXDXDXDXDXZXZXZXZXDXDXDXDXDXDXDXDXZXZXZXZXZXZXZXDXDXDXZXDXZXZXZXSXZXZXSXDXZXZXZXZXZXZXZXZXZXZXGX",
"< < < 1 1 1 < : : 1 8 ` d.M M M ' } J X.' N z.E.Q.Q.Q.Q.^.^.^.^.^.^.^.^.!.!.!.!.!.^.^.^.^.^.^.^.^.^.^.^.^.^.^.^.2X2X2X2X!.!.!.2X^.^.^.^.^.^.^.^.!.2X2X2X2X2X2X2X2X2X2X2X2X2X2X2X2X2X2X2X2X2X2X2X2X2X2X2X2X2X2X2X2X2X2X2X1X2X2X2X3X3X3X3X3X3X3X3X3X3X3X3X3X3X3X3X3X3X3X3X3X3X3X3X3X3X3X5X3X3X3X5X4X6X6X6X4X4X4X4X6X8X8X8X4X6X6X6X4X4X4X6X6X6X6X6X8X8X8X8X6X7X7X7X7X6X9X9X9X0X9X0X9X0X4X4XaX0XG.z.{ wXgX9XsXqXqXS.Z Z { a.%X%X#XzXiXiXiXiX9XcXqXqXqXqXqXqXqXqXqXqXVXVXqXqXqXiXiXiXiXiXiXiXiXkXqXiXqXkXkXcXcXcXcXcXiXcXkXkXiXkXkXkXkXkXkXcXcXcXkXkXkXkXkXkXkXbXbXbXkXkXzXmXmXmXmXmXkXkXkXzXzXmXmXmXmXmXmXmXmXmXmXmXzXzXmXmXmXmXGXGXzXzXlXCXCXCXzXlXlXlXpXyXyXpXpXiXpXkXlXlXzXlXlXlXzXlXZXGXGXGXGXZXDXDXDXDXDXDXDXDXDXDXDXDXDXDXDXDXDXDXDXDXDXDXDXDXGXGXGXGXGXGXGXSXSXSXZXZXZXZXZXZXDXCXDXDXZXZXDXc.,.,.<.<.<.<.<.<.5.5.5.<.<.<.<.5.5.5.5.6.5.5.5.5.6.5.6.6.6.6.6.v.6.6.5.-.-.&.&.&.7.>XIXZXZXGXZXZXZXZXZXZXZXGXZXGXSXZXZXGXSXSXSXSXGXSXSXSXDXDXDXDXDXZXZXZXZXDXDXDXZXZXDXDXDXZXZXZXZXZXZXZXZXZXZXZXDXZXZXZXSXZXZXZXDXZXZXZXZXZXZXZXZXZXGXGX",
"< 1 1 ; ; 1 < < 1 < 1 m M 9 8 9 m M m M H m Z g.3XY./.Q./.^.Q.^.^.^.^.^.^.^.^.^.^.^.^.^.^.^.^.^.!.!.!.!.2X2X2X2X2X2X2X2X2X2X2X2X2X2X2X2X2X2X2X2X2X2X2X2X2X2X2X2X2X2X2X2X2X2X2X2X2X2X2X2X2X2X2X2X2X2X2X2X3X3X3X3X3X3X3X3X3X3X3X3X3X3X3X3X3X3X3X3X3X3X3X3X3X3X3X4X3X3X3X3X4X4X4X4X3X4X4X4X4X4X4X5X3X3X5X5X5X4X4X4X4X4X4X6X6X6X6X4X6X6X6X9X9X9X6X7X7X9X6X9X0X9X9X9X9X9X0X0X0X0X0X0XqX0X6X0X0X6X1X' ' @XqX9XgXqX9X@XZ N z.z.XXeX%XiXtXiXiXiXqXqXqXqXqXqXqXqXqXsXsXVXqXqXiXiXiXiXiXiXqXqXqXxXxXcXkXkXiXiXiXiXkXkXkXkXcXcXcXkXkXcXkXkXkXkXkXkXkXkXkXkXkXkXkXkXbXbXbXkXmXmXbXmXbXmXzXzXmXmXmXmXmXmXmXmXzXzXzXmXmXmXmXmXzXzXzXmXmXmXzXzXlXlXlXzXzXzXzXpXpXpXpXpXpXyXyXyXpXpXpXlXzXlXzXlXCXCXZXZXGXSXSXDXZXZXZXDXDXDXDXDXDXDXDXDXDXDXDXDXDXDXDXDXDXZXZXZXZXZXZXZXGXGXGXGXZXGXDXDXDXDXGXGXZXZXDXZXZXDXAX-X,.5.,.<.*.<.,.<.5.<.<.<.<.<.<.5.<.<.5.5.5.5.5.5.5.5.6.6.6.6.6.6.6.6.6.=.-.&.&.7.1.<XCXCXDXAXZXZXZXZXZXZXZXZXZXZXZXZXZXZXDXDXDXDXZXDXDXZXZXDXDXZXDXZXDXDXDXDXDXDXDXDXZXDXDXDXZXZXZXZXZXZXZXZXZXZXDXZXZXZXZXZXZXZXZXZXZXAXZXZXZXZXZXZXZXZX",
"1 1 1 < < < < < 1 : 1 8 8 1 < 1 1 9 8 8 M N N ' U.Q.Q.^./.^.^.^.^.^.^.^.^.^.^.^.^.^.^.^.^.^.^.^.!.!.!.2X2X2X2X2X2X2X2X2X2X2X2X2X2X2X2X2X2X2X2X2X2X2X2X2X2X2X2X2X2X2X2X2X2X2X2X2X2X2X2X3X2X2X2X2X2X2X2X3X3X3X3X3X3X3X3X3X3X3X3X3X3X3X3X3X3X3X3X2X3X3X3X3X3X3X3X4X3X3X3X4X4X4X4X4X4X4X4X4X4X4X4X4X3X3X5X5X5X4X4X4X4X4X4X6X6X6X6X6X6X6X6X9X6X9X7X9X7X0X9X9X0X0X9X9X0X9X0X0X0X0X0X0X0X0X7X0X0X9X9Xz.' h.iXgXqXqXqX+XZ m { p.#XeX#XkXtXiXiXiXqXqXiXiXqXqXqXqXqXqXsXVXqXqXiXiXkXiXiXiXqXqXiXiXkXcXiXkXiXiXiXkXkXkXkXkXcXcXkXkXkXkXcXcXkXkXkXkXkXkXkXkXkXkXkXkXkXkXbXbXmXmXmXmXbXzXzXmXzXzXmXmXzXmXmXmXzXzXzXzXmXmXmXmXzXzXzXzXmXzXzXlXiXiXpXlXlXzXpXyXpXpXpXpXpXpXpXpXzXzXzXzXzXzXlXCXCXZXZXZXGXGXSXSXZXZXZXDXDXDXDXDXDXZXDXDXDXDXDXDXDXDXDXZXZXZXZXZXZXZXZXZXGXGXGXGXZXGXDXDXGXGXGXGXSXZXDXGXCXDXZX=X4.,.<.<.,.<.,.,.5.<.<.<.<.<.<.5.<.<.5.5.5.5.5.5.5.5.6.6.6.6.6.6.v.6.6.-.-.&.&.-.6.AXCXCXDXAXZXZXZXZXZXZXZXZXZXZXZXZXZXZXDXDXDXDXZXZXDXZXZXDXDXZXDXDXDXDXZXZXZXZXDXDXZXDXDXDXZXZXZXZXZXZXZXZXZXZXZXZXZXZXZXZXZXZXZXZXAXAXZXZXZXZXZXZXZXZX",
"8 8 1 1 1 < < 1 1 1 1 1 < < < < 1 8 1 1 N N N N l.2XR./.Q.^./.^.^.^.^.^.^.^.^.^.^.^.^.^.^.^.^.^.!.!.!.2X2X2X2X2X2X2X2X2X2X2X2X2X2X2X2X2X2X2X2X2X2X2X2X2X2X2X2X2X2X2X2X2X2X2X2X2X2X2X2X3X2X2X2X3X2X2X3X3X3X3X3X3X3X3X3X3X3X3X3X3X3X3X3X3X3X3X3X3X3X3X3X3X3X4X3X4X3X3X3X3X3X4X4X4X4X4X4X4X4X4X4X4X8X8X4X4X8X4X4X4X4X4X6X6X6X6X6X6X6X6X6X6X9X9X9X9X9X9X0X0X0X0X0X0X9X9X0X0X0X0X0X0X9X9X0X0X0X9XqXg.Z z.qXgXiXqXiX1XZ m Z Z h.OXoXlXyXiXiXiXqXqXiXiXiXiXqXqXqXqXVXVXqXqXiXiXiXiXiXiXqXiXiXiXkXcXcXkXkXkXkXkXkXkXkXkXcXkXkXkXkXkXkXkXkXkXkXkXkXkXkXkXzXzXzXzXkXkXkXkXmXmXmXzXzXzXzXzXmXmXzXzXzXmXmXmXzXzXzXzXzXzXzXzXzXzXzXzXzXzXlXpXyXtXyXyXyXpXyXyXiXpXpXpXpXpXlXlXzXzXzXCXCXCXCXCXZXZXZXGXGXSXSXSXZXZXDXDXDXDXDXDXZXZXZXDXDXDXDXDXDXDXZXZXZXZXZXZXCXZXCXZXZXZXZXZXZXZXZXDXGXGXGXZXZXZXSXGXCXZXDXhXc.,.5.,.,.<.<.,.5.<.5.<.<.<.<.<.<.<.<.5.5.5.5.5.5.5.6.6.6.6.6.6.v.v.6.*.-.&.&.&.;XAXCXCXZXAXZXZXCXCXZXZXZXZXZXZXZXZXZXZXZXZXZXZXZXZXZXZXZXDXDXDXDXDXDXDXZXZXZXZXZXZXZXZXZXDXZXZXZXZXZXZXZXZXZXZXZXZXZXZXZXZXZXZXZXZXAXAXAXZXZXZXZXZXZXZX",
"m 8 1 1 1 < < 1 1 1 1 < < < < < 1 1 1 1 8 N N N ' G.!.^.Q.^.^.^.^.^.^.^.^.^.^.^.^.^.^.^.^.2X2X2X!.2X2X2X2X2X2X2X2X2X2X2X2X2X2X1X2X2X2X2X2X2X2X2X2X2X2X2X2X2X2X2X2X2X2X2X2X2X2X2X2X2X3X2X2X3X3X3X2X2X3X3X3X3X3X3X3X3X3X3X3X3X3X3X3X3X3X3X3X3X3X3X3X3X3X3X3X4X5X5X3X3X3X4X4X4X4X4X4X4X4X4X4X8X8X8X6X8X8X8X8X4X6X6X4X6X6X9X9X9X9X6X6X6X0X7X9X9X0X0X9X9X9X9X9X0X9X9X9X9X9X9X9X9X9X9X9X9X0X9X0X0XqXG.Z ' wXwXwXiXiXwX{ H M 8 m ` m.jXkXiXiXiXiXqXiXiXiXiXqXqXqXqXqXVXqXiXiXiXkXiXiXiXiXiXiXiXkXcXcXcXkXkXkXkXkXkXkXkXcXkXkXkXkXkXkXkXkXkXkXkXkXkXkXkXzXzXzXzXkXkXkXkXzXzXzXzXzXzXzXzXmXmXzXzXzXzXmXmXzXzXzXzXzXzXzXzXzXzXzXzXlXlXpXyXyXtXtXyXyXyXyXyXyXyXpXpXpXzXzXzXCXCXCXCXZXCXZXCXZXZXGXDXGXGXGXGXDXZXZXDXDXDXDXDXDXZXZXDXDXDXDXZXZXZXZXZXCXCXZXZXZXZXZXZXZXZXZXZXZXZXZXZXZXZXZXZXZXCXZXZXCXZXDXZX-X,.4.,.<.<.<.<.<.<.5.5.<.<.<.1.<.<.5.5.5.5.5.5.5.5.6.6.6.6.6.v.b.6.6.<.-.&.&.7.>XAXCXCXZXCXCXZXCXCXZXZXZXZXZXGXZXZXZXZXZXZXZXZXZXZXZXZXZXDXDXDXDXZXDXZXZXZXZXZXZXZXZXZXZXDXZXZXZXZXZXZXZXZXZXZXZXZXZXZXZXZXZXZXZXZXAXAXAXZXZXZXZXZXZXZX",
"S 9 1 < 1 1 < 1 1 1 1 : < 1 1 < 1 : 1 8 1 B N N N z.2XE.^.^.Q.^.^.^.^.^.^.^.^.^.^.^.^.2X2X2X2X2X2X2X2X2X2X2X2X2X2X2X2X2X2X2X2X1X2X2X2X2X2X2X2X2X2X2X2X2X2X2X3X2X2X2X2X2X2X2X2X2X2X2X2X3X3X3X3X3X3X3X3X3X3X3X3X3X3X3X3X3X3X3X3X3X3X3X3X3X3X3X3X3X3X3X3X3X5X5X5X5X4X4X4X4X3X4X4X4X5X5X5X8X8X8X8X8X8X8X8X8X8X6X6X6X6X6X6X0X9X9X6X6X6X6X9X6X0X0X0X0X9X9X9X9X9X9X0X0X0X0X0XqX9X9X9X9X9X9XqX9X9X9XqX1XZ Z G.iX9XiXiXwXN.p.d.X.N 9 s.lXzXkXiXiXqXqXiXiXiXiXqXqXqXqXiXiXiXiXiXiXkXcXVXiXiXiXiXkXkXkXkXkXcXcXkXkXkXkXcXcXkXkXkXkXkXkXkXkXkXkXkXkXkXkXkXkXzXzXkXkXbXbXzXzXmXzXmXmXzXzXmXmXzXzXzXzXzXzXzXzXzXzXzXzXzXmXGXGXzXzXzXkXzXpXyXyXyXyXyXyXyXpXpXpXjXjXzXzXlXzXzXCXCXCXCXCXCXZXZXZXZXZXGXDXGXGXGXGXZXZXZXDXDXDXDXDXDXDXDXDXDXDXDXZXZXZXCXCXCXCXZXZXZXZXZXZXZXZXZXZXZXZXZXZXZXZXZXZXGXCXCXZXZXZXDXZXhX3.4.,.5.,.<.<.<.5.5.5.<.<.<.<.<.<.5.5.5.5.5.6.5.5.5.5.6.6.v.v.v.6.r.5.-.&.-.7.<XAXCXCXZXCXCXZXCXZXZXZXZXZXZXGXZXZXZXZXZXZXZXZXZXZXZXZXDXDXDXZXZXZXZXZXZXZXZXZXZXZXZXZXZXZXZXZXZXZXZXZXZXZXZXZXZXZXZXZXZXZXZXZXZXZXAXAXAXZXZXZXZXZXZXZX",
"H M 8 < 1 1 1 1 1 1 1 1 1 1 < : 1 ; < 8 1 : 1 N N ' E.R./.^.^.2X^.^.^.^.^.^.^.^.2X2X2X2X2X2X2X2X2X2X2X2X2X2X2X2X2X2X2X2X2X2X2X2X2X2X2X2X2X2X2X2X2X2X2X2X3X3X3X2X2X2X2X2X2X2X2X2X2X2X3X3X3X3X3X3X3X3X3X3X3X3X3X3X3X3X3X3X3X3X3X3X3X3X3X3X3X3X3X3X3X3X3X3X5X5X5X4X4X4X4X4X4X4X4X4X8X8X8X8X8X6X6X8X6X6X8X8X6X6X6X6X6X6X6X9X9X9X9X9X6X6X0X0X0X0X0X0X0X9X0X0X0X0X0X0XqXqXqXqX9XqXqXqX9X9XqX9X9X9XqX6X' N g.wXtXiXiXwXz.' M.#X` 9 B.CXzXkXiXiXiXqXiXiXiXiXqXqXqXqXiXkXiXiXiXiXcXVXVXVXiXiXiXkXkXkXkXkXkXkXkXkXkXkXkXkXkXkXkXkXkXkXkXkXkXkXkXkXkXkXkXkXzXzXkXzXzXzXzXzXzXzXzXzXzXzXmXzXzXzXzXzXzXzXzXzXzXzXzXzXzXzXGXGXzXzXkXiXyXyXyXyXyXyXyXyXpXpXpXpXlXlXlXlXCXCXCXZXCXCXCXCXZXZXZXZXZXZXGXDXDXGXGXDXZXZXZXZXZXZXZXZXDXDXDXDXDXDXZXZXZXCXCXCXCXZXZXZXZXZXZXZXZXZXZXZXCXZXZXZXZXZXZXZXZXCXCXCXZXZXCXZXAX'.4.,.5.,.<.<.<.<.5.5.<.<.<.<.<.5.5.5.5.5.5.6.<.5.5.5.6.6.v.v.6.6.r.6.-.-.-.7.hXAXCXCXZXCXCXZXZXZXZXZXZXZXGXGXZXZXZXZXZXZXZXZXZXZXZXZXZXZXZXZXZXZXZXZXZXZXZXZXZXZXZXZXZXZXZXZXAXAXZXZXZXZXZXAXZXZXZXZXZXZXZXZXZXZXAXAXAXZXZXAXZXZXZXZX",
"H Z m 8 1 1 1 : 1 1 1 1 1 1 1 1 1 < < 1 1 : 1 8 N N z.R.^.^.2X!.^.^.^.^.^.^.^.^.2X2X2X2X2X2X2X2X2X2X2X2X2X2X2X2X2X2X2X2X2X2X2X2X2X2X2X2X2X2X2X2X2X2X2X2X3X3X3X3X3X3X3X3X3X3X3X3X3X3X3X3X3X3X3X3X3X3X3X3X3X3X3X4X3X3X3X3X3X3X3X3X4X4X4X4X6X6X6X6X8X3X3X3X5X5X5X4X4X4X4X4X6X8X8X8X8X8X5X6X6X6X8X8X8X8X8X8X6X6X6X6X9X9X9X9X9X9X9X9X9X9X9X9X0X0X0X0X9X9X9X9X9X9X9X9X9X9X9XqX9X9X9X9X0X9XqX9X0X9XqX9Xz.N ' S.wXiXiXwXH B Z +.' 9 `.uXzXkXiXiXiXqXiXiXiXiXiXqXqXiXkXkXiXiXiXkXiXiXcXiXiXkXkXkXkXkXkXkXkXkXkXkXkXkXkXkXkXkXkXkXkXkXkXkXkXkXkXzXkXkXkXkXzXzXkXkXzXmXmXzXzXzXzXzXzXzXzXzXzXzXGXGXmXmXzXzXzXzXzXzXzXzXGXGXzXlXpXiXyXyXyXyXyXpXpXjXlXzXzXzXCXCXCXCXCXZXZXZXCXCXCXZXZXZXZXZXZXZXZXZXZXDXDXGXZXZXZXZXZXZXZXZXDXDXDXDXDXZXZXZXCXCXCXZXZXZXZXZXZXZXZXCXZXZXCXCXCXCXCXCXCXCXCXCXCXZXCXCXCXCXCXCXZX=X3.,.,.,.5.,.<.<.5.5.<.<.<.<.<.<.5.5.5.5.5.5.5.5.5.6.6.6.6.6.6.6.6.6.-.-.-.;XAXCXCXCXZXCXCXZXZXZXZXZXZXZXZXZXZXZXZXZXZXZXZXZXZXZXAXZXZXZXZXZXZXZXZXZXZXZXZXZXAXAXZXZXZXZXZXZXAXAXZXZXZXZXZXZXZXZXZXCXZXZXZXZXZXZXAXAXAXAXAXAXZXZXZXZX",
"H H M 9 1 1 1 : : : : 1 1 1 < 1 : < < 1 1 1 1 1 N N ' R.Q.R.3XE.^.^.^.^.^.^.^.^.2X2X2X2X2X2X2X2X2X2X2X2X2X2X2X2X2X2X2X2X2X2X2X2X2X2X2X2X2X2X2X2X2X2X2X2X3X3X3X3X3X3X3X3X3X3X3X3X3X3X3X3X3X3X3X3X3X3X3X3X3X3X3X4X3X3X3X3X3X3X3X3X4X4X4X4X6X6X6X6X8X3X3X3X5X5X5X4X4X4X4X4X8X8X8X8X8X5X5X6X6X6X8X6X8X8X8X8X6X6X6X6X9X9X9X9X9X9X9X9X9X9X9X9X0X0X0X0X9X9X9X9X9X9X9X9X9X9X9XqXqX9X9XqX9X9XqX9XqX9XqXqXS.N N { #XwXkXwXH N B N m 8 `.uXzXzXiXiXiXqXiXiXiXiXiXiXkXkXkXkXiXcXiXkXiXcXcXiXiXkXkXkXkXkXkXkXkXkXkXkXkXkXkXkXkXkXkXkXkXkXkXkXkXkXkXzXzXzXkXkXzXzXzXzXmXmXmXmXzXzXzXzXzXzXzXzXCXGXGXGXGXGXGXCXmXzXzXzXzXzXCXGXzXlXpXyXyXyXyXyXpXzXjXlXlXCXGXGXCXCXCXCXCXCXCXCXCXCXCXCXZXZXZXZXZXZXZXZXZXZXDXDXZXZXZXZXZXZXZXZXZXZXZXZXZXZXZXCXCXCXZXZXZXZXZXZXCXCXCXCXCXCXCXCXCXCXCXCXCXCXCXCXlXZXCXCXCXCXCXZXCXhX3.,.,.,.5.,.<.<.5.5.<.<.<.<.<.<.5.5.5.5.5.5.5.5.6.6.6.6.6.6.6.6.6.1.-.-.<.>XAXCXCXAXZXCXzXZXZXZXZXZXZXZXZXZXZXZXZXZXZXZXZXZXZXZXCXZXZXZXZXZXZXZXZXZXZXZXZXZXAXAXZXZXZXZXZXZXAXAXAXZXZXZXZXAXZXZXCXCXZXZXZXZXZXZXAXAXAXAXAXAXZXZXZXZX",
"S H H 9 1 8 1 : B m m N N 1 : < ; : < 1 1 1 1 1 8 N N g.2X5XQ.~.2X2X2X2X2X2X2X2X2X2X2X2X2X3X2X2X2X2X2X2X2X2X2X2X2X2X2X2X2X2X1X1X2X2X2X2X3X3X3X3X3X3X3X3X3X3X3X3X3X3X3X3X3X3X3X3X3X3X3X3X3X3X3X3X3X3X3X3X5X5X5X5X3X3X3X3X3X5X5X5X3X3X3X3X4X4X4X4X4X4X4X4X4X4X4X4X6X6X6X6X6X6X6X6X6X6X6X6X6X6X6X6X8X8X6X6X6X9X0X0X6X0X7X0X0X0X0X0X0X0X0X0XqXqXqXqX9XqXqXqX9X9X9X9XqX9X9X9X9X9XqXqXqXqXqXqXqXqX0X0XA.N M H g. XwXwXH N B N N 9 `.jXGXtXtXkXiXqXkXiXiXiXiXiXiXiXkXiXkXkXkXkXkXiXkXkXkXkXkXkXkXkXkXkXkXkXkXkXkXkXkXkXkXkXkXkXkXkXkXzXzXzXkXzXzXzXzXzXzXzXzXzXzXzXzXzXmXzXzXmXGXGXGXGXZXGXGXGXGXZXZXCXCXCXCXCXCXCXzXlXlXjXlXjXjXpXpXpXjXzXlXzXlXCXCXCXCXCXCXCXCXCXCXCXCXCXCXZXZXZXZXZXZXZXZXZXZXZXZXZXZXZXZXZXZXZXZXZXZXZXZXZXZXZXZXZXCXCXCXCXCXCXZXZXCXCXCXCXCXCXCXCXCXCXCXCXCXCXCXCXCXCXCXCXCXCXCXCXGXZXc.4.,.,.,.<.,.<.5.5.<.<.<.<.<.<.5.5.6.5.5.5.5.5.5.5.6.6.6.6.v.6.6.6.&.-.6.<XCXCXCXAXAXAXCXCXCXCXZXZXZXZXZXZXZXZXZXCXCXZXZXZXZXAXAXCXZXZXZXZXAXAXAXZXAXAXAXAXAXAXZXZXZXZXZXAXCXCXCXAXAXAXZXAXZXAXAXAXAXAXZXZXZXZXAXZXZXZXZXZXCXCXAXZX",
"K H m ; 8 1 : 1 m N.%X{ N m m : ; : < 1 1 1 1 1 1 B N ' T.2XQ./.2X2X2X2X2X2X2X2X2X2X2X2X2X3X2X2X2X2X2X2X2X2X2X2X2X2X2X2X1X2X1X1X2X2X2X3X3X3X3X3X3X3X3X3X3X3X3X3X3X3X3X3X3X3X3X3X3X3X3X3X3X3X3X3X3X3X3X3X5X5X5X5X3X3X3X3X3X3X5X5X3X3X3X4X4X4X4X4X4X4X4X4X4X4X4X4X6X6X6X6X6X6X6X6X6X6X6X6X6X6X6X6X6X6X6X6X9X9X9X9X0X0X0X0X0X0X0X0X0X0X0XqXqXqXqXqX9X9XqXqX9X9X9X9X9X9X9X9XqX9XqXqXqXqXqXqXqXqX0X0Xg.N Z H ' { tXiX' B N N N m B.jXSXiXtXiXiXkXkXqXiXiXiXiXiXkXiXiXkXkXkXkXkXkXkXkXkXkXkXkXkXkXkXkXkXkXkXkXkXkXkXkXkXkXkXkXzXzXkXkXzXzXzXzXzXzXzXzXzXzXzXzXzXzXzXzXzXzXzXzXzXGXCXGXZXZXZXGXZXZXZXCXCXzXlXzXCXCXzXlXlXlXlXlXlXlXlXlXjXzXlXzXlXCXCXCXlXlXCXCXCXCXCXCXCXCXCXZXCXZXZXZXZXZXZXZXZXZXZXZXZXZXZXZXZXZXZXZXZXZXZXZXZXCXCXCXCXCXCXCXCXCXZXZXCXCXCXCXCXCXCXCXCXCXCXCXCXCXCXCXlXCXCXCXCXCXCXCXCXCX-X4.,.,.<.<.<.<.5.5.<.<.<.<.<.<.5.5.5.5.5.5.5.5.5.5.6.6.6.6.6.6.{.6.-.-.;XIXCXCXCXCXAXAXCXCXCXCXCXZXZXZXZXZXZXZXZXCXCXZXZXZXZXAXAXAXZXZXZXZXAXAXAXAXZXZXAXAXAXAXZXZXZXZXAXAXCXCXCXAXAXAXAXAXAXAXAXCXCXAXAXAXAXAXAXCXCXZXCXCXCXCXAXZX",
"H H 9 1 1 ; 1 M H g.%XS.Z 1 1 : ; : < 1 < 1 1 1 1 1 N B l.2XQ.5X2X2X2X2X2X2X2X2X2X2X2X2X3X2X2X2X2X2X2X2X2X2X2X3X2X2X2X2X2X2X2X2X3X3X3X3X3X3X3X3X3X3X3X3X3X3X3X3X3X3X3X3X3X3X3X3X3X3X3X3X3X3X3X3X3X3X3X3X3X3X5X5X3X3X3X3X3X3X3X4X4X4X3X4X4X4X4X4X4X4X4X4X4X4X4X6X6X6X6X6X6X6X6X6X9X9X6X6X6X6X6X6X6X6X6X9X9X9X9X9X9X9X9X9X9X9X0X9X9X9X9X9XqXqXqXqX9X9X9X9X9X9X9X9X9X9X9XqXqXqXqXqXqXqXqXqXqXqXqXqX1XZ N M H z.zXmXz.B B N 8 9 ` '.yXtXiXiXqXkXkXqXiXiXiXiXiXiXiXiXkXiXkXkXiXkXkXkXkXkXkXkXkXkXkXkXkXkXkXkXkXkXkXkXzXzXzXzXzXzXzXzXzXzXzXzXzXzXzXzXzXzXzXzXzXzXzXzXzXzXzXzXlXzXGXGXCXZXZXZXZXZXCXCXzXzXlXzXzXCXzXlXlXlXlXlXzXzXzXzXjXjXlXlXzXzXCXCXlXlXCXCXCXCXCXCXCXCXCXCXCXCXCXCXCXCXCXCXZXZXZXZXZXZXZXZXZXZXZXZXZXZXCXCXCXCXCXCXCXCXCXCXCXCXCXCXCXCXCXCXCXCXCXCXCXCXlXCXlXlXCXCXlXCXCXCXCXCXCXCXzXCXhXc.4.5.5.<.<.<.5.5.5.<.<.<.<.<.5.5.5.5.5.5.5.5.5.5.6.6.6.6.6.6.{.6.-.-.<XAXCXCXCXCXCXCXAXCXCXCXCXCXAXAXZXAXZXZXAXZXCXCXZXZXZXAXAXAXZXZXZXZXAXAXAXAXCXAXAXAXAXAXAXAXAXAXAXCXCXCXCXCXAXAXAXAXAXCXCXCXCXCXCXAXAXCXCXCXCXCXCXCXCXCXCXZX",
"H Z < 1 8 } { Z H Z p.%XN.M 1 8 : < < 1 < 1 1 1 < 9 B N ' E.2X3X2X2X2X2X2X2X2X2X2X2X2X2X2X3X3X3X2X2X2X2X3X2X3X3X2X2X2X2X3X3X3X3X3X3X3X3X3X3X3X3X3X3X3X3X3X3X3X3X3X3X3X3X3X3X3X3X3X3X3X3X3X3X3X3X3X3X3X3X3X5X5X5X4X4X4X4X4X3X3X4X4X6X6X6X4X6X6X4X4X4X4X4X6X6X6X6X6X6X6X6X6X6X9X6X9X9X9X9X9X9X9X9X9X9X9X9X9X9X9X9X9X9X9X9X9X9X9X9X9X9X9X9X9X9X9XqX9X9X9X9X9X9XqXqX9X9XqXqXqXqXqXqXqXqXqXqXqXqXqXqX1X' N N ' p.wXFXS.B B B N M M H m.&XiXkXqXqXkXkXiXiXiXiXkXkXiXiXiXkXkXkXkXkXkXkXkXkXkXkXkXkXkXkXkXkXkXkXkXbXmXzXmXmXmXmXmXzXGXCXzXzXmXGXGXGXmXzXzXzXzXzXzXzXzXzXzXzXzXzXzXCXCXGXCXCXCXCXCXCXCXCXlXlXlXlXCXCXlXlXlXlXlXlXzXlXlXlXjXlXlXlXlXlXlXCXlXlXlXCXCXCXCXCXCXCXCXCXCXCXCXCXCXCXCXCXCXCXCXCXCXCXCXCXCXCXCXCXCXCXCXCXCXCXCXCXCXCXCXCXCXCXCXCXCXlXlXlXlXCXCXCXlXlXlXlXlXlXlXCXlXlXCXCXCXCXCXCXzXCXZX-X4.,.5.<.<.<.5.5.5.5.<.<.<.<.5.5.5.5.5.5.5.5.5.5.6.6.6.6.6.6.6.6.-.6.IXAXCXCXCXCXCXCXAXAXCXCXCXCXCXCXCXCXAXAXAXZXCXCXCXCXAXAXAXAXCXCXCXZXAXAXAXCXCXCXCXCXAXAXAXAXAXAXCXCXCXCXCXCXAXAXAXCXCXCXAXCXCXCXCXCXAXCXCXCXCXCXCXAXCXCXCXCX",
"Z Z 8 < 9 `.*X{ H Z ' N.M.H 1 1 : : 1 < < < < 1 < 8 1 N N g.3X^.2X2X2X2X2X2X3X3X2X2X2X3X3X3X3X3X2X2X2X2X3X3X3X3X3X3X3X3X3X3X3X3X3X3X3X3X3X3X3X3X1X1X1X3X3X3X3X4X3X3X3X3X3X3X5X5X3X3X3X3X5X5X5X5X3X3X3X3X4X4X4X4X4X4X4X3X4X4X4X4X4X4X6X6X6X4X4X6X4X4X4X6X9X9X9X9X6X6X9X9X9X9X6X9X9X9X9X9X9X9X9X9X9X9X9X9X9X9X9XqX9X9X9X9X9X9X9X9X9X9X9X9X9XqXqXqX9X9X9X9XqXqXqXqXqXqXqXqXqXqXqXqXqXqXqXqXqXqXqXqXqXg.' B N.wXg.+XS.B N B m H Z M ' oXiXkXqXqXiXkXkXiXiXkXiXiXiXkXkXkXkXkXkXkXkXkXkXkXkXkXkXkXkXkXkXkXkXkXzXzXzXzXmXGXGXGXGXGXGXGXGXGXGXGXGXGXGXCXzXzXzXzXzXzXzXzXzXCXzXlXCXCXZXZXCXCXCXCXCXCXCXCXlXlXlXlXlXlXlXlXlXlXlXlXlXlXjXjXlXlXlXlXlXlXlXlXlXlXlXlXCXCXCXCXCXCXCXCXCXCXCXCXCXCXCXCXCXCXCXCXCXCXCXCXCXCXCXCXCXCXCXCXCXCXCXCXCXCXCXCXCXCXCXCXlXlXlXlXlXlXlXlXlXlXlXlXlXCXCXCXlXlXCXCXCXCXlXCXlXlXZXhXc.4.,.5.5.5.5.5.5.5.5.5.<.5.5.5.5.5.5.5.5.5.5.6.6.6.6.6.6.6.b.6.*.>XAXCXCXCXCXCXCXCXCXCXAXAXAXAXCXCXCXCXCXCXCXCXCXCXCXCXCXCXAXAXCXCXCXZXCXCXCXCXCXCXCXCXCXCXCXAXAXAXAXCXCXCXCXCXCXCXCXCXCXCXAXAXCXCXCXAXCXCXCXCXCXCXCXCXCXCXCXCX",
"' N m 9 M K OXm.H Z m m Z 9 ; 1 1 < < < < < < < 1 1 8 B N ' 1X2X2X2X2X2X3X3X3X3X3X3X3X3X3X3X3X3X2X2X3X3X3X3X3X3X3X3X3X3X3X3X3X3X3X3X3X3X3X3X3X3X1X3X3X3X3X3X3X4X3X3X3X3X5X5X5X5X3X3X3X3X3X5X5X5X3X3X3X4X4X4X4X4X4X6X4X4X4X4X4X4X6X4X4X6X6X6X6X6X4X6X6X6X9X9X9X9X9X9X9X9X9X9X9X9X9X9X9X9X9X9X9X9X9X9X9X9XqXqXqXqX9X9X9X9XqXqXqXqXqXqXqXqXqXqXqXqXqXqXqXqXqXqXqXqXqXqXqXqXqXqXqXiXqXqXqXiXqXqXqXqXqXqX+XN z.iXN.wXS.N N B N H H Z } oXiXkXiXiXiXiXkXkXkXkXiXkXkXkXkXkXkXkXkXkXkXkXkXkXkXkXkXzXzXzXzXzXzXzXzXzXzXzXCXCXGXZXGXGXGXGXZXZXZXGXGXGXZXZXCXCXCXCXCXCXCXCXCXCXCXCXCXCXCXZXCXCXCXCXCXCXCXlXlXlXlXlXlXlXlXlXlXlXlXlXlXlXlXlXjXjXlXlXlXlXlXlXlXlXlXlXlXlXCXCXCXCXCXCXCXCXCXCXCXCXCXCXCXCXCXCXCXCXCXCXCXCXCXCXCXCXCXCXCXCXCXCXCXCXCXCXCXCXlXlXlXlXlXlXlXlXlXlXlXlXlXlXlXlXCXCXlXlXlXCXCXCXlXCXlXlXCXAX'.4.,.5.<.5.5.5.5.5.5.<.<.5.5.5.5.5.5.5.5.5.6.6.6.6.6.6.6.v.;X6.<.<XhXCXCXCXCXCXCXCXCXCXAXCXCXCXCXCXCXCXCXCXCXCXCXCXCXCXCXCXAXAXCXCXCXCXCXCXCXCXCXCXCXCXCXAXAXAXCXCXCXCXCXCXCXCXCXCXCXCXCXCXCXAXCXCXCXCXCXCXCXCXCXCXCXCXCXCXCXCX",
"@X' 1 9 Z 9 ` ` H M 1 : ; ; ; 8 1 1 1 < < < < 1 1 1 8 8 N N g.1X2X2X3X3X3X3X3X3X3X3X3X3X3X3X3X3X3X3X3X3X3X3X3X3X3X3X3X3X3X3X3X3X1X3X3X3X3X4X3X3X3X3X3X3X3X3X4X4X3X3X3X3X3X3X4X4X5X5X5X5X5X5X5X5X3X3X3X3X4X4X4X4X4X3X6X6X4X6X6X6X6X6X6X6X6X6X9X9X6X6X6X9X9X9X9X9X9X9X9X9X9X9X9X9X9X9X9X9X9X9X9X9X9X9X9X9XqXqXqXqXqXqXqXqXqXqXqXqXqXqXqXqXqXqXqXqXqXqXqXqXqXqXqXqXqXqXqXqXqXqXiXiXiXiXiXiXqXqXqXqXqXqX4XZ ' mXiXtXS.N N B B Z ' M X.XXtXiXkXkXqXiXkXkXkXkXiXkXkXkXkXkXkXkXkXkXkXkXkXkXkXzXzXzXzXzXzXzXzXzXzXlXlXzXCXCXCXCXZXZXZXZXZXZXZXZXZXZXZXZXZXZXCXCXCXCXCXCXCXCXCXCXCXCXCXCXCXCXCXCXlXlXlXlXlXlXjXlXlXlXlXjXlXlXlXlXlXlXlXlXlXlXlXlXlXlXCXCXlXlXlXlXlXlXlXlXlXlXlXlXCXCXCXCXCXCXCXCXlXlXlXlXlXlXlXCXCXlXlXlXlXlXlXCXCXCXCXCXCXCXCXCXCXCXlXlXlXlXlXlXlXlXlXlXlXlXlXlXlXCXCXCXlXlXlXlXCXCXlXCXlXlXCXCX=Xc.,.,.<.<.<.5.5.5.5.<.<.<.5.5.5.5.5.5.5.5.6.6.6.6.6.6.6.v.b.5.v.hXhXCXCXCXCXCXCXCXCXCXCXCXCXCXCXCXCXCXCXCXCXCXCXCXCXCXCXCXAXAXCXCXCXCXCXCXCXCXCXCXCXCXCXCXCXCXCXCXCXCXCXCXCXCXCXCXCXCXCXCXCXCXCXCXCXCXCXCXCXCXCXCXCXCXCXCXCXCX",
"+XN.N 9 4 m m M M 8 < < ; 1 8 ; 1 < < < < < < < 1 1 1 m N N Z E.2X3X3X3X3X3X3X3X3X3X3X3X3X3X3X3X3X3X3X3X3X3X3X3X3X3X3X3X3X3X3X3X3X3X3X3X4X4X4X4X1X1X1X1X3X3X4X4X3X4X3X3X3X4X4X4X5X4X5X5X5X5X5X5X4X3X3X3X4X4X4X4X4X3X3X6X6X6X8X6X6X6X6X6X6X9X9X9X6X9X9X9X9X9X9X9X9X9X9X9X9X9X9X9X9X9X9X9X9X9X9X9X9X9X9XqXqXqXqXqXqXqXqXqXqXqXqXqXqXqXqXqXqXqXqXqXqXqXqXqXqXqXqXqXqXqXqXqXqXqXiXiXiXiXiXiXqXqXqXqXiX9XkXz.Z wXkX%XS.B B B N Z ' M { XXtXiXiXiXqXiXkXkXkXkXkXkXkXkXkXkXkXkXkXkXkXkXzXzXzXzXmXmXmXmXzXzXCXCXCXCXCXCXCXCXCXCXCXZXZXZXZXZXCXCXCXZXZXZXCXCXCXCXCXCXCXlXlXCXCXCXCXCXCXCXCXCXCXCXjXjXjXjXlXjXjXjXjXjXyXyXlXlXpXpXpXlXlXlXlXlXlXlXlXlXCXCXlXlXlXlXlXlXlXlXlXlXlXlXCXCXCXCXlXlXlXlXlXlXlXlXlXlXlXlXlXlXlXlXlXlXlXlXCXCXCXCXCXCXCXlXlXlXlXlXlXlXlXlXlXlXlXlXlXlXlXlXlXCXCXCXlXlXlXlXCXlXlXCXlXCXCXCXuXc.c.,.<.<.<.5.5.5.5.<.<.<.5.5.5.5.5.5.5.5.6.6.6.6.6.6.v.v.6.*.>XIXhXjXCXCXCXCXCXCXCXCXCXCXCXCXCXCXCXCXCXCXCXCXCXCXCXCXCXCXAXAXCXCXCXCXCXCXCXCXCXCXCXCXCXCXCXCXCXCXCXCXCXCXCXCXCXCXCXCXCXCXCXCXCXCXCXCXCXCXCXlXlXlXCXCXCXCXCXCX",
"1Xg.N 9 8 ; m 1 9 1 < 1 1 1 1 ; 1 1 1 1 < : < 1 1 < < 9 m B Z z.0XE.0X2X2X3X4X1X3X3X3X3X3X3X3X5X3X3X3X3X3X3X3X3X3X3X3X3X3X3X3X3X3X3X3X3X3X3X3X3X6X3X4X4X3X3X3X3X3X3X3X3X4X4X4X4X4X4X4X5X4X4X4X4X4X4X4X4X4X4X4X4X4X4X4X4X6X6X6X6X6X6X9X9X9X9X9X0X9X9X9X9X9X9X9X9X9X9X9X9X9X9X9X9X9X9X9X9X9X9X9X9XqXqXqXqXqXqXqXqXqXqXqXqXqXqXqXqXqXqXqXiXqXqXqXqXqXqXqXiXqXqXqXqXqXqXqXqXqXqXqXqXqXqXqXqXiXiXqXqXqXkXkXg.Z %XiXwX.XN B B B ' M M ' S.iXiXiXiXiXiXiXiXiXiXiXkXkXkXiXiXkXzXzXzXzXzXGXGXGXGXGXGXGXGXCXCXCXCXCXlXlXzXlXCXCXCXCXCXCXCXCXCXCXCXCXCXZXZXCXCXCXCXCXCXCXlXjXCXCXCXCXCXCXCXlXlXlXlXlXlXlXlXpXpXpXpXjXjXlXlXzXzXpXjXjXzXzXzXlXlXlXlXlXlXlXlXlXlXlXlXlXlXlXlXlXlXlXlXCXCXCXCXlXlXlXlXlXCXCXCXlXlXlXlXlXlXlXCXlXCXlXlXCXCXCXCXCXCXCXCXCXCXCXCXlXlXlXlXlXlXlXlXlXlXlXlXlXlXlXlXlXlXlXlXlXlXlXlXlXCXCXlXCX$X,.,.<.,.<.<.5.5.5.5.<.<.5.5.5.5.5.5.5.5.6.6.6.6.6.6.{.v.1.5.hXAXAXCXCXCXCXCXCXCXCXAXCXCXCXCXCXCXCXCXCXCXCXCXCXCXCXCXCXCXCXCXCXCXCXCXCXCXCXCXCXCXCXCXCXCXCXCXCXCXCXCXCXCXCXCXCXCXCXCXCXCXlXlXjXjXjXlXlXlXCXlXjXlXlXCXlXlXlXlX",
"1Xg.B 8 Z 1 < m 9 8 1 < ; ; 1 1 1 1 1 < < < < < < < 4 8 m N N ' E.gX3X1X3X5X2X3X3X3X3X3X3X3X3X5X3X3X3X3X3X3X3X3X3X3X3X3X3X3X3X3X3X3X3X4X3X3X3X4X3X3X4X4X3X3X3X3X3X3X3X3X4X4X4X4X4X4X4X5X4X4X4X4X4X4X4X4X4X4X4X4X4X4X4X4X6X6X6X6X6X6X9X9X9X9X9X9X9X9X9X9X9X9X9X9X9X9X9X9X9X9X9X9X9X9X9X9X9X9X9XqXqXqXqXqXqXqXqXqXqXqXqXqXqXqXqXqXqXqXqXiXqXqXqXqXqXqXiXiXqXqXqXqXqXqXqXqXqXqXqXqXqXqXqXiXiXiXiXiXqXiXkXN.N S.iXtX.XN N N 1 Z M B m ' S.iXqXkXiXiXiXiXiXkXkXkXzXkXkXkXzXzXzXzXzXzXGXCXGXGXGXGXGXCXCXCXCXCXCXlXlXzXlXlXCXCXCXCXCXCXCXCXCXCXCXCXCXCXCXCXCXCXCXCXCXlXlXlXlXCXlXlXlXlXlXlXlXpXlXlXlXlXpXpXpXpXpXpXpXpXpXpXpXpXjXlXzXzXlXlXlXlXlXlXlXlXlXlXlXlXlXlXlXlXlXlXlXlXlXlXCXCXlXlXlXlXlXlXCXCXlXlXlXlXlXlXlXCXlXCXlXlXCXCXCXCXlXlXlXlXlXlXlXlXlXlXlXlXlXlXlXlXlXlXlXlXlXlXlXlXlXlXlXlXlXlXlXlXlXCXpXCXlX=Xc.,.<.<.<.<.5.5.5.<.5.<.5.5.5.5.5.5.6.6.6.6.6.6.6.v.{.v.6.;XhXAXCXCXlXCXlXlXCXCXCXCXCXCXCXCXCXCXCXCXlXCXCXCXCXCXCXCXlXlXlXlXlXlXlXlXCXlXCXCXCXCXCXCXCXCXCXCXCXCXCXCXCXCXCXCXlXlXCXCXjXjXjXuXuXuXjXjXjXlXjXjXpXjXjXlXlXlXlXlX",
"1XG.Z 1 ' H 1 < 4 < < 1 ; < 1 < < < < < < < < 1 < 8 8 9 m m N N z.gX1X2X4X5X2X4X3X3X3X3X3X3X5X5X3X3X3X3X3X3X3X3X3X3X3X3X3X3X3X3X4X4X4X4X3X4X4X4X3X4X4X4X4X4X4X4X3X3X4X4X4X4X6X6X4X4X5X5X4X4X4X4X4X4X6X6X5X4X5X5X4X4X6X6X6X6X9X9X6X6X6X9X9X9X9X9X9X9X9X9X9X9XqXqX9X9X9X9X9X9X9X9X9X9X9X9X9XqXqXqXqXqXqXqXqXqXqXqXqXqXqXqXqXqXqXqXqXqXqXqXqXqXqXqXqXqXiXqXqXqXqXqXqXqXqXiXiXiXiXiXiXiXiXiXiXiXiXiXiXiXiXS.N z.iXiXS.N B N B M M 1 N N z.iXiXmXkXiXiXiXiXkXzXzXzXlXzXzXzXzXzXlXzXCXZXZXZXCXCXCXCXCXCXCXCXCXCXCXCXCXlXlXCXCXCXCXCXCXCXCXCXCXCXCXCXCXCXCXCXCXCXCXCXlXlXlXlXlXlXlXlXlXpXpXpXpXyXyXyXyXyXyXyXyXyXyXyXyXpXpXzXpXpXpXlXlXjXjXjXjXjXjXlXlXlXlXlXlXlXlXlXlXlXlXlXlXlXlXlXlXlXlXlXlXlXlXlXlXlXlXlXlXlXlXlXlXlXlXlXlXlXlXlXCXlXlXlXlXlXlXlXlXlXlXlXlXlXlXlXlXlXlXlXlXlXlXlXlXlXlXlXlXlXlXlXlXlXCXuXCXpXhX].,.,.,.<.<.5.5.<.<.5.5.5.5.5.5.5.6.5.5.5.5.5.6.6.v.v.6.v.<XAXCXCXCXlXCXCXCXCXCXCXCXCXCXCXCXCXlXlXlXlXlXlXlXlXlXlXlXjXjXjXjXlXlXlXlXlXjXjXjXjXjXjXjXCXCXCXjXjXjXjXjXjXjXjXjXjXjXjXjXuXuXuXuXyXyXuXjXjXjXjXjXuXuXjXjXjXjXjXjX",
"~.3XA.N Z ' 8 < 1 : < 1 < 1 1 ; ; : ; < < 1 1 1 1 m 9 9 m M m N Z G.1X3X4X5X2X5X3X3X3X3X4X4X4X5X3X3X3X3X3X3X3X3X3X3X3X3X3X3X4X4X4X4X4X4X4X4X4X4X4X4X4X4X6X6X6X8X4X4X4X4X6X6X6X6X4X4X4X6X6X4X4X4X4X6X6X6X8X5X5X6X6X6X6X6X9X9X9X9X6X6X9X9X9X9X9X9X9X9X9X9X9X9X9XqX9XqX9X9X9XqXqXqX9X9X9XqXqXqXqXqXqXqXqXqXqXqXqXqXqXqXqXqXqXqXqXqXqXqXqXqXqXqXqXqXiXiXiXiXqXqXiXiXiXiXiXiXiXiXiXiXiXiXiXiXiXiXiXiXiXiXiX+XZ ' iXpXS.m B 1 B m M N M m ' wXiXkXiXkXiXiXkXzXzXzXzXzXlXlXzXzXzXzXCXCXCXCXCXCXCXCXCXCXCXCXCXCXCXCXCXCXlXlXlXCXCXCXCXCXCXCXCXCXCXCXCXCXCXCXCXCXCXCXCXlXlXlXlXlXpXpXpXyXyXyXyXyXyXyXyXyXyXyXyXyXyXyXyXyXyXyXyXpXpXpXpXpXyXyXyXpXpXjXlXjXjXlXlXlXlXlXlXlXlXlXlXlXlXlXlXlXlXlXlXlXlXlXlXlXlXlXlXlXlXlXlXlXlXlXlXlXlXlXlXCXlXlXlXlXlXlXlXlXlXlXlXlXlXlXlXlXlXlXlXlXlXlXlXlXlXlXlXlXlXlXlXlXCXjXjXCXpXCX=X3.,.,.<.<.5.<.<.<.5.5.5.5.5.5.5.6.5.5.5.<.5.6.6.6.6.5.{.AXCXCXCXCXjXjXlXlXlXjXjXjXlXlXlXlXlXjXjXjXjXjXjXjXlXjXjXjXpXjXjXjXjXjXjXjXjXjXjXuXjXjXjXuXjXjXjXjXuXuXuXuXuXuXuXuXuXuXuXuXuXuXuXuXyXyXjXjXjXjXjXyXyXyXyXjXjXjXjXjX",
"3X3X1Xz.H m : 8 8 1 1 1 : ; 1 < : ; < < 1 1 1 8 8 m 8 8 m m m M N z.4X5X5X5X5X4X3X3X3X3X4X3X3X3X3X3X3X3X4X4X4X4X3X3X4X4X4X4X4X4X4X4X3X4X4X4X4X4X4X4X4X5X6X8X8X8X4X4X4X4X4X4X5X8X4X4X6X6X6X6X4X4X6X6X6X6X6X6X6X6X6X6X6X6X9X6X9X9X9X9X9X9X9X9X9X9X9X9X9X9X9X9XqXqXqXqXqXqXqXqXqXqXqXqXqXqXqXqXqXqXqXqXqXqXqXqXqXqXqXqXqXqXqXqXqXqXqXqXqXqXiXiXqXqXiXiXqXqXiXiXiXiXiXiXiXiXiXiXiXiXiXiXiXiXiXiXiXiXiXiXpXtX' Z %XiX.Xz.' B B N m N M N Z S.iXiXiXzXkXkXzXzXzXzXzXlXlXlXlXlXlXCXCXCXCXCXCXCXCXCXCXCXCXCXCXCXCXlXCXCXlXlXlXlXCXCXCXCXCXCXCXCXCXCXCXCXCXCXCXCXCXCXlXlXlXlXlXpXyXyXyXyXyXyXyXyXyXyXyXyXyXyXyXyXyXyXyXyXyXyXyXyXyXyXyXpXyXyXyXyXyXyXpXpXjXjXjXlXlXlXlXjXjXlXlXlXlXlXlXlXlXlXlXlXlXlXlXlXlXlXlXlXlXlXlXlXlXlXlXlXlXlXlXlXlXlXlXlXlXlXlXlXlXlXlXlXlXlXlXlXlXlXlXlXlXlXlXlXlXlXlXlXlXlXlXlXlXuXCXjXjXCXhXc.,.,.,.<.<.5.5.<.5.<.<.5.5.5.5.5.5.5.5.5.6.6.6.6.v.6.hXAXuXCXjXCXlXlXlXlXlXjXjXyXlXlXlXlXlXlXlXjXjXjXlXlXlXlXjXjXjXjXjXjXjXjXjXjXjXjXjXjXjXjXuXuXpXpXpXpXuXuXuXuXuXuXuXyXyXyXyXyXyXuXjXjXyXyXjXjXjXjXjXyXyXyXyXjXyXyXyXyX",
"/.Q.7X1Xg.' B 1 1 : 1 8 1 : : 1 : ; < 1 1 8 8 8 8 8 8 9 m 8 8 M N Z G.4X5X5X5X3X3X3X3X3X4X3X3X5X4X4X4X4X4X4X4X4X4X4X4X4X4X4X4X4X4X4X3X4X4X4X4X4X4X5X4X4X6X6X4X4X4X4X4X4X6X5X5X8X4X6X6X6X6X6X6X4X6X6X6X6X9X9X6X6X6X6X6X6X9X9X9X9X9X9X9X9X9X9X9X9X9X9X9X9X9X9XqXqXqXqXqXqXqXqXqXqXqXqXqXqXqXqXwXwXqXqXqXqXqXqXqXqXqXqXqXqXqXqXqXqXqXqXqXqXiXiXqXqXiXiXiXiXiXiXiXiXiXiXiXiXiXiXiXiXiXiXiXiXiXiXiXiXpXiXzXpXg.N S.iX XS.N.m 8 m m N M m m h.zXzXzXkXkXlXlXlXzXzXlXlXlXlXlXlXlXlXCXCXCXCXCXCXCXCXCXCXCXCXCXCXCXCXCXCXlXCXCXlXCXCXCXCXCXCXCXCXCXCXCXCXCXCXCXCXCXlXlXlXlXpXyXyXyXyXyXyXyXyXyXyXuXuXtXtXyXyXyXyXtXtXyXyXyXyXyXyXyXyXyXyXyXyXyXyXyXyXpXpXjXjXjXjXjXjXjXjXjXjXjXjXjXlXlXlXlXlXlXlXlXlXlXlXlXlXlXlXlXlXlXlXlXlXlXlXlXlXlXlXlXlXlXlXlXlXlXlXlXlXlXlXlXlXlXlXlXlXlXlXlXlXlXlXlXlXlXlXlXjXlXlXlXuXCXpXjXjXhX-X4.,.,.<.<.5.5.5.<.,.,.<.5.5.5.5.5.5.6.6.6.6.6.6.v.{.AXjXlXCXlXpXlXlXlXlXlXjXjXjXjXjXlXlXlXlXlXlXpXjXlXlXlXlXlXlXyXjXlXlXlXlXyXyXjXjXjXjXuXuXuXuXyXyXyXuXuXuXuXuXyXyXyXyXyXyXyXyXyXyXyXyXyXyXyXjXyXyXyXyXtXtXyXyXyXyXyXyX",
"/.^.8X6X1XG.z.' Z 1 1 1 1 : : : : ; : 1 8 9 8 1 8 8 8 8 m m 9 m m N z.1X5X3X5X3X3X5X4X4X3X3X5X5X4X4X4X4X4X4X4X4X4X4X4X4X4X4X4X4X4X4X4X4X8X8X8X8X4X4X4X4X4X4X4X4X4X4X6X6X6X6X8X8X6X6X6X6X6X6X6X6X6X6X6X6X9X9X9X9X6X6X6X9X9X9X9X9X9X9X9X9X9X9X9X9X9X9X9X9X9XqXqXqX9X9X9XqXqXqXqXqXqXqXqXqXqXqXqXqXqXqXqXqXqXqXqXqXqXqXqXqXqXqXqXqXqXqXqXiXqXqXqXqXiXiXiXiXiXiXiXiXiXiXiXiXiXiXiXiXiXiXkXkXpXpXpXpXzXpXzXzX@XN g.iX.X{ p.N 1 m m m M M Z +XmXmXzXlXzXzXzXzXzXzXlXlXzXzXlXlXlXlXlXlXlXlXlXCXCXCXlXlXCXCXCXCXCXCXCXCXCXCXCXCXCXCXCXCXCXCXCXCXCXCXCXCXlXlXlXlXlXlXlXpXyXyXuXuXyXyXyXyXyXyXyXyXuXtXtXtXtXtXtXtXtXtXtXtXtXtXyXyXyXyXyXyXyXyXyXyXyXyXpXpXyXjXjXjXjXjXjXjXjXjXjXjXjXjXjXjXjXjXjXjXjXjXjXjXlXlXlXlXjXjXjXjXlXlXlXlXlXlXlXlXlXlXjXlXlXlXlXlXlXlXlXlXlXlXlXlXlXlXlXlXlXlXjXjXjXjXlXlXjXjXjXjXjXuXCXlXjXlXhX=Xc.4.,.<.5.5.5.5.<.,.,.5.5.5.5.5.5.5.5.5.6.6.6.6.v.=XhXuXpXuXyXyXjXjXjXjXuXuXuXuXuXyXjXjXlXjXjXjXyXpXpXlXlXjXjXpXyXyXpXpXyXyXuXuXjXyXyXyXyXyXuXrXuXuXuXuXuXuXuXuXyXyXyXyXyXyXyXyXrXyXyXyXyXtXyXyXyXyXyXuXtXtXtXyXtXtXtXtX",
"3X3X^.~.1X4X1X1XS.Z : : 1 1 : : 1 ; : 1 9 m 8 1 4 9 8 8 m M m m m N Z 1XgX3X3X4X3X5X3X3X3X5X5X5X4X4X4X4X4X4X4X4X4X4X4X4X4X4X4X4X4X4X4X4X8X8X8X8X6X6X6X4X4X4X4X4X4X6X6X6X6X6X8X8X6X6X6X6X6X6X6X6X6X6X6X6X9X9X9X9X9X9X6X6X6X9X9X9X9X9X9X9X9X9X9X9X9X9X9X9X9XqXqXqX9X9XqXqXqXqXqXqXqXqXqXqXqXqXqXiXqXqXqXqXqXqXqXqXqXqXqXqXqXqXqXqXqXqXqXiXiXqXqXqXiXiXiXiXiXiXiXiXiXiXiXiXiXiXkXkXkXkXkXkXpXzXzXzXmXzXzXzXwXM z.iX%XN Z 1 1 m m N m M ' zXzXzXzXlXzXzXlXpXlXlXlXlXjXjXjXpXjXjXpXjXpXlXlXlXlXlXlXlXCXCXCXCXCXCXCXCXCXCXCXCXCXCXCXCXCXCXCXCXCXCXCXCXlXlXlXlXlXlXpXpXyXyXuXuXuXyXyXyXuXuXuXtXtXtXtXtXtXtXtXtXtXtXtXtXtXtXtXyXyXyXyXyXyXyXyXyXyXyXpXpXyXyXjXjXjXjXjXjXpXpXjXjXjXjXjXjXjXjXjXjXjXjXjXjXlXlXlXlXjXjXjXjXlXlXjXjXjXlXlXlXjXjXjXjXjXjXjXjXlXlXlXlXCXlXlXlXlXlXlXlXlXjXjXjXjXjXjXjXjXjXjXjXjXjXuXCXuXCXhXhXc.4.4.<.5.5.5.5.5.5.5.5.5.5.5.6.6.5.5.5.6.6.6.6.v.hX-X*XrX*X*X*XrXtXrXrXrXrXrXrXuXuXyXyXyXyXjXjXyXuXyXpXpXpXpXpXyXyXyXyXyXuXrXrXyXyXtXrXrXrXrXrXtXtXtXtXtXtXuXuXtXyXyXtXrXrXyXyXrXyXyXyXtXtXtXtXyXyXuXtXtXrXtXuXtXtXtXtX",
"3X2X2X2X2X2X2X3X1XA.Z : 1 1 : 1 1 ; ; ; < 9 m 1 8 m M m m M M M m M m z.9X4X4X5X4X3X3X3X4X4X4X4X4X4X4X4X4X4X4X4X8X8X8X8X5X5X5X5X4X4X4X4X4X4X4X4X4X6X6X6X6X9X9X9X4X6X6X6X6X6X6X6X6X6X6X6X6X6X6X6X8X6X6X6X9X9X9X9X9X9X6X6X6X9X9X0X9X9X9X9XqXqX9X9X9X9X9X9X9XqXqXqX9XqXqXqXqXqXqXqXqXqXqXqXqXqXqXqXqXqXqXqXqXqXqXqXqXqXqXqXqXqXqXqXqXqXqXiXiXiXiXiXiXiXiXiXiXiXiXiXpXpXzXzXzXzXzXzXzXzXzXzXzXzXzXzXzXzXzXzXiXZ H #X&XM m 8 8 N m 8 m M ' +XiXGXyXzXjXjXjXjXjXjXpXpXjXjXjXjXjXjXyXyXjXjXlXlXlXlXlXlXlXlXlXlXCXlXCXCXCXCXCXCXCXCXCXCXCXCXCXlXlXlXlXlXlXlXjXlXlXlXyXuXyXyXyXtXtXtXtXtXtXtXtXtXtXtXtXtXtXtXtXtXtXtXtXtXtXtXtXuXyXyXyXyXyXyXyXyXyXyXjXjXyXjXjXjXjXjXjXjXpXpXpXjXpXjXjXjXjXjXjXjXjXjXjXjXjXjXjXjXjXjXjXjXjXjXjXjXjXlXlXjXjXjXjXjXjXjXjXjXjXjXjXjXjXjXjXjXjXjXjXjXjXjXjXjXpXpXpXpXpXjXjXjXjXjXjXjXjXlXCXCX=X3.,.,.<.5.5.5.5.5.5.5.5.5.5.5.5.5.6.5.6.6.6.6.=X=X*X%X%X%X%X%X%X%X*X*X*X%X*X*X%X*XeXeXrXtXyXyXyXyXyXyXyXyXyXyXtXtXtXtXtXtXtXrXtXtXtXtXtXtXtXtXrXrXtXtXtXtXyXyXyXyXtXtXtXtXtXtXtXtXtXtXtXtXtXtXyXtXyXyXyXtXtXtXrXrXrXrX",
"3X2X3X2X2X2X2X3X4X1XA.Z 1 1 1 ; : ; 1 1 < 1 m Z 8 m M M M M M M M M N ' F.gX4X5X4X3X3X3X4X4X4X4X4X4X4X4X4X4X4X4X5X8X8X8X8X5X5X5X4X4X4X4X4X4X4X6X6X6X6X6X6X9X6X9X6X6X6X6X6X6X6X6X6X6X6X9X6X6X6X6X6X6X6X6X9X9X9X9X9X9X9X9X9X9X9X0X9X9X9X9XqXqX9X9X9X9X9X9XqXqXqXqXqXqXqXqX9XqXqXqXwXwXqXqXqXqXqXqXqXqXqXqXqXqXqXqXqXqXqXqXqXqXqXqXqXqXqXiXiXiXiXiXiXiXiXiXkXzXzXzXzXzXzXzXzXzXzXzXzXzXCXzXlXzXzXzXzXlXpXpXzXg.Z S.%Xm 1 1 N m m M Z M Z ' N.yXpXpXpXpXpXpXpXjXjXjXjXjXjXyXyXyXyXyXjXjXjXjXlXlXlXlXlXlXlXlXlXlXlXlXCXCXCXCXCXCXCXCXCXCXCXlXlXlXlXlXlXjXjXjXjXpXyXyXtXtXtXtXtXtXtXtXtXtXtXtXtXtXtXtXtXtXtXtXtXtXtXtXrXrXtXtXtXuXuXuXuXuXuXuXyXyXyXyXyXjXjXjXjXjXjXjXpXpXpXjXjXjXjXjXjXjXjXjXjXjXjXjXjXjXjXjXjXjXjXjXjXjXjXjXjXjXlXlXjXjXjXjXjXjXjXjXjXjXjXCXjXjXjXjXjXjXjXjXjXjXjXjXuXuXuXjXjXjXjXjXjXjXlXlXlXpXpXuX=Xc.4.5.5.5.5.5.5.5.5.5.5.5.5.5.6.5.5.6.6.6.6.v.=X*X*X%X%X%X%X%X%X%X%X%X%X%X%X%X%X%X%X%XeXeXeXeX%XeXeXeXeXeX%X%X%X%X%X%X%X%X%X%X%X%X%X%X%X%X%X%X%X%X%X%X%X*X*X*X*X*X*X*X%X%X%X%X%X%X%XeXeXeXeXeXrXrXtXtXtXtXtXtXrXrXrXrX",
"3X3X3X3X3X3X3X3X2X6X6Xg.N 1 1 < : < < < < : 9 H 8 9 M M M M M M M m m M z.gX7X5X4X4X4X4X4X4X4X6X4X4X4X4X4X4X4X4X8X8X8X8X8X8X5X5X4X4X4X4X4X6X6X6X6X6X6X9X6X6X6X6X6X6X6X9X6X9X9X9X6X6X9X9X6X6X6X6X6X6X6X9X9X9X9X9X9X9X9X9X9X9X9X9X9X9X9X9XqXqXqXqX9X9XqX9XqXqXwXwXqXqXqXqXqXqXqXqXqXqXqXqXqXqXqXqXqXqXqXqXqXqXqXqXqXiXqXqXqXiXiXiXiXiXiXiXiXiXiXiXiXiXkXzXzXzXzXGXlXCXCXCXCXCXCXCXCXCXCXCXlXlXlXlXlXlXpXpXGXeXZ g.%XN 1 N B N M p.a.p.' Z { rXpXrXyXyXyXpXpXpXjXjXyXyXyXyXyXyXyXyXjXjXjXjXjXjXjXlXjXjXlXlXlXlXjXjXCXCXCXCXCXjXjXjXjXCXCXlXlXjXjXlXjXjXuXuXyXyXuXuXtXtXtXtXtXtXtXtXtXtXtXtXtXtXtXtXtXtXtXtXtXtXtXtXrXtXrXuXuXuXuXuXuXyXyXyXyXyXyXyXuXuXjXjXjXjXjXjXpXpXpXpXpXjXjXjXjXjXjXjXjXjXjXjXjXjXjXjXjXjXjXjXjXjXjXjXjXjXjXjXjXjXjXjXjXjXjXjXCXjXjXjXjXjXjXjXjXjXjXjXjXjXjXjXuXjXjXjXjXjXjXjXjXjXjXjXuXtXrXeXuX$X4.5.5.5.5.5.5.5.5.5.5.5.5.5.5.5.5.6.6.5.v.-X*X*X%X%X%X%X%X%X%X%X%X%X%X%X%X%X%X%X%X%X%X%X%X%X%X%X%X%X%X%X%X%X&X#X#X&X%X%X&X#X+X&X&X&X%X%X%X%X&X&X&X&X%X%X%X%X%X%X%X%X%X%X%X%X&X%X%X%X%X%X%X%X%X%X%X%X%X%XeXeXeXeXeXeX",
"3X3X3X3X3X3X3X3X3X~.4X1Xz.N : 1 1 1 : : 1 1 1 m 8 8 m M M M M M M M M m Z G.gX4X4X4X4X4X4X6X6X6X4X5X5X4X4X4X4X4X4X4X4X4X4X4X5X5X4X4X4X6X6X6X6X6X6X6X6X9X6X9X9X9X9X9X9X6X6X9X9X9X9X6X9X9X9X9X9X9X6X6X9X9X9X9X9X9X9X9X9X9X9X9X9X9X9X9XqX9XqXqXqXqX9X9X9XqXqXqXqXqXqXqXqXqXqXqXqXqXqXqXqXqXqXqXqXqXqXqXqXqXiXiXqXqXqXiXiXiXiXiXiXiXiXiXiXiXiXiXzXkXzXzXzXzXzXzXCXCXCXCXCXCXCXCXCXCXCXCXCXCXCXCXCXCXCXlXCXzXzXpX{ { M.N N m 8 m H OXCXtXS.' p.rXzXlXyXyXyXyXpXpXpXpXyXyXyXyXyXyXyXyXuXjXjXjXjXjXjXjXpXjXjXjXjXjXjXjXjXjXjXjXjXjXjXjXjXjXCXlXjXjXuXyXuXyXuXrXrXrXtXrXtXtXtXtXtXtXtXtXtXtXtXtXtXtXtXtXrXtXtXtXtXtXtXtXrXrXrXuXuXuXuXuXyXyXyXyXyXyXyXyXuXuXuXjXjXjXuXuXuXuXuXuXuXpXpXpXjXjXjXjXjXjXjXjXjXjXjXjXjXjXjXjXpXpXjXjXjXjXjXjXjXjXjXjXjXjXjXjXjXjXjXuXuXjXjXjXjXjXjXjXjXjXjXjXjXjXjXjXjXjXjXjXjXuXrXrX*XeX*XeX=X-X4.,.5.,.5.,.5.5.5.5.<.5.5.5.5.5.5.5.5.4.].=X%X%X%X%X%X%X%X#X%X%X#X#X%X%X%X%X%X%X%X%X%X%X%X%X%X%X%X%X%X%X+X+X#X#X+X#X#X#X#X#X+X+X+X#X&X&X&X&X&X&X&X&X&X%X%X%X%X%X&X&X&X&X%X%X&X%X%X%X%X%X%X%X%X%X%X%X%X%X%X%X%X%XwXwX",
"3X3X3X3X3X3X3X3X7X/.2X0X1Xz.B : 1 1 1 1 8 1 1 1 m 8 8 m M M M M M M M m m { 1X4X4X4X4X4X4X4X8X8X4X4X4X4X4X4X4X4X8X5X5X5X8X8X8X8X6X6X6X6X6X6X6X6X6X6X6X6X9X9X9X9X6X6X6X9X9X9X9X9X9X9X9X9X9X9X9X9X9X9X9X9X9X9X9X9X9X9X9X9X9X9X9X9X9XqXqX9XwXwXwXwX9XqXqXqXqXqXqXqXqXqXqXqXqXqXqXqXqXqXqXqXqXqXqXqXiXqXqXiXqXqXqXqXiXqXiXiXiXiXiXiXkXkXkXkXzXzXzXzXzXzXzXlXlXlXCXCXCXCXCXCXCXCXCXCXCXCXCXCXCXCXCXCXCXpXCXlXyXyXM.Z a.m 1 8 8 Z ' #XpXpXpXeXtXzXyXrXpXyXyXyXyXyXyXyXyXyXyXyXyXyXyXyXuXuXyXyXjXjXjXjXpXpXpXjXjXjXjXjXjXjXjXjXjXjXjXjXuXjXjXjXlXjXyXyXyXuXrXrXrXrXrXrXtXtXtXtXtXtXtXtXtXtXtXtXtXtXtXtXtXtXtXtXtXrXtXtXtXtXrXrXrXuXuXuXuXyXyXyXyXyXyXyXuXyXuXuXuXuXyXuXuXuXpXpXpXpXjXjXpXpXpXjXpXjXjXjXpXpXpXpXjXjXjXpXjXjXpXpXjXjXjXjXpXpXpXjXjXjXpXpXpXpXpXpXjXjXjXjXjXjXjXjXjXjXjXjXjXjXuXjXjXuXuXuXrXrXeX*X%X*X*X*X*X-Xc.4.5.,.5.,.5.5.5.5.5.5.5.5.5.6.6.5.4.c.-X%X%X&X&X&X%X#X#X#X#X#X#X#X#X#X#X#X+X+X+X#X#X#X%X%X+X+X+X+X+X@X@X@X+X+X+X+X+X+X+X+X@X+X+X+X+X+X+X+X+X+X+X+X#X#X&X&X#X#X#X#X#X#X#X#X%X%X%X%X%X%X%X%X%X%X%X%X%X%X%X%X%X%X%X%X",
"4X4X4X4X4X4X4X3X1X7X3X1XqX1X' 1 : 1 1 1 1 1 1 1 9 8 1 8 M M M M M M M m M M S.9X4X4X4X4X8X8X8X8X8X8X8X8X8X8X8X8X5X5X5X5X8X8X8X8X6X6X6X9X6X6X6X6X9X9X6X6X9X9X9X9X6X6X9X9X9X9X9X9X9X9X9X9X9X9X9X9X9X9X9X9X9X9X9X9XqXqXqXqXqXqX9X9X9X9X9XqXqXwXwXwXqXqXqXqXqXqXqXqXqXqXqXqXqXqXqXqXqXqXqXqXqXqXqXqXtXiXiXiXqXiXiXiXiXiXiXiXiXiXiXiXkXkXzXzXzXzXzXzXlXlXlXlXlXlXlXCXCXCXCXCXCXCXCXCXCXCXCXCXCXCXCXCXCXyXlXCXlXlX%Xm Z B 1 8 1 Z X.eXzXyXlXtXyXyXpXCXyXyXyXyXyXyXyXtXtXtXyXyXyXyXyXyXuXuXuXyXuXjXjXuXuXuXpXpXjXjXjXuXuXjXjXjXjXjXjXuXuXuXjXjXjXyXuXuXuXuXrXrXtXtXrXrXtXtXtXtXtXtXtXtXtXtXtXtXtXtXtXtXtXtXtXrXrXrXtXtXtXtXrXrXuXuXuXuXyXyXyXyXyXyXyXyXuXyXyXuXuXuXuXuXuXpXpXpXjXjXjXjXpXpXpXjXpXjXjXjXpXpXpXpXjXjXjXjXuXuXpXpXpXpXjXjXpXpXjXjXjXjXpXpXpXjXjXjXjXjXjXpXuXuXuXuXuXuXuXuXuXuXuXuXuXtXrXrX*X*X*X*XeXeX*X*X*X*X'.4.4.,.,.4.5.5.5.5.5.5.5.5.4.4.3.c.'.-X*X+X%X&X#X#X#X#X#X#X+X+X+X+X+X+X+X+X+X+X+X+X+X+X+X+X+X+X+X@X@X@X@X+X@X@X@X@X@X@X@X@X@X@X@X@X+X+X+X+X+X+X+X+X+X+X+X+X+X+X+X+X+X+X+X+X#X&X%X%X%X%X%X%X%X%X#X+X+X+X+X+X%X%X%X%X",
"4X4X4X4X4X4X4X4X1X4X8X2X4XqXG.' 1 1 : 1 1 1 1 1 8 8 8 8 m M M M M Z M M M N { 1X4X4X5X5X8X8X8X8X6X6X6X8X8X8X6X6X8X6X6X6X8X8X8X8X6X9X9X9X6X9X9X9X9X9X6X9X9X9X9X9X6X6X6X9X9X9X9X9X9X9X9X9X9X9X9X9X9X9X9X9X9X9X9X9XqXqXqXqXqXqXqX9X9X9XqXqXwXwXwXqXqXqXqXqXqXqXqXwXqXqXqXqXqXqXqXqXtXqXqXqXiXiXiXiXiXiXiXiXqXiXiXiXiXiXiXiXtXiXiXiXpXlXzXlXlXlXlXlXjXlXjXlXjXjXCXCXCXCXCXCXCXCXCXCXCXCXCXCXCXCXCXjXCXuXpXlXlXCXrXZ 1 m 8 m 8 M a.pXyXtXzXyXlXyXyXyXyXyXyXyXtXyXtXtXtXtXtXyXyXyXyXyXuXuXuXuXuXjXjXuXuXuXpXpXpXpXpXpXuXuXjXjXjXjXjXjXjXuXuXuXuXuXuXyXuXuXuXuXuXuXtXrXrXrXtXrXtXtXtXtXtXtXtXtXtXtXtXtXtXtXtXtXtXtXtXtXtXtXtXrXrXtXtXuXtXtXuXyXyXyXyXyXuXuXyXuXuXuXuXuXyXuXuXuXpXpXjXjXpXpXpXpXjXjXjXjXpXpXpXpXjXjXjXjXuXuXuXpXpXpXpXpXpXpXpXjXjXjXpXpXuXjXjXjXjXuXyXuXrXrXrXrXrXrXeXeXeXeXrXrXrXrXeXeX%X%X%X%XwX%XeX*X%X*X$Xc.4.4.,.4.4.4.,.,.5.5.4.4.c.c.).].-X*X%X+X#X#X#X#X+X+X+X+X+X+X+X+X+X+X+X+X+X+X+X+X+X@X@X@X@X@X@X@X@X@X+X+XXX@X@X@X@X@X@X+X+X+X+X+X+X+X+X+X+X+X+X+X+X+X+X%X+X+X+X+X+X+X+X+X+X+X#X%X%X%X%X%X%X%X+X+X+X+X#X#X+X%X%X%X",
"4X4X4X4X6X4X4X4X9X1X7XaX1X4X9XG.Z 1 : 1 1 1 1 1 1 8 8 8 m M M M m M M M M M m S.4X8X5X8X8X8X8X8X6X6X6X8X8X8X6X6X6X6X6X6X6X8X8X8X9X9X9X9X9X9X9X9X9X9X6X9X9X9X9X9X6X6X6X9X9X9X9X9X9X9X9X9X9X9X9X9X9X9X9X9X9X9X9X9XqXqXqXqXqXqXqX9XqXqXqXqXqXqXqXqXqXqXqXqXqXqXqXqXqXqXqXqXqXqXqXiXtXtXtXtXiXiXqXqXiXiXiXiXiXiXiXiXiXiXiXtXiXiXiXtXyXyXpXzXlXlXpXpXjXjXlXjXjXjXCXCXCXCXCXCXCXCXCXCXCXCXlXlXCXCXCXCXCXpXCXlXyXZXrX` 1 m 1 m N M p.eXpXyXzXeXyXpXpXtXyXyXyXyXtXtXyXyXtXtXtXtXyXyXyXyXuXuXuXuXuXyXjXjXuXuXpXuXpXpXpXpXuXuXjXjXjXjXjXjXjXjXuXuXyXyXyXyXuXrXrXuXuXtXrXrXrXrXrXrXtXtXtXtXrXrXrXrXrXrXtXtXrXrXrXeXeX*XeX*X*X*X*XeXeXeXrXrXeXeXrXrXrXtXtXtXuXuXyXyXyXyXuXuXuXuXuXyXyXuXuXuXuXuXuXpXpXpXuXuXuXpXpXpXuXuXuXpXpXuXuXuXpXpXpXpXuXuXuXuXpXpXuXuXyXyXpXpXyXuXrXrX*X*X*X%X%X%X%X%X%X%X*X*XeXeX*X*XeX%X%X%X%X%XeXeX%X*X-Xc.c.c.,.c.4.4.4.,.4.4.4.4.c.].-X*X&XOXOX%X#X#X#X#X+X+X+X+X+X+X+X+X+X+X+X+X+X+X+X+X+X+X+X+X@X.X@X.X@X@X@X@X.X@X@X@X@X@X@X+X@X@X+X+X+X+X+X+X+X@X@X@X+X+X+X+X+X+X+X+X+X+X+X+X#X#X%X%X+X+X+X+X#X#X+X+X+X#X%X%X%X%X%X#X",
"6X6X6X6X6X6X6X4X4X4X4X4X4X4X4X4X+XZ 1 < 1 : 8 1 1 1 8 9 8 m Z M M M M M M M Z ' 5X5X7X7X5X8X6X4X4X6X6X6X6X9X6X6X6X6X6X6X9X9X6X6X6X6X6X6X6X6X6X6X9X9X9X9X9X9X9X9X9X9X9X9X9X9X9X9X9X9X9X9X9X9X9X9X9X9X9X9X9XwXiXiXiXiXiXiXiXiXqXwXwXwXqXqXqXqXqXqXqXqXqXqXqXqXqXqXtXtXtXtXtXiXiXtXqXqXiXiXiXiXiXiXiXiXiXiXiXiXiXiXiXiXiXiXiXiXiXiXiXyXiXpXyXpXpXjXjXjXjXjXjXlXCXCXCXCXCXCXCXCXCXCXCXCXCXCXCXCXCXCXjXlXpXuXCXCXuX+.1 1 m 8 8 M X.*XrXuXuXuXyXyXyXyXuXtXtXtXtXtXtXtXrXrXtXtXtXuXyXyXyXyXyXyXyXyXyXyXuXuXpXpXyXyXpXjXuXuXjXjXjXjXjXjXjXjXuXuXuXuXrXrXuXuXrXrXrXrXrXrXrXrXrXrXrXrXrX*XrXtXtXrXtXtXrXeX*X*X*X*X*X%X%X%XeXeXeX%XeXeXeXeX%X%X%XeXeXeXeXeXeXeXeXrXrXrXeXeX*X*X*XrXtXtXyXyXyXyXuXuXuXuXuXuXuXuXyXyXyXyXjXjXjXjXjXjXjXjXjXjXyXyXjXjXyXyXyXyXyXyXuXrXrX*X*X*X%X%X%X%X%X%X%X%X%X%X%XeXeX%X%X%XeXwX%X%X%X%X%XeX%X%X#X$Xc.4.4.6.4.4.c.c.'.$XOX-X+X+X+X+X#X#X#X#X+X+X+X+X+X+X+X@X@X+X+X+X+X+X+X+X+X+X+X+X+X+X@X@X@X@X@X@X@X@X@X@X@X@X@X@X@X@X@X@X+X+X+X+X+X+X+X+X@X@X+X+X+X+X+X+X+X+X+X+X+X+X+X+X+X+X+X+X+X+X+X+X+X+X+X+X+X+X+X+X+X+X#X%X",
"6X6X6X6X6X6X4X4X4X4X4X4X4X4X4X4XwXg.9 < 1 1 : 1 1 1 8 9 8 8 M Z M M M Z M M M Z F.0X7X8X5X7X4X4X6X6X6X6X6X9X6X6X6X6X6X9X9X9X9X9X6X6X6X9X9X9X9X9X9X9X9X9X9X9X9X9X9X9X9X9X9X9X9X9X9X9X9X9X9X9X9X9X9XqXqX9XqXwXiXiXiXiXiXiXiXtXqXwXqXqXqXqXqXqXqXqXqXiXqXiXiXiXqXqXtXtXtXtXiXiXiXtXqXqXiXiXiXiXtXtXiXiXiXiXiXiXiXiXiXiXiXiXiXiXiXiXyXyXyXyXyXyXpXjXjXjXjXjXjXlXCXCXCXCXCXCXjXjXCXCXCXCXCXCXCXCXCXCXjXCXuXyXjXuXrX{ 1 8 M 9 8 M X.eXrXtXuXyXuXuXyXuXtXtXtXtXtXtXtXtXtXtXtXtXtXuXyXyXuXuXyXyXyXyXyXyXuXuXuXuXyXuXpXpXuXuXuXuXuXjXjXjXuXuXyXuXuXuXrXrXrXrXrXrXrXrXrXrXrXrXrXrXrXrXtXtXtXtXtXeXeX*X*X*X%X%X*X*X%X%X%X%X%XeXeX%X%X%XeXeX%X%X%XeXeXeXeXeX*X*X*XeXeXeXeX*X*X*X%X*XeXeXeXeXeX*X*X*XrXrXrXrXrXrXrXtXtXtXuXuXuXuXrXrXuXyXyXyXyXyXyXyXyXuXtXrXeX*X*X*X*X%X%X%X%X%X%X%X%X%X*X%X%X%X*XeXeXeX%X%XwXwX%X%X%X%X%X%X%XwX%XoXx.3.3.c.c.'.'.$XOXOXOX#X#X#X#X#X#XOX#X#X+X+X+X+X+X+X@X@X@X@X+X+X+X+X+X+X@X@X+X+X+X@X@X@X@X@X@X@X@X.X@X@X@X@X@X@X@X@X@X@X@X+X+X+X+X+X+X+X@X@X+X+X+X+X+X+X+X+X+X+X+X+X+X+X+X+X+X+X+X+X+X+X+X+X+X+X+X+X+X+X+X+X+X+X",
"4X4X4X4X4X4X4X4X4X4X6X6X4X4X1X1X9XS.9 < 1 1 : < 1 1 1 8 8 8 9 Z M M M M M M m M z.4X7X5X5X7X6X9X6X6X6X9X6X9X6X6X6X6X6X9X9X9X9X9X9X9X6X9X9X9X9X9X9X9X9X9X9X9X9X9X9X9X9X9X9X9X9X9X9X9X9X9X9XqXqXqX9XqXqXqXtXiXtXtXtXtXiXiXiXtXtXqXtXqXiXqXqXqXqXqXqXqXqXqXiXiXiXiXqXqXiXqXiXiXiXiXiXqXiXiXiXtXiXtXiXpXiXiXiXiXpXiXpXiXiXiXtXtXtXtXtXtXyXuXyXpXpXlXjXjXlXjXpXpXlXlXCXCXCXCXpXuXpXjXCXCXCXCXCXCXpXuXuXlXyXuXuXuXuX' 1 8 M m 9 H +.rXrXrXrXtXuXuXtXtXtXtXtXtXtXtXtXtXrXrXtXtXtXuXyXyXuXuXyXyXyXyXyXyXuXuXuXuXuXuXuXuXuXuXuXuXuXuXuXuXuXuXuXuXrXrXrXrXrXrXrXrXrXrXrXrXrXrXrXrXrXrXtXtXrXeXeX%X%X%X%X%X%X%X%X%X%X%X%X%X%X%X%X%X%X%XeXeX%X%X%XeXeXeXeXeXeX%X%X%X%X%X%X%XeXeX%XeXeXeXeX%X%X%X%X%X%X%X*X*X*X*X*X*X*XeXeXeXeX*X*X*X*XrXrXrXuXuXrXrXrXeX*X*X%X%X%X%X%X%X%X%X%X%X%X%X%X%X%X%X%X%X%X*X%X%X%X%X%X%X%X%X%X%X%X%X%X%X%X#XoX`.`.'.OXOXOX#X&X#X#X#X+X+X+X+X+X+X+X+X+X+X+X+X@X@X@X@X@X@X@X+X+X+X+X+X@X@X@X@X@X@X@X.X@X@X@X@X.X.X.X@X@X@X@X@X@X@X@X@X@X@X@X@X@X@X@X@X@X@X+X+X+X@X+X+X+X+X+X+X+X+X+X+X+X+X+X+X+X+X+X@X+X+X+X+X+X+X+X+X+X+X+X+X",
"4X4X4X4X4X4XgXgX6X9X9X4X4X1X1X1X1Xz.1 1 < 1 8 < < 1 1 1 8 8 8 M M M M M Z M M M Z A.0X5X8X7X6XqX6X6X9X9X6X9X9X9X6X9X9X9X9X9X9X9X9X9X6X9X9X9X9X9X9X9X9X9X9X9X9X9X9X9X9X9XqXqXqXqXwXqXqXqXqXqXqXqXwXiXtXiXtXiXtXiXtXtXyXyXyXtXtXtXtXtXtXiXtXqXqXqXqXqXqXqXiXiXiXiXqXqXqXiXiXiXiXiXiXiXiXiXiXiXiXpXzXzXzXzXzXzXlXpXkXiXyXtXtXtXtXtXtXtXtXyXyXpXpXlXlXlXlXlXjXpXpXpXjXjXjXjXjXjXjXjXjXjXjXjXjXjXuXuXuXpXuXyXuXrXyXH 1 8 m 8 8 H +.rXrXrXrXtXtXtXtXtXtXtXtXtXtXtXtXtXtXtXtXuXuXuXyXyXuXyXyXyXuXyXyXyXyXuXuXuXyXuXuXuXuXuXuXyXyXuXuXuXrXrXrXrXrXrXrXrXrXrXrXrXrXrXrXrXtXrXrXrXeX*X*X*X%X%X%X%X%X%X%X%X%X%X%X%X%X%X%X%XwXwX%X%X%XwXeXeXeXeXeXeXeXeXeXeXeXeX%X%X%X%X%X%XeXeXeXeXeXeXeXeX%X%X%X%X%X%XeXeX*X*X*X*X%X%X%X%X%X%X%X%X%X*X*XeX*X*X*X*X%X%X%X%X%X%X%X%X%X%X%X%X%X%X%X%X%X%X%X%X%X%X%X%X%X%X%X%X%X%X%X%X%X%X%X%X#X%X%X%X#X#X#X#X#X+X+X+X+X+X+X+X+X+X+X@X+X+X+X+X+X+X+X+X+X+X+X+X@X@X@X@X+X@X@X@X.X@X@X@X@X@X@X.X@X.X.X.X.X.X.X.X.X.X@X@X@X@X@X@X@X@X@X@X@X@X@X@X@X@X@X+X+X@X@X@X@X+X+X+X+X+X+X@X+X@X@X+X+X+X+X@X+X+X+X+X+X+X+X+X+X+X+X+X",
"4X4X4X4XgX9X9X9X6X9X9X6X4X1X1X~.1Xz.Z < 1 1 9 < : 1 1 1 8 9 8 9 M M Z M Z M M M M ' 4X5X7X8X9X9X6X6X6X6X9X9X9X9X9X9X9X9X9X9X9X9X9X9X9X9X9X9X9X9X9X9X9X9X9X9XqX9X9XqXwXwXwXqXqXqXqXqXtXtXiXiXiXiXtXiXiXtXiXiXtXtXtXtXyXyXyXyXiXtXtXtXtXtXtXqXqXqXqXiXiXiXiXiXiXiXqXqXqXtXiXiXiXiXiXiXiXiXiXpXlXzXzXzXzXzXzXzXzXpXpXyXyXtXtXtXtXyXtXtXyXyXpXpXlXlXlXlXlXjXjXpXpXpXpXpXpXpXjXlXlXlXjXpXpXpXuXuXuXuXyXuXuXuXrXrXrXH 8 8 8 8 8 ' j.eXrXrXrXtXtXtXtXrXtXtXtXtXtXtXtXtXtXtXtXtXtXuXyXyXyXyXyXyXyXyXuXuXyXuXuXuXuXuXuXyXyXyXuXuXuXuXrXrXrXrXrXrXrXtXrXrXrXrXrXrXrXrXrXrXtXrXrXeX*X%X%X%X%X%X%X%X%X%X%X%XeXwXwXwXwX%X%X%X%X%X%X%X%XwXwXwXeXeXeXeXeXeXeXeXeXwX%X%X%X%X%X%X%X%X%XeXeXeXeXeX%X%XeXeX%XeXeXwX%XeX%X%X%X%X%X%X%X%X%X*X%X%X%X%X%X%X%X%X%X%X%X%X%X%X%X&X&X&X&X&X%X%X%X%X%X%X%X%X%X%X%X%X%X%X%X%X%X%X%X%X%X%X#X#X%X%X%X%X#X#X#X#X+X+X+X+X+X+X#X#X@X@X+X+X+X@X@X@X+X+X+X+X+X+X+X+X@X@X@X@X@X@X@X@X.X.X.X@X@X@X.X.X.X.X.X.X.X.X.X.X.X.X.X@XXXXX@X@X.X.X.X@XXXXXXX@X@X@X@X@X@X@X@X@X@X@X@X@X+X@X@X@X@X@X@X@X+X+X+X@X+X+X+X+X+X+X+X+X+X+X+X+X",
"4X4X4X4X9X9X9X9X4X6X9X9X4X4X3X1X1X+X{ 1 1 1 1 < : 1 1 : 8 9 8 8 M Z Z Z M M M M Z m G.4XdX7X9X9X9X6X6X6X9X9X9X9X6X6X9X9X9X9X9X9X9X9X9X9X9X9X9X9X9X9X9X9XqXqXqXqXwXqXqXqXqXiXiXiXiXiXiXiXiXiXiXiXiXiXtXtXtXtXtXtXtXtXtXyXyXyXiXiXtXiXiXiXtXtXtXqXqXqXiXiXiXiXiXiXqXqXtXiXiXiXiXiXiXiXpXpXjXzXlXzXCXzXzXlXlXlXyXyXyXyXyXtXtXyXyXyXtXtXyXyXpXpXlXlXjXjXjXpXpXuXuXuXuXuXuXpXpXjXjXjXuXyXyXrXuXuXuXuXyXrXuX*XrXyX*X' 8 8 8 8 8 ' +.eXrXrXrXrXtXrXtXrXrXrXrXrXtXrXtXtXrXrXrXrXrXtXuXuXuXuXuXuXuXuXuXyXuXuXuXuXuXuXuXuXuXuXuXuXrXrXrXrXrXrXrXrXtXrXrXtXtXrXrXrXrXrXrXrXeXeX*X%X%X%X%X%X%X%X%X%X%X%X%X%XwXwXwXwXwXwXwX%X%X%X%X%X%X%X%X%X%X%XwXeX%X%X%X%XwXwX%X%X%X%X%X%XeX%X%X%XwXeXeXeX%X%X%X%X%X%X%X%X%X%X%X%X%X%X%X%X%X%X%X%X%X%X%X%X%X%X%X%X%X%X%X%X%X%X%X%X%X%X%X%X%X%X%X%X%X%X%X%X%X%X%X%X%X#X#X#X%X%X#X#X#X#X#X#X#X#X#X#X#X#X+X+X@X+X#X#X#X#X+X@X@X@X@X+X+X+X@X@XXXXXXXXXXX@X+X+X.X@X@X@X@X@X.X.X.X.X.X.X.X.X.X.X.X.X.X.X.X.X.X.X.X.X.X.X.XXXXXXX.XXX.X.XXXXXXX@X@X@X@X@XXXXX@X@X@X@X@X@X@X@X@X@X@X@X@X@X@X+X@X@X+X+X+X+X+X+X+X+X+X+X+X+X",
"6X6X4X4X9X9X9X9X4X4X6X9X6X4X4X4X3X9X+XZ 1 B 1 1 1 : : 1 1 8 8 8 m M Z Z M M M M Z M { 1X0X6X9X9X9X9X6X9X9X9X9X9X6X6X9X9X9X9X9X9X9X9X9X9X9X9X9X9X9X9X9XqX9XqXqXqXtXiXiXiXiXtXiXiXiXiXiXiXyXiXiXyXyXyXyXyXyXyXtXtXtXtXyXyXyXiXiXiXtXtXiXiXiXiXtXtXtXtXtXiXiXiXiXiXiXiXiXpXkXlXzXzXzXzXlXlXlXlXlXCXlXlXlXpXyXyXyXuXtXtXtXtXuXyXyXyXuXyXyXyXyXyXpXpXuXuXuXyXyXyXuXuXyXyXyXyXyXyXyXyXrXrXrXrXrXrXrXrXrX*XuX*XrXyXoXH 1 m m m 1 ' X.eXrXrXrXtXtXrXtXrXrXrXrXrXrXrXrXrXrXrXrXrXrXrXtXuXtXrXrXrXrXrXuXuXuXuXuXrXuXuXuXuXuXuXuXrXrXrXrXrXrXrXrXrXrXrXrXrXtXrXeXeX*X*X*X*X%X%X%X%X%X%X%X%X%X%X%X%X%X%XwX%X%X%XwXwXwXwXwXwX%X%X%X%X%X%X%X%X%X%X%X%X%X%X%X%XwX%X%X%X%X%X%X%X%X%X%X%XeXeX%X%X%X%X%X%X%X%X%X%X%X%X%XeXeXeX%X%X%X%X%X%X%X%X%X%X%X%X%X%X%X%X%X%X%X%X%X%X%X%X%X%X%X%X%X%X%X%X%X%X%X%X%X#X#X#X#X#X%X#X#X+X+X+X+X#X#X#X#X#X#X#X#X#X@X+X#X#X#X@XXXoXXXXXXXXXXXXXXXXXXXXXXXXXXX@X@X@X.X.X.X@X@X.X.X.XS.S..X.X.X.X.X.X.X.X.X.X.X.X.X.X.X.X.X.X.X.XXXXXXXXXXXXXXXXX@X@X@X@X@X@X@X@X@X@X@X@X@X@X@X@X@X@X@XXXXX@X@X+X@X@X@X@X@X@X@X@X@X@X+X@X+X+X",
"9X9X4X4X9X9X9X9X6X6X6X6X4X4X4X4X7X1XiXB.1 N 1 8 8 ; : 8 1 : 8 8 8 m Z Z Z M M M M Z N G.5X7X9X9X9X9X6X9X9X9X9X9X6X9X9X9X9X9X9X9X9X9X9X9X9X9X9X9X9X9X9X9XwXwXwXiXiXiXiXiXiXtXiXtXiXiXyXyXyXyXpXpXpXpXyXyXyXuXtXtXtXtXyXyXtXiXiXiXiXiXiXiXiXtXtXtXiXtXiXiXiXiXiXiXzXzXzXzXzXzXCXCXCXCXCXCXCXCXlXjXlXjXyXyXuXuXuXuXtXtXtXuXuXuXyXtXtXuXyXyXyXyXyXpXuXuXuXuXuXuXuXuXyXyXyXyXuXrXrXrXrXrXrXrXrXrXrXrXrX*XjX*XrX*X+.1 1 m m m 1 H X.*XrXrXrXtXtXrXtXrXrXrXrXrXrXrXrXrXrXrXrXrXrXrXrXtXrXrXrXrXrXrXrXrXrXrXuXrXrXrXuXuXrXrXrXrXrXrXrXrXrXrXrXrXrXrXrXrXrXeX*X*X%X%X%X%X%X%X%X%X%X%X%X%X%X%X%X%X%X%XwXwX%X%X%X%X%X%XwXwX%X%X%X%X%X%X%X%X%X%X%X%X%X%X%X%X%X%X%X%X%X%XwXwX%X%X%X%X%X%X%X%X%X%X%X%X%X%X%X%X%X%XeXeXeX%X%X%X%X%X%X%X%X%X%X%X%X%X%X%X%X&X&X#X%X%X&X#X#X#X#X#X%X%X%X%X%X%X%X%X%X%X#X#X#X#X#X#X%X#X#X+X+X+X+X#X+X+X+X+X+X+X+X@X#X+X+X@X@XXXXX@X.X.XXXXXXXXXXXXXXXXXXXXXXX@X@X@X.X.X.X.X@X.X.X.XS.S..X.XS..X.X.X.X.X.X.X.X.X.X.X.X.X.X.X.X.XXXXXXXXXXXXXXXXX@X@X@X@X@XXXXX.X.X.X@X@X@X@X@X@X@X@XXXXXXX@X@X+X@X@X@X@X@X@X@X@X@X@X@X@X@X+X",
"9X9X9X9X6X6X6X6X6X9X9X9X9X9X9X9X3X6X9X+X' 1 < M 8 1 : 1 1 1 8 8 8 9 Z Z M M Z M m M M ' 9X0X5XdX0X0X0X0X9X9X9X9X9X9X9X9X9X9X9X9X9X9X9X9X9X9X9XqXwXwXqXtXiXtXiXiXiXiXtXyXuXuXuXuXyXyXyXyXyXyXyXpXyXyXyXyXyXyXyXyXiXiXtXiXtXiXiXiXiXiXiXiXiXiXiXtXwXiXkXzXiXpXpXzXlXlXlXCXCXCXCXCXCXCXCXCXlXpXpXyXyXyXyXyXuXtXtXrXtXtXtXuXyXuXtXtXtXtXtXyXyXyXyXtXrXtXtXtXtXtXtXtXrXrXrXuXyXyXuXuXtXtXtXtXtXtXrXrXrXrXrXrXuX%XZ 8 8 1 M m 1 H X.OXuXrXrXrXrXtXtXtXrXrXrXrXrXrXrXrXrXrXrXrXrXrXrXrXrXrXrXrXrXrXrXrXrXuXuXrXrXrXrXuXrXrXuXuXuXuXuXrXtXrXrX*X*X*X*X*X%X%X%X%X%X%X%X%X%X%X%X%X%X%X%X%X%X%X%X%X%X%X%X%X%X%X%X%X%X%X%X%X%X%X%X%X%X%X%X%X%X%X%X%X%X%X%X%X%X%X%X%X%X%X%X%X%X%X%X%X%X%X%X%X%X%X%X%X%X%X%X%X%X%X%X%X%X%X%X%X%X%X%X%X%X%X%X%X%X%X#X#X#X#X#X#X#X#X%X%X%X%X#X#X#X%X%X%X%X%X%X+X#X#X#X#X#X#X#X#X+X+X+X+X+X+X+X+X+X+X+X+X@X+X+X+X@X@X@X@X@X@X@X@X.X.X.X.X.X.X.X.XXXXXXXXXXXXX@XXX@X@X@X@X.X.X.X.XS.S.S..X.X.X.X.X.X.X.X.X.X.X.X.X.X.X.X.X.X.X.X.XXXXXXXXXXXXXXXXXXX.X.XXX@X@X@XXX@X@X@X@X@X@X@X@X@X@X@X@X@X@X@XXX@X@X@X@X@X@X@X@X@X@X@X@X",
"9X9X9X9X9X9X6X6X6X6X9X9X9X9X9X9X0X0X6XwXN.Z 8 9 9 8 1 1 1 1 1 8 8 8 m Z M M M M M M M ' G.aX0XdX0X0X0X0X9X9X9X9X9X9X9X9X9X9X9XqX9X9X9XqXqXqXqXqXqXqXtXtXtXiXiXtXtXtXyXyXuXuXuXuXyXyXyXyXyXyXyXpXyXyXyXyXyXyXyXtXiXiXtXtXtXiXiXiXiXiXiXiXiXiXiXiXiXzXzXzXzXzXzXCXCXCXCXCXCXCXCXCXCXCXCXpXpXyXuXuXyXyXuXtXtXrXrXrXtXtXtXtXuXyXtXtXtXtXtXtXyXyXtXtXrXtXtXtXtXtXtXtXrXrXtXuXyXyXuXuXtXtXtXtXtXtXrXrXrXrXrXrXrXoX9 1 8 1 M m 8 H X.OX*XrXrXrXrXrXtXrXrXrXrXrXrXrXrXrXrXrXrXrXrXrXrXrXrXrXrXrXrXrXuXuXrXrXrXrXrXrXrXrXrXrXrXrXrXrXrXtXeXeX*X%X%X%X%X%X%X%X%X%X%X%X%X%X%X%X%X%X%X%X%X%X%X%X%X%X%X%X%X%X%X%X%X%X%X%X%X%X%X%X%X%X%X%X%X%X%X%X%X%X%X%X%X%X%X%X%X%X%X%X%X%X%X%X%X%X%X%X%X%X%X%X%X%X%X%X%X%X%X%X%X%X%X%X%X%X%X%X%X%X%X%X%X%X%X#X#X#X#X#X#X#X#X#X#X#X#X#X#X#X#X%X%X%X%X%X+X+X#X#X#X#X#X#X#X#X+X+X+X+X+X+X+X+X@X@X+X+X@X@X@X@X@X@X@X@X@X@X.X.X.X.X.X.X.X.X.X.XXXXXXXXXXXXXXXXX.X.X.X.X.X.X.X.XS.S..X.X.X.X.X.X.X.X.X.X.X.X.X.X.X.X.X.X.X.X.X.X.X.X.X.X.X.X.X.XXXXX.XXXXX@X@X@X@X@X@X@X@X@X@X@X@X@X@X@X@X@X@XXX@X@X@X@X@X@X@X@X@X@X@X@X",
"6X9X9X9X9X9X9X9X9X9X9X9X9X9X9X9X0X6X1X9XwX' 8 9 m 9 8 1 1 < 1 8 1 1 8 M Z M M M M M M Z { 9XaX0X9X6X0X9X9X9X9X9X9X9X9X9X9X9X9X9XqXqXqXwXqXqXqXqXtXtXtXtXiXiXtXiXyXyXyXtXyXuXyXyXyXyXyXyXyXyXyXpXyXyXyXyXyXyXyXyXiXtXtXtXtXiXiXiXiXiXiXiXiXiXiXiXkXzXlXCXCXCXCXCXCXCXCXCXCXCXCXCXlXlXpXyXuXtXrXrXtXtXtXtXrXrXrXrXtXrXtXtXuXyXuXtXtXtXtXtXtXuXtXtXtXtXtXtXtXtXtXtXrXrXrXtXuXuXuXuXtXtXtXtXtXrXrXrXrXrXrXrX*Xm.8 8 8 1 M m 8 H X.OX*X=XrXrXrXrXtXeXrXrXrXrXrXrXrXrXrXrXrXrXrXrXrXrXrXrXrXrXrXrXrXuXrXrXrXrXuXtXtXrXrXrXtXrXrXeXeXeX%X%X%X%X%X%X%X%X%X%X%X%X%X%X%X%X%X%X%X%X%X%X%X%X%X%X%X%X%X%X%X%X%X%X%X%X%X%X%X%X%X%X%X%X%X%X%X%X%X%X%X%X%X%X%X%X%X%X%X%X%X%X%X#X%X%X%X%X%X%X%X%X%X%X%X%X%X%X%X%X%X%X%X%X%X%X%X%X%X%X%X%X%X%X&X&X#X#X#X+X+X+X+X+X+X+X+X#X#X#X#X#X#X#X%X#X+X+X+X+X+X+X+X+X+X+X+X+X+X+X+X+X+X+X+X+X@X@X@X@X@X@X@X@X@X.X.X.X.X.X.X.X.X.X.X.X.X.X.X.X.X.X.XXXoXoX.X.XS.S. X X X X X X.X.X.X.X.X.X.X.X.X.X.X.X.X.X.X.X X.X.X.X.X.X.X.X.X.X.X.X.X.X.X.XXXXX.X.XXXXX@X@X.X.X.X@X@X@X@X@X@XXX@X@X@X@XXXXX@X@X@X@X@X@X@X@X@X@X@X@X",
"9X9X9X9X9X9X9X9X9X9X9X9X9X9X9X9X6X6X9X9XiXz.1 9 9 9 9 8 8 1 1 1 8 8 8 9 Z Z M M M Z M M Z S.qX6X9X9X9X9X9X9X9X9X9X9X9X9X9X9X9X9XqXqXqXqXqXiXtXiXtXtXtXyXyXyXyXyXyXyXyXuXyXuXyXyXyXyXyXyXyXyXyXyXyXyXyXyXyXtXtXtXiXiXtXtXtXiXiXiXtXiXiXiXiXiXpXpXpXlXzXlXCXCXCXCXCXCXCXCXCXCXpXpXpXpXyXuXtXrXrXtXtXtXtXtXrXrXtXtXtXtXtXtXtXuXtXtXrXrXrXrXtXtXtXtXrXtXtXtXtXtXtXrXrXtXtXtXuXuXtXtXrXrXtXtXrXrXrXrXrXrXrXrXrXoXm 8 8 8 m 9 8 H X.OX*X*XuXrXrXrXtXeXrXrXrXrXrXrXrXrX*XrXrXrXrXrXrXrXrXrXrXrXrXrXrXrXrXrXrXrXrXrXeX*XeX*X*X*X%X%X%X%X%X%X%X%X%X%X%X%X%X%X%X%X%X%X%X%X%X%X%X%X#X#X#X#X%X%X%X%X%X%X%X%X%X%X%X%X+X#X#X#X%X%X%X%X%X%X%X%X%X%X%X%X%X%X%X%X%X%X%X%X%X%X%X%X#X#X#X%X%X%X%X%X%X%X%X%X%X%X%X%X%X%X%X%X%X%X%X%X%X%X%X%X#X#X#X#X+X+X+X+X+X+X+X+X+X+X+X+X#X#X#X#X#X#X#X#X+X+X+X+X+X+X+X+X+X+X+X+X+X+X+X+X+X+X+X+X@X@XXX@X.X.X@X@X.X.X.X.X.X.X.X.X.X.X.X.X.X.X.X.X.X.X.X.X.X X X X X X X X X X X X.X.X.X.X X X X X.X.X.X.X.X.X.X.X X.X.X.X.X.X.X.X.X.X.X.X.X.X.X.XXXXX.X X.XXX@X@X.X.X.X.X.X.X@X@X.X.X@X@X@X@XXXXX@X@X@X@X@X@X.X.XXXXXXXXX",
"9X9X9X9X9X9X9X9X9X9X9X9X9X9X9X9X9X9X9X9XwXS.N 1 8 8 m m 9 8 8 1 8 m 8 8 M H Z M M Z Z Z M ' gXqX9X9X9X9X9X9X9X9X9X9X9X9X9X9XwXwXqXqXqXtXtXtXiXiXyXyXyXyXyXyXyXyXyXyXyXuXuXyXyXyXuXyXyXyXyXyXyXyXtXtXyXtXtXyXyXyXiXtXtXiXiXiXiXiXiXiXiXiXpXlXzXzXlXpXpXpXCXCXCXCXCXCXCXpXpXpXpXuXyXyXyXuXtXtXtXtXtXtXtXtXtXtXtXtXuXtXtXtXtXtXtXrXrXrXrXrXtXtXtXtXrXrXrXrXrXrXrXrXrXtXtXtXtXtXtXrXrXrXrXrXrXrXrXrXrXrXeX*XrX&XZ 8 9 8 m 8 9 ' ] -X-X=XrXrXrXrXtXeXrXrXrXrXrXrXrXrX*XrXrXrXrXrXrXrXrXrXrXrXrXrXrXrXtXeX%X%X%X%X%X%X%X%X%X%X%X%X%X%X%X%X%X%X%X%X%X%X%X%X%X%X%X%X%X%X#X#X#X#X#X#X#X#X%X%X%X%X%X%X#X%X%X#X+X+X+X#X#X#X#X#X%X%X%X%X%X%X%X%X%X%X%X%X%X%X%X%X%X%X%X%X%X%X#X#X#X#X#X%X%X%X%X%X%X%X%X%X%X%X%X%X%X%X%X%X%X%X%X#X#X#X#X#X#X#X+X+X+X+X+X+X+X+X+X+X#X#X#X#X#X+X#X#X#X+X+X+X+X+X+X+X+X+X+X+X+X+X+X+X+X@X+X@X@X@X@X@X@X.X.X.X@X.X.X.X.X.X.X.X.X.X.X.X.X.X.X.XoXoX X.X.X X X X X|.S.S. X X X X X X.X.X.X X XS.S.S..X.X.X.X.X.X.X.X X X.X.X.X.X.X.X.X.X.X.X.X.X.X.XXXXX.X.X.X.XXX@X.X.X.X.X.X.X.X.X.X.X.X@X@X@X@X@X@X@X@X@X@X.X.X.XXXXX.X.X",
"9X9X9X9X9X9X9X9X9X9X9X9X9X9X9X9X9X9X9XgXwXwXH : 1 8 9 m m m 9 8 8 M m 8 m Z Z M M Z M M Z M G.qX9X9X9X9XqXqXqXqXwXqXqXqXwXwXiXtXtXtXtXtXiXtXtXiXyXyXyXyXyXyXyXyXuXuXuXyXyXyXyXyXyXyXyXyXyXyXyXyXyXyXyXyXyXyXyXyXiXiXiXiXiXiXiXiXtXiXzXlXzXlXlXlXpXyXyXyXpXpXCXCXCXlXpXuXpXpXuXyXyXyXyXuXuXuXyXyXtXtXtXtXtXtXtXtXuXtXrXrXrXrXrXrXrXrXrXrXrXtXtXtXrXrXrXrXrXrXrXrXrXrXrXrXrXrXrXrXrXrXrXrXrXrXrXrXrXrXrX*XrX%XZ 1 8 8 9 8 9 ' ` -X*X*X=XrXrXrXrXrXrXrXrXrXrXrXrXrXrXrXrXrXrXrXrXrXrXrXrXrXrXrXrXrXeX%X%X%X%X%X%X#X%X%X%X%X%X%X%X%X#X+X%X%X%X%X%X%X%X%X+X%X%X%X%X%X#X#X#X#X#X#X#X#X#X%X%X%X%X%X#X#X%X%X+X+X+X+X#X#X#X#X#X%X%X&X#X#X&X&X%X%X%X%X%X%X%X%X%X%X%X%X%X#X#X#X#X#X#X#X%X%X%X%X%X%X%X%X%X#X%X%X%X%X%X#X#X#X#X#X#X#X#X#X+X+X+X+X+X+X+X+X+X+X+X+X#X#X#X+X+X+X+X+X+X+X+X+X+XXX+X+X+X+X+X+X+X+X+X+X@X@X@X@X@XXXXX.X.X.X.X.X.X.X.X.X.X.X.X.X.X.XS.S..X.X.X.X X X X X X X X X X XS.S.S. X X X X X X.X X X X X X X X X X X X X X X X X.X.X.X.X.X.X.X.X.X.X.X.X.X.X.XXXXX.X.X.XXXXX.X.X.X.X.X.X.X.X.X.X.X.X@X@X@X@X.X.X.X.X.X@X@X@XXXXX.X.X",
"9X9X9X9X9X9X9X9X9X9X9X9X9X9X9X9X9X9XgX9X9X9Xg.B 1 1 8 8 m m m 9 8 m M m 8 m Z M Z Z M M M N z.gX9X9X9XqXqXqXqXqXqXqXqXiXtXiXiXiXtXtXtXtXtXyXyXyXtXtXyXtXyXyXyXyXuXuXyXyXyXuXuXuXyXyXyXyXyXyXyXyXyXyXyXyXyXyXtXiXiXiXiXiXiXiXiXiXiXzXzXzXCXCXCXCXyXyXyXuXyXyXpXpXlXpXuXuXyXyXyXuXtXtXuXuXtXtXtXtXtXtXtXrXrXrXrXrXrXrXrXrXrXrXrXrXrXrXeXrXrXrXtXrXrXrXrXrXrXrXrXrXrXrXrXrXrXrXrXrXrXrXrXrXrXrXrXrXrXrXrX*XrX&XM 8 8 8 8 8 9 ' ` -X*X*X*XrXrXrXrXtXrXrXrXrXrXrXrXrXrXrXrXrXrXrXrX*XrXrXrXrXrXrX*X*X%X%X%X%X%X%X%X%X%X%X%X%X%X%X%X%X%X+X%X%X%X%X+X#X#X#X+X+X%X%X#X#X#X#X#X#X#X#X#X#X#X%X%X%X%X#X#X#X%X%X+X#X#X#X#X#X+X#X#X#X#X#X#X#X#X#X#X#X#X#X#X#X#X#X#X#X#X#X#X#X#X#X#X#X#X#X#X#X%X%X#X#X#X#X#X#X#X#X#X#X#X#X#X#X+X+X+X+X+X+X+X+X+X+X+X+X+X+X+X+X+X+X+X+X+X+X@X@XXX@X@X@X@X@XXXXXXXXX+X+X+X+XXXXX@X@X@X@X@XXXXXXX.X.X.X.X.X.X.X.X.X.X.X.X.X.X.X.XS.S.S..X.X X X|. X X X X X X X X X X X X X X X X X X X X X X X X X X X X X X X X X X X.X.X.X.X.X.X.X.X.X.X.X.X.X.X.XXXXX.X X.XXX.X.X.X.X.X.X.X.X X.X.X.XXXXX@X.X.X.X.X.X@X@X@X@XXXXXXXXX",
"9X9X9X9X9X9X9X9X9X9X9X9X9X9X9X9X9XqX9XqX9XwXwX' 1 1 1 1 8 M M m 1 8 M M 8 N M M Z M M M M Z N G.9X9X9XqXwXwXwXiXqXqXtXtXtXiXiXiXtXtXtXtXtXyXyXyXyXyXtXtXuXuXuXyXuXuXuXyXyXuXuXpXyXyXpXyXpXpXyXyXyXyXyXiXyXiXiXiXiXiXiXiXiXiXiXpXyXjXlXCXCXCXCXCXyXyXuXuXyXuXpXpXpXyXtXtXuXuXuXrXtXtXtXtXtXrXrXrXrXrXrXrXrXrXrXrXrXeXeXeXeXeXrXeXrXeXeXeXrXrXrXrXrXrXrXrXrXrXrXrXrXrXrXrXrXrXeXeXrXrXrXrXrXrXrXrX*X*XrXrXrXoXm 8 8 1 8 8 m ' ` -X=X*X*XrXrXeXeXrXrXrXrXrXrXrXrXrXrXrXrXrXrXrXrX*XrXrXrXrXrX*X*X%X%X%X%X%X%X%X+X%X#X#X+X+X+X+X+X#X#X+X%X%X#X#X+X+X#X+X+X+X#X#X#X+X#X#X#X#X#X#X#X#X#X#X#X#X#X#X#X+X%X%X#X#X#X#X#X#X+X+X#X#X#X#X#X#X#X#X#X#X#X#X#X#X+X+X#X#X#X#X#X#X#X#X#X+X+X#X#X#X#X#X#X#X#X#X#X#X#X#X#X+X#X#X#X+X@XXXXXXX+X+X@X+X+X+X+X+X+X+X+X+X+X+X+X+X+X@XXXXXXXXXXX@X@X@XXXXXXXXXXXXXXXXXXXXX@X@X@X@XXXXXXXXX.X.X.X.X.X.X X.X X X X.X.X.X.X.XS.S.S..X.X X|.|. X X X X X X X X|. X X|.|.|.|.|. X X X X X X X X X X X X X X X X X X X.X.X.X.X.X.X.X.X.X.X.X.X.X X.XXXXX.X X.X.X.X.X.X.X.X.X.X.X X.X.X.X.XXX@X.X.X.X.X.X.X@X@X@XXXXXXX@X",
"9X9X9X9X9X9X9X9X9X9X9X9X9X9X9X9X9X9X9X9XqX9X1X+X8 m : < m 9 m m m 8 8 m m 8 m H Z M Z Z m m Z ' wXwXwXiXwXiXwXtXtXtXtXtXtXtXtXtXtXtXtXtXtXyXyXyXuXuXuXuXyXyXyXyXyXuXuXyXuXuXuXpXuXjXuXuXuXuXuXuXpXyXyXyXuXyXyXtXtXtXtXtXyXpXpXyXjXjXlXlXlXpXpXpXyXyXyXtXyXyXyXpXyXtXtXtXtXrXrXrXrXrXrXrXeXeXeXeXrXrXtXtXrXrXrXeX%X*X*X*XeXeXeXeXeXeXeXrXrXrXrXrXrXrXrXrXrXrXrXrXeXeXeXeXeXeXeXrX*XrXrXrXrXrXeXrXyX*X*XrXOXH ; 9 8 8 9 4 8 ' X.OX=X-X=X*XrXrX*X=X*X*XrXrXrXrXrXrXrXrX*XeX*XeXeXeX*X*X*X%X%X%X#X#X%X%X+X+X#X#X#X#X+X+X+X+X+X#X#X#X#X#X%X%X%X%X+X+X+X#X#X#X+X+X#X#X#X#X#X#X#X#X#X#X#X#X+X+X#X#X#X#X+X+X#X#X#X#X#X#X#X#X+X+X+X#X#X#X#X#X#X#X#X#X#X#X#X+X+X+X+X+X+X#X#X#X#X#X#X#X#X#X#X#X#XOX+X#X#X#X#X+X+X#X+X#XOXOX@X@X@XXXXXXX@X@X+X+X@X@X@X@X@XXX+X@X@X@XXXXXXXXXXXXX+X+X+X+X+X+XXXXXXXXX@XXXXXXX.X.X.X.X.X.X.X.X.X.X.XS. X X X X X X X X X X X X X X X X X X.X XS.S.S.S.S.S.S.S.S.S.S.S.|.S.S.S.S.S.S.S.S.S.S.S.S.S.|. X X.X.X.XS.S.S. X.X.X.X.X.X.X.X.X.X.X.X X.X.X.X.X.XoX.X.X.X.X.X.X.X.X.X.X.X X X.X.X.X.X.X.XXXXXXXXXXXXX@XXXXXXXXX",
"9X9X9X9X9X9X9X9X9X9X9X9X9X9X9X9X9X9XgX9XqXqX9XwX{ 1 1 8 : 1 m m m 8 8 9 9 9 m Z Z Z Z Z Z M M Z S.iXwXqXiXiXiXtXtXtXtXtXtXtXtXtXtXtXtXtXyXyXyXyXyXuXyXyXyXyXuXyXyXyXyXuXuXuXuXuXCXCXCXCXjXpXjXpXpXpXpXyXyXyXyXyXyXyXyXyXyXpXyXyXpXpXpXpXpXpXpXpXyXyXtXtXtXyXyXyXtXtXrXrXrXrXrXrXeXeXeXeXeXeXeXeXeXeXeXeXeXeXeX*X%X*X*X*XeXeXeXeXeXeXeXrXrXrXrXrXrXrXrXrXrXrXrXrXrXeXeXeXeXeXrXrXrXrXeXeXrXrXeXrX&XuXrX%X` : 8 8 H &X`.m M H ` $XhX=X*XrXrXrX*XrXrXrXrXrX*X*X*X*X*X*X*X*X*XeX*X%X%X%X%X%X%X#X#X#X%X+X+X+X+X#X#X+X+X+X+X+X+X+X+X#X+X+X#X#X#X#X+X+X#X#X#X#X+X+X+X+X+X+X+X#X#X#X#X#X+X+X+X+X#X#X#X#X+X+X+X#X#X#X+X+X+X+X+X+X+X+X+X#X#X#X#X+X+X+X+X+X+X+X+X+X+X+X+X+X+X+X+X+X+X#X#X#X+XOXOX+X+X+X#X#X+XOX+X+XOX+X+X+X@X@XXXXXXXXX@X@X@X@X@XXXXXXXXXXX@X.X.X.XXXXXXXXXXXXXXX+XXXXXXXXXXXXXXXXX@X@XXXXX.X.X.X.X.X.X.X.X.X XS.S.S.S.S.S. X X X X X X X X X X X X X XS.S.S.S.S.S.S.S.S.S.S.S.|.|.|.S.S.S.S.S.S.S.S.S.S.S.S.S. X|. X X X X|.|.|.|..X.X.X.X.X.X.X.X.X.X.X X.X.X.X.XoXoX.X.X.X.X.X.X.X.X.X.X.X X X.X.X.X.X.X.X.XXXXXXXXXXX@XXXXXXXoX",
"9X9X9X9X9X9X9X9X9X9XwXwXqXqX9X9XwX9X9X9XqXqXqXwX+XM 1 8 ; < 9 m m 8 8 8 8 8 m m Z Z H Z Z Z M m { wXiXwXiXtXiXtXtXtXtXtXtXtXtXtXtXtXtXtXuXyXyXyXyXyXyXuXuXuXpXpXyXyXpXuXuXuXuXuXCXCXCXAXCXCXCXCXCXCXuXpXuXyXyXyXzXyXyXyXyXpXpXyXyXuXuXuXyXyXyXpXuXtXtXtXtXtXtXtXrXrXrXeXeXeXeXeXeXeXeXeXeXeXeXeX%X*X*X*X*X*X*X*X%X%X*X*XeXeXeXeXeXeXeXrXrXrXrXrXrX*XrXrX*X*X*X*XrX*XrXeXeXeXeXeXrX*X*XrXrXrXeXeXuXOX*Xs.: : m H OXOXlXK M ` J OX=X=X].=XuXuXrXrXrXrXrXrX*X*X*X*X*X*X*X*X*X%X%X%X%X#X#X#X#X#X#X#X+X+X+X@X+X+X+X+X+X+X+X+X+X+X+X+X+X+X+X+X+X+X+X+X+X+X+X+X+X+X+X+X+X+X+X+X+X+X+X+X+X+X+X+X+X+X+X+X@X@X+X+X+X+X+X@XXXXXXXXXXX+X+X+X#X#X+X+X@X+X@X+X+X@X@X@X@X@X@X+X@X@X+X+X+X+X+X+X+X+X+X+X+X+X+X+X+X+X+X+X+XXXoXXXXXXXXXXXXXXXXX@XXXXXXXXXXXXXXXXX.X.X.X.XXXXXXXXXXXXXXXXXXXXXXXXXXXXXXXXX@X@XXXXX.X.X.X.X.X.X.X.XS.S.S.S.S.S.S.S. X X XS. X X X X X X X XS.S.S.S.S.S.S.S.S.S.S.S.S.S.S.|.S.S.S.S.S.S.S.S.S.S.S.S.S.|.S.|. X X X X|.|.|.|..X.X.X.X.X.X.X.X X X X X.X.X.X.XoXoXoXoX.X.X.X.X.X.X.X.X.X X X X.XXX.X.X.X.XXXXXXXXXXXXXXXoXoXoX",
"9X9XqXqXqXqX9X9X9X9XqXqXqXqXwXwXqXwXwX9XqXwXwXwXwXN.N < 8 < 1 8 m 9 8 1 1 8 8 9 M H H Z Z Z Z M Z N.iXtXiXtXtXtXtXtXtXyXtXtXtXtXtXtXuXuXuXyXyXyXuXuXuXuXuXuXpXpXpXpXpXpXuXuXjXjXAXAXAXAXAXAXAXAXAXAXCXCXCXpXlXlXjXjXpXyXyXyXyXyXrXrXrXtXtXtXyXyXtXrXrXrXrXrXeXeXeXeXeXeXeXeXeXeXeX%X%XeXeXeXeXeXeXeXeXeXeXeX*X*XeXeXeXeXeXeXeXeXeXeXeXeXeXrXeXrXrXrXrXrX*X*X*X*XrXrX*XrXeXeXeXeXeX*XeXrXrXrXrXrX*XpXs.9 8 9 ' oXs.m OXX.M ' J `.].OXO.-XuXrXrX*XrXrXeX*X*X*X*X*X%X%X%X%X%X%X%X#X#X#X#X#X#X#X#X#X+X+X@X@X+X+X+X+X+X+X+X+X+X+X+X+X+X+X+X+X+X+X+X+X+X+X+X+X+X+X+X+X+X@X@X+X+X+X+X+X+X+X+X+X+X+X+X+X+X@X@X@X+X@XXXXXXXXXXXXXXXXX+X+X+X+X@XXXXXXXXX@X@XXXXXXXXX@X@X@X@X@X@X@X@X@X@X@X+X+X+X+X+X+X+X+X+X+X+XXXXXXXXXoXXXXXXXXXXXXXXXXXXXXXXXXXXXXXXXXX.X.X.X.XXXXXXXXXXXXXXXXXXXXXoXoXoXoXXXXXXXXXXXXX.X.X.X.X.X XS.S.S.S.S.S.S.S.S.S. XS.S.S. X X X XS.S.S.S.S.S.S.S.S.S.S.S.S.S.S.S.S.S.S.|.|.S.S.S.S.S.S.S.|. XS.S.|.|.S.S.S. X X X|.|.|.|.|.|..X.X XoX.X.X X X X X.X.X.X.XoXoXoXoX.X.X.X.X.X.X.X.X.X X X X.XXX.X.X.X.X.XoXoXXXXXXXXXXXoXoX",
"9XqXqXqXqXqXqX9X9XqXwXwX9X9X9XwXqXqXwXwXwX9X9XwXwXwX' 1 1 1 1 1 8 8 8 1 1 1 8 8 M Z H Z M H H M M ' eXiXiXtXrXtXtXtXtXtXtXtXtXtXtXuXuXuXuXyXyXyXuXuXuXyXuXpXpXpXpXpXpXuXCXCXCXCXAXCXAXAXAXAXAXAXAXAXAXCXCXCXlXlXlXyXyXyXtXtXtXrXrXrXrXrXtXtXtXtXrXrXrXeXeXeXeXeX%X%X%X%X%X%X%X*XeXeXeXeXeXeXeXeXeXeXeXeXeXeXeXeXeXeXeXeXeXeXeXeXeX*XeXeXeXeXeX*XrXrXrXrXrXrXrXrX*XrX*X*XeXeXeXeXrXrXrXrX*XeXtXrX*Xf.M 8 Z a.m.{ 9 ; M M M J ] x.=X=Xo.].=X*XuXeX*X*X*X*X%X%X%X%X%X%X%X%X%X%X#X#X+X+X+X+X+X+X+X+X+X+X+X+X+X+X+X+X@X@X+X+X+X+X+X+X+X+X+X+X+X+X+X+X+X+X+X+X+X+X+X+X@X@X@X+X+X+X@X+XXXXXXXXXXXXXXXXX+X+X+X+X@X@XXXXXXXXXXXXXXXXXXXXXXXXXXXXXXXXXXXXXXXXX@X@X@X@XXXXXXX@XXXXXXX@X@X@X+X+X+X+X+X+XXXXX@X@X@X@XXXXXXX.XoXoXXXXXXXXXXXXXXXXXXXoXoXoXoX.X.X.X.XXXXXXXXXXXXXXXXXXXXXXXoXoX.X.X.X.X.X.X.X.X X X.X X X XS.S.S.S.S.S.S.S.S.S. XS.S. X XS.S.S.S.S.S.S.S.S.S.S.S.S.S.S.S.S.S.S.S.S.S.|.|.|.S.S.|.S.|.S.S.S.S.S.S.S.S.S.S.S. X X|.|.|.|.|.|.|.|. XoXoXoX X X X X.XoXoXoXoXoXoX X.X.X.X.XoXoXoXoX.X X X X.XoX.X.X X.X.XoXoXXXXXXXXXXXXXXX",
"wXqXqXqXqXqXqX9XwXwXwXqXqXqXwXwXwXqXqXqXqXwXwXwX9XwX@XZ : 1 1 8 1 8 8 8 1 1 1 4 8 M Z H Z Z Z M Z M |.tXtXiXrXyXtXtXtXtXuXuXuXuXtXuXuXuXyXyXyXyXuXuXuXuXuXuXpXpXpXpXuXuXCXCXCXCXAXAXAXAXAXAXAXAXAXAXAXCXCXpXpXpXyXyXtXtXrXrXeXeXeXeXrXrXtXtXeXeXeXeXeXeXeXeXeXeXeX%X%X%XeXeXeXeXeXeXeXeXeXeXeXeXeXeXwXeXeXeXeXeXeXeXeXeXeXeXeXeXeX*XeXeXeXeXeX*XrXrXrXrXrXrXrXrX*X*X*X*X*XeXeXeXrX*XrXrX*XrXuX%X+.9 9 H m.`.Z 1 ; 4 m 4 M ` ] ].hX=X).-XhX=XrX*X*X*X*X%X&X&X#X#X%X%X#X#X#X#X#X#X+X+X+X+X+X+X@X+X+X+X@X@X+X+X+X+X@X@X@X@X@X@X+X+X+X+X+X+X+X+X+X+X+X+X+X+X@X@X@X@X@X@X@X@X@X+X@X@XXXXXXXXXXXXXXX.XXXXX@X@X@XXXXXXXXXXXXXXXXXXXXXXX.X.X.XXXXXXX@X@XXXXXXXXXXXXXXXXXXXXXXXXXXXXXXX@X+X+X+X+X+XXXXXXXXXXXXXXXXXXXXXXXoXoX.XXXXXXXXXXXoXoXoXoXoXoX.X.X.X.XoXXXXXoXoXoXXXXXXXXXXXXXXXoX X X X.X X X X|. X X X XS.S.S.S.S.S.S.S.S.S.S.S.S.S.S.S.S.S.S.S.S.S.S.S.S.S.S.S.S.S.S.S.S.S.S.S.S.S.S.|.|.|.S.S.|.S.S.S.S.S.S.S.S.S.S.S.S.S.|. X|.|.|.|.|.|.|.|. XoX XoX X X X XoXoXoXoXoXoXoX XoXoXoXoXoXoXoXoXXX X X XoXoX X X X X.X.XoXoXXXXXXXXXXXXX",
"wXwXqXqXqXqXqXqXwXwXqXqXqXqXqXqXwXwXqXqXwXwXwXqX9XwXiXB.9 < 1 1 8 8 8 8 8 1 < 1 1 9 Z Z Z Z M M M m ' #XyXyXyXrXtXrXrXrXrXuXuXuXuXrXuXuXyXyXyXuXuXuXuXuXuXuXuXuXpXpXuXCXCXCXCXCXAXAXAXAXAXAXAXAXAXAXCXCXpXuXyXyXtXtXrXrXeXrXeXeXeXeXeXeXeXeXeXeXeXeXeXeXeXeXeXeXeXeXeXeX%XeXeXeX%X%X%X%X%X*XeXeXeXeXwXwXeXeXeXeXeXeXeXeXeXeXeXeXeX*X*XeXeXeXeX*X*X*X*X*X*X*X*X*X*X*X*X*X*X*XeXeX*X*X*X*XeXuX%Xa.m m ' `.X.8 m < 9 H $XH V J J -X=X=X].-XAX=X*X-XOXOXOXOX#X#X#X#X#X#X#X+X#X#X+X+X@X@X@X@X@X@X@X@X+X@X@X@X@X@X@X@X@X@X@X@X@X@X@X@X@X+X@X+X+X@X@X@X+X@X@X@X@X@X@X@X@X@X@X@X@XXX@X@XXXXXXXXX.X.X.X.XXXXXXXXXXXXXXXXXXXXXXXXXXXXX.X.X.X.X.X.X.X.XXXXXXXXXXXXXXXXXXXXXXXXXXXXXXXXXXXXXXXXXXXXXXXXXXX.X.XXXXXXXXXXXXXXXXXoXoXoXXXXXXXXXoXoXoXoX.X.X.X.X.X.XoXoXoXoXoXoXoXoXXXXXXXXXoXoX.X.X.X X X|.|.|.S.S.S.S.S.S.S.S.S.S.S.S.S.S.S.S.S.S.S.S.S.S.S.S.S.S.S.S.S.S.S.S.S.S.S.S.S.S.S.S.S.S.S.|.|.|.|.|.|.|.|.|.|.|.|.|.S.S.S.S.S.S.|. X|.|.|.|.|.|.|.|. X|.|.|. X X X XoXoXoXoXoX X X XoXoXoXoXoXoXoXoXoXoX XoXoXoXoXoXoXoX.X.X.XoXXXXXXXXXXXXX",
"qXqXqXqXqXqXwXqXqXwXqXqXqXqXqXqXiXiXqXwXwXwXwXqX9XwXwX%X} < 1 < 8 1 1 8 8 1 : 1 < 8 m Z Z Z M Z M M m |.yXtXuXrXrXrXrXrXuXuXrXrXrXrXuXuXuXyXuXuXuXuXuXuXuXuXuXuXpXpXuXjXCXCXCXCXCXAXAXAXAXAXAXAXCXAXCXuXuXyXtXyXtXeXeXeXeXeXeXeXeXeXeXeXeXeXeXeX%XeXeXeXeXeXeXeXeXeX%XeXeXeXeXeXeXeX%X%X%X*X%XeXwXeXeXeXeXeXeXeXeXeXeXeXeXeXeXeX*X*X*XeXeXeXeX*X*X*X*X*X*X*X*X*X*X*X*X*X*X*XeXeXrX*XrXrXrXrXh.9 m X.d.H 8 < 1 H `.*X*X0 S ] o.x.-X=X-X-XAX-X-X*XOXOXOXOX#X#X#X#X+X+X+X+X+X+X+X@X@X@X@X@X@X@X@X@X@X@X@X@X@X@X@X@X@X@X@X@X@X@X@X@X@X@X@X@X@X@X@X@X@X@X@X@X@X@X@X@X.X.X@X@XXXXXXXXXXXXXXX.X.X.X.X.X.XoXXXXXXXXXXXXXXXXXXXXXXX.X.X.X.X.X.X.X X.X.X.XoXXXXXXXXXXXXXoXXXXXXXXXXXXXXXXXXXXXXXXXXXXX.XoX XoX.X.X.X.X.X.XXXXXXXXXXXXXXXoXXXoXXXXX.X.X.X.X|.oXoXoXoXoXoXoXoXoXoXoXoXoXoXoX.X.X.X.X X|.|.|.M.M.S.S.S.S.S.S.S.S.S.S.S.S.S.S.S.S.S.S.S.S.S.S.M.S.S.S.S.S.S.S.S.S.S.S.S.S.S.S.S.S.S.|.|.|.|.|.|.|.|.|.|.|.|.|.S.S.S.S.S.S.|. X X X X X X X X X X|.|.|. X X X XoXoXoXoXoX X X XoXoXoXoXoXoXoXoXoXoXoXoXoXoXoXoXoXoX.X.XoXoXoXXXoXoXoXoX",
"qXqXqXqXqXqXqXqXwXwXqXqXwXwXiXiXwXwXwXwXwXwXtXiXwXiXqXtXS.1 : 1 < 1 8 8 1 < ; : 1 8 N m Z Z Z M M Z m ' eXyXyXrXrXrXrXrXrXrXuXuXuXuXuXuXuXuXuXuXuXuXuXuXuXuXuXpXuXuXuXuXjXCXCXCXCXCXAXCXCXAXAXCXCXuXuXuXuXuXrXrXtXrXeXeXeXeXeXeXeXeXwXwXwXwXwXeX%XwXeXeXeXwXwX%X%X%XeXeX%XeXeXeX*XeX*X%X*X%X%X%X*X*X*X*X*XeXeXrXtXeX%X%X%XeXeXeXeXeX*X*XeXeXeXrXeXeXeXeXeXeXeXrXrXeXeXeXrXrXrXrX*X*XrXrX*XoXZ M ` H m 1 8 H s.#X*XOXOXS 0 | R w.{.{.;X>X,X>X{.=X=X=X-XOX=X#X.X%X+X+X+X+XXX@X@X@X@X@X@X@X@X@X@X@X@X.X.X.X@X@X@X@XXXXX@X@X@X@X@X@X@X@X@X@X@X@X@X@X@X@X@X@X@X@X.X.X.X.X.X.XXXXX.X.XoX.XoXoX.X.X.X.X.X.X.X.X.X.X.X.XXXXX@XXXXXXXoXoX X X X X.X.X.X.XoXoXoXoXXXXXXXXXXXXXXXXXoXoXXXXXXXXXXXXX.XoXoXoX.X.X.X.X.X.X.X.X.X.X.X.X.X X XoX.X.X.X.X X X X X X|.|. XoXoX X|.|.|.oXoXoXoXoX|.oX.X.X X X|.|.|.S.S.S.S.S.S.S.S.S.S.S.S.S.S.S.S.S.S.S.S.S.S.S.S.S.S.S.S.S.S.S.S.S.S.S.S.S.S.S.S.S.S.S.S.S.|.|.|.|. X|.|. X X X X X X|.|.|.|.oX.X.X X X|.|.|.|.|.|. X X X X X X X|.|.|. X X X X|.oXoXoXoXoXoXoXoXoXoX X XoXoXXXXXoXoXoXoX.X.X.X.XoXoXoXoX",
"iXiXiXiXwXwXqXqXqXqXqXwXqXtXiXiXqXqXwXwXwXtXtXtXiXtXwXtXeX+.Z 1 1 ; ; ; 1 8 1 < 1 : 8 M Z M M S M Z m Z m.tXtXrXrXrXrXrXrXuXuXuXuXuXuXuXuXuXuXuXuXuXuXuXjXCXCXjXCXCXCXCXCXCXCXCXCXCXCXCXCXCXCXjXuXuXuXuXuXrXrXrXrXrXeXeXeXeXeXeXeXeXeXeXeXeXeXeXeXeXwX%X%XeXeXeXeXeXeXeXeXeXeXeX*X%X%X%X*X*X*X%X*X*XeX*XeXeXrXrX%X%XeXeXeXeXeXeX*XeXeXeXrXrXrXrX*XeXeXrXrXtXrXrXrXrXeX*X*XeXeXrXuX*X*X*XoXH ' M 8 : 8 ' d.oX#X*X%Xf.m.K 0 ] G 3.>X}.r.r.;X>X4.{.>XhX-X_.hXAX*XM.+X+X+XXXXX@X@XXX@X@X@X@X@X@X@X@X@X.X.X.X.X@X@X@XXXXXXXXX@XXXXXXX@X@X@X@X@X@X@X@X.X.X.X@X.X.X.X.X.X.X.X.XXXXXXXXXoXoXoXoX.X.X.X.X.X.X.X.X.X.X.X.XXXXXXXXXXXXXoXoXoX X X X.X.X.X.X.X.X.XXXXXXXXXXXXXXXXXXXoXoXXXXXXXXXXXoX.XoXoXoXoXoXoXoX.X.X.X.X.X.X.X.X X X X X|.|. X X X X X|.|.|.|.|.oXoXoX|.|.|.|.|. X XoXoX X X|.|.|.|.|.|.S.S.S.S.S.S.S.S.S.S.S.S.S.S.S.S.S.S.S.S.S.S.S.S.S.S.S.S.S.S.S.S.S.S.S.S.S.S.S.S.S.S.S.S.S.|.|.|. X X|.|. X X XoXoX X X|.|.|.oXoX.X X X X|.|.|.|.|.|. X X X X X X X X X X X X X X|.|.oXoXoXoXoX XoX X X X XoXoXoXoXoXoXoX.X.XoXoXoXoXoXoX",
"tXtXtXtXtXtXwXwXqXqXqXtXtXtXtXtXqXtXtXtXtXtXtXtXtXtXtXtXyX%X+X` 8 4 ; ; < 1 1 1 m : : N M M M M M M M M ' eXtXtXrXrXrXuXuXuXuXuXuXuXpXpXjXjXjXCXCXCXCXCXCXCXCXCXjXCXjXjXCXCXCXCXuXuXuXuXuXuXuXuXuXuXrXrXrXrXrXrXrXrXeXeXeXeXeXeXeXeXeXeXeXeXeXeXeXeXeXeXeXeXeXeX%XeXeXeXeXeXeXeX*X*X*X*X*X*X*X*X%X%X%X%X*XeXeX*X%XeXeXeXeX%XeXeXeX*X*X%X*X%X%X%X*X*X*X*XeXeXrXtX*XeXrXuXtXrXeX*X*XrX%XOX{ ' m 8 : Z a.OX#XOXOX&X`.h.`.} 8 ] E  .{.}.{.4.r.<Xr.:.r.,X>X4.<XIX=XOXXXXXXXXX@XXXXXXX.X.X.X.X@X.X.X.X@X.X.X.X.X@X@X.X.X.X.X.X.X.X.X.X.X.X.X.X.X.X.X.X.X.X.X.X.X.X.X.X.X.X.X.X.XXXXXXXoXXXXXoX.X.X.X.X.X.X.X.X.X.X.X.X.X.X.X.XoXoXoXoX X X X X.X.X.X.XXXXXXXXXXXXXXXXXoXXXXXXXoXoXXXXXoX.X.X.XoXoXoXoX|.|.|.|.|.|.|.|.|.|. X.X X X|.|.|.|.|.|. X X X X|.|.|.|.oX.X.XoXS.S.S.S.|.|.|.|.|.S.S.S.S.S.S.S.S.S.S.S.S.S.S.S.S.S.S.S.S.S.S.S.S.S.S.S.S.S.S.S.S.S.S.S.S.S.S.S.S.S.S.S.S.S.S.S.S.S.S.S.S.|.|.|. X|. X X X XoXoXoXoXoXoX|.|. XoX X X X|.|.|.|.|.`.|.|.|. X X X X X X|. X X X X X|.|.|. XoXoX X XoX X X X XoXoXoX|.|.oXoXoXoXoXoXoXoX XoX",
"tXtXtXtXtXtXtXtXtXtXtXtXtXtXtXtXtXtXtXtXtXtXtXtXrXyXpXrXrXrXjXB.< < < 8 8 8 8 1 8 1 1 8 8 M Z M M M Z M Z oXyXyXrXrXuXuXuXuXuXuXjXjXjXCXCXCXCXCXCXCXCXCXCXCXCXjXuXjXuXuXuXuXuXuXuXuXuXuXuXuXuXuXrX=XrXrXrXrXrXrXeXeXeXeXeXeXeXeX%X%X%X%X*XeXeXeX%XeXrXrXeXeXeXeX*X*X*X*X*X*X*X*X*X*X*XeX*XeXeXeX*XeXeXrXrXrXeX%XeX*X%X%X%X%X%X%XXX|.m.a.{ ` ' ' ' ' ' { p.h.`. X*XeXeX*X*XeXrXrXrXrXOXX.d.` 8 : H h.%X%XOXOXOX|.m.oX*X| 8 ]  . .w.{.;X6.:.>X>X=.6.,X>X:.>X<X].`.XXXXXXXXXXXXXXXX.X.X.X.X.X.X.X.X@X.X.X.X.X.X.X.X.X.X.X.X.X.X.X.X.X.X.X.X.X.X.X.X.X.X.X.X.X.X.X.X X.X.X.X.XXXXXXXXXXXXX.X.X.X.X.X.X.X.X.X.X.X.X.X X X.X.X.X.X.XoXoXoXoXoX X X X.X.X.XoXoXoXoX.X.XoXoXoXoXoXoX XoXoXoX X XoX|.|.|.|.|.|.|.|.|.|.|.|.|. X X X X|.|.|.|.|.|. X X X X|.|.|. XoXXX.XoX|.|.M.M.M.M.M.M.M.M.M.M.M.S.M.S.S.S.S.S.S.S.S.S.S.M.M.M.M.M.S.S.S.S.S.S.S.|.S.S.M.M.M.M.S.S.S.S.M.M.M.M.M.M.M.M.S.S.S.S.S.M.|.|. X|. X X X X X XoXoXoX|.|.|.|.|. X X X X X X|.|.|.|.|.|. X X X X X X|.|. X X X X|.|.|. X X X X|. X|.|.|. X X X X|.|.|.|.|.|.|. X X X X X",
"tXtXtXtXtXtXtXtXtXtXtXtXtXtXtXtXtXtXtXtXtXtXtXtXuXuXuXrXrXuXrX{ 1 1 4 8 N N 8 1 : 1 8 8 8 m Z M M M Z M M X.eXyXrXrXuXuXuXuXuXuXjXCXCXCXCXCXCXCXCXCXCXCXCXCXjXuXuXuXuXuXuXuXyXuXuXuXuXuXuXuXuXuXrXrXrXrXrXrXrXeXeXeX*XeXeXeXeXeX*X*X*XeXeXeXeXeXrXrXeXeX*XeXeXrXeXeXeXeXeXeXeX*X*XeXeX*XeXeXeXeXeXeX*XeXeXeXeX%X%X%X%X%X+Xm.{ ' Z Z M M M M Z Z H H Z H H H ' ' ` a.`.%XrXrXeX*XrXoX` a.m.m 1 M `.OX#XoXoX#X#X`.oXOX#XH 9 K | ..{.{.{.:.b 6.,X=.:.>X>X=.{.{.x.`.XXXX@XXXXX.X.X.X.X.X.X.X.X.X.X.X.X.X.X.X.X.X.X.X.X.X.X.X.X.X.X.X.X.X.X.X.X.X.X.X.X.X.X.X.X.X|. X|.|.|.oX.XoXoXoXoXXXXX.X.X.X.X.X X X X X X X X X X X X X X.X.X.XoX.XoXoX X|.|.|.|. X X X X XoXoXoXoXoXoX X X X X|.|.|.|.|.|.|.|.|.|.|.|.|.|.|.|.S.|.|. X X X|.|. X X X X X X|.|.|.|.|.|.oXoX|.|.|.|.S.S.M.M.M.S.M.M.M.M.M.M.S.S.S.S.S.S.S.S.S.S.M.M.M.M.M.M.S.S.M.M.M.S.S.S.S.S.M.M.M.M.M.M.M.M.S.M.M.M.M.M.M.M.M.M.M.M.M.`.`.|.|.|.|.|. X X X X|.|.|.oX|.|.|.|.|.|.|.|. X X|.|.|.|.|.|. X X X X X X|.|. X X X|.|.|.|.oX X X X|. X X|.|. X X X X|.|.|.|.|.|.|.|. X X|.|.",
"tXtXtXtXtXtXtXtXtXtXtXtXtXtXtXtXtXtXtXtXtXtXtXtXuXuXrXyXuXuXrX+.8 8 8 8 1 m ' p.H M 1 : 8 m M H M Z M M M Z oXuXuXuXuXuXuXuXuXuXuXjXCXCXCXCXjXCXCXCXCXCXCXjXuXuXuXyXyXuXyXuXuXuXuXuXuXuXuXuXuXuXrXrXrXrXtXrXrXrXeXeXeX*XeXeXeXeX*X*X*X*XeXeXeXeXeXeXeXrXrXrXrXeXeXeXeXeXeXeXeXeXeXeXeXeXeXeXeXeX*X%X%X%X*XeXeXeX*XoXp.H Z M M M m m m m m m m m N m M Z H H H H H H ' { a.|.*XtXM.' { &X{ 8 1 X.#X#X#X#XoX|.|.oX#X#X`.m 8 S  . .{.}.4.r W 4.<XT T }.;Xi b W V } XXXXXX.X.X.X.X.X.X.X.X.X.X.X.X.X.X.X.X.X.X.X.X.X.X.X.X.X.X.X.X.X|..X X X X X|. X X.X.X.X.X|.|.|.|.|.|. XoXoXoXoXoXXXXX.X.X X.X.X X X X X X X X X X X X X X X X XoXoXoX X|.|.|.S.S.|.|.|.|.|.|.|.|.|.|. X|.|.|.|.S.S.S.|.|.|.|.|.S.S.S.S.|.|.S.|.S.S.|.|.|. X|.|. X X X X X X X|.|.|.M.S.|.|.M.M.S.S.S.S.S.S.S.S.S.S.S.S.S.S.S.S.S.S.S.S.S.S.S.S.N.M.M.M.M.M.S.S.M.M.M.M.S.S.S.S.M.M.M.M.M.M.M.M.S.S.M.M.M.M.M.M.M.M.M.M.M.`.`.`.|.|.|.|.|. X X X|.|.|.oXoX|.|.|.|.|.|.|. X X|.|.|.|.|.|.|. X X X X X|.|. X X X X|. X X|.|.|.|.|.|.|.|.|.|.|.|.|.|.|.|.|.|.|.|.|. X|.|.|.",
"yXyXyXyXtXtXtXtXtXtXtXtXtXrXtXrXtXtXrXtXtXtXtXtXuXyXuXrXuXuXuXd.< < 4 8 M { oXpXM.X.N : 8 9 9 Z Z Z M M Z M X.*XuXuXuXuXuXuXuXuXuXhXhXjXjXjXuXuXjXuXuXuXuXuXuXuXyXuXuXuXrXrXrXuXrXrXrXrXrXrXrXrXrXrXrXrXtXrXrXrXrXeXeXeXeXeXeXeX*X*X*XeXeXeXeXeX*X%X&X&X%X*X*X*XeXeXeXeXeXeX*X*XeXeXeXeXeXeXeXeXeXeXrXtXeX%XXXM.H Z M m m m N N 8 N m m m m m M M Z Z H H H H H ' ' ' ' ' { +.a.' N #XOX` N M `.#X X X+X#XOXoXXXOX#XoXH 8 S O. .4.4.W & u :.{.W W :.4.b 4.{.f.N.XX.X.X.X.X.X.X.X.X.X.X.X.X.X.X.X.X.X.X.X.X.X.X.X X X X X X X X XoXoXoX XoXoXoXoX X XoXoX|.|.|.|.|.|.|. X XoXoXoXoXoXoXoX.X X XS. X X X X X X X X X X X|.|.|.|.|.|.|.|.|.|.|.S.S.M.M.M.|.|.|.|.|.`.`.`.|.|.|.|.|.M.M.M.M.M.S.S.S.S.S.S.S.S.S.S.S.S.S.S.S.|.|.|.|.|. X X X X X X XS.S.S.S.M.M.M.M.M.M.S.S.S.S.S.S.S.S.S.S.M.M.M.M.S.S.S.S.S.S.S.S.N.M.M.M.M.M.M.M.M.M.M.M.M.M.M.M.M.M.M.M.M.M.M.M.S.S.M.M.M.M.M.M.S.S.M.M.M.`.`.`.|.|.|.|.|.|. X X`.`.|.|.oXoX|.|.`.`.|.|.oXoX|.|.|.|.|.|.|.|. X X X X|.|. X X X X|.|.|.|.|.|.`.`.|.|.`.`.|.|.|.|.|.|.|.S.|.|.|.|. X|.|.|.",
"yXyXtXyXyXtXtXtXtXtXtXtXrXrXtXtXrXrXrXrXtXtXuXuXpXpXuXrXuX*X&X` m 8 1 M { `.OXOX`.oX` 1 8 8 8 Z M M M Z Z M H OXuXuXuXuXuXuXuXuXuXhXhXjXjXhXuXuXuXuXuXuXuXuXuXyXyXuXrXrXrXrXrXrXrXrXrXrXrXrXrXrXrXrXrXrXrXrXrXrXrXeXeXeXeXeXeXeXeXeXeXeXeXeXeXeX*XOXm.d.m.oX*XrXeXeXeXeXeXeXeX*XeXeXeXeXeXeXeX*X%X*XeX*X+Xd.' M m m m m m m m N N m N N N N m m M M M M Z H H H H ' ' ' ' ' ` ` ' ` OX#X' m Z #X+X+X#X+X X|. X+X#XoX#Xf.M 0 o.3.4.L r r r r ^ W i b =.=.{.>X'.oX.X.X.X.X.X.X.X.X.X.X.X.X.X.X.X.X.X.X X X.X.X.X X X X X X X X X XoXoXoX XoXoXoXoX X XoXoX|.|.|.|.|.|.|.|.|. XoXoX|.oXoXoX.X X|.S. X|.|.|. X X X X X X X|.|.|.|.|.|.|.|.|.|.|.|.|.M.M.M.M.|.|.|.|.`.`.`.`.M.M.M.M.M.M.M.M.M.M.M.M.|.|.|.|.|.|.|.|.S.S.S.S.S.|.|.|.`.|.|.|. X|. X X|.S.S.S.|.|.M.M.S.S.S.S.S.S.S.S.M.M.M.M.N.N.N.N.S.S.S.S.M.M.M.M.N.M.M.M.M.M.M.M.M.M.M.M.M.M.M.M.M.M.S.S.S.S.S.S.S.S.S.M.M.M.M.M.S.M.M.M.M.`.`.`.`.|.`.|.|.|.|. X`.`.|.|.oXoXoX|.`.`.|.oXoXoX|.|.|.|.`.|.|.|. X X X|.|.|.|. X X X|.|.|.|.|.`.`.`.|.|.`.|.|.|.|.|.|.|.|.S.|.|.|.|. X|.|.|.",
"tXtXtXtXtXtXtXtXrXyXrX*XyXyXrXrXrXtXuX*X&X$X`.f.+.} X.` K M M m N N 8 8 8 N m m M { #Xh.`.`.9 9 Z M Z M M M H X.=XuX=XuXuX=XuXuXuXuXuXuXuXuXuXuXuXuXuXuXuXuXuXuXrXrXrXrXrXrXrXrXrXrXrXrXrXrXrXrXrXrXrXrXrXrXrXrXeXeXrXrXrXrXrXeX*X*X*XeXeXeXeXeXrX*X*X%Xa.a.#X*XeXeX*X*X*X*X*XeX*XeXeX*X*XeXeXeXeXrX%Xa.Z m m m 9 9 9 9 9 9 8 8 8 8 8 8 8 m m m M M M M H H H H ' H ' ' { ` ` { { X.h.`.{ Z {  XoXXXOXXX X XXX#X#X#XoX).=X).E ..2.u u r r 6 t y t ;.{.;X,X<X]. X.X.X.X.X.X X X.X X.X.X.X.X.XoXoX.X.X.X X.X.X X X X X X X X X X X|.|. X X|.|. X X X|.|. X|.|.|.|.|.|.|.|.|. XoXoXoXoXoXoX.X|.S.S.S.|.|.|.|.|.|.|.oXoX|.|.`.|.|.`.S.S.S.|.|.|.|.S.S.M.M.M.S.|.|.|.|.|.`.M.M.M.M.`.M.M.M.M.`.`.`.`.M.M.`.`.|.`.M.M.S.S.S.S.M.M.M.|.|.|.|. X X X|.`.|.|.|. X|.|. X X|.|.M.M.M.|.S.M.M.M.S.S.M.N.M.S.M.M.M.M.M.M.M.M.M.M.M.S.S.|.|.S.M.M.M.M.M.S.S.S.S.S.S.S.S.S.S.S.S.S.M.M.M.M.M.M.M.M.M.M.M.`.`.`.|.|.|.|.|.|.|.|.`.`.|.|.|.|.|.`.|.`.`.|.oXoX|.`.`.`.`.`.`.|.|.|.|.|.|.|.|.|.|.|.|.|.S.S.|.|.|.|.`.|.|.`.|.|.`.`.`.|.oX X|.|.oXoXoXoX`.`.",
"tXtXtXyXyXyXyXtXtXrXrXuXuXeXrXyXyX&Xd.` Z 8 8 9 8 8 8 8 M m m 8 8 1 1 1 1 8 8 N ' { oXrXGXpXZ M Z S H H H K K ` ).uXuX=XuXuXrXuXuXuXuXuXuXuXrXrXrXrXrXrXuXuXuXuXrXrXrXrXrXrXrXrXrXrXrXrXrXrXrXrXrXrXrXrXrXrXrXrXeXeXeXeXrXrXrXeXeXeXeXeXeXeXeXeXeXeXtX*Xa.p.OX*X*XeXeXeX*X*X*XeXtX*X%X%XeXeXeXrXrX|.' M m M m N 8 8 8 8 8 8 8 8 8 8 8 8 9 m m m m m M M H H H H H ' ' ' ` ` ` ` } { a.m.X.H { XXoXoX+XoXoXoXXX#X+X XoX].AXo.G E Y W D W u , V V r W {.}.>X,X-XXX.X X X X X X X X X X.X.X.X.XoXoX.X.X|. X X X XS.|.|.S.S.S.|.|.|.|.|.|.|.|.|. X X X|.|.|.|.|.|.|.|.|.|.|.|.|.oXoXoXoXoXoX X|.S.S.S.|.S.|.|.|.|.|.|.|.|.|.|.|.`.M.S.S.S.S.|.|.|.S.S.M.M.M.M.|.|.|.oX X|.`.M.M.M.`.M.M.M.M.`.`.`.`.M.`.`.`.|.|.|.`.S.S.S.M.M.M.M.|.|.|.|. X|.|.`.`.`.`.`.`.`.|. XoX X X|.`.S.S.M.M.M.M.S.S.M.S.S.S.M.M.M.M.M.M.S.S.M.M.M.M.M.S.S.M.M.M.M.M.M.M.M.S.M.S.M.M.S.S.S.S.M.M.M.M.M.M.M.M.M.M.M.M.M.M.`.`.|.|.|.|.|.|.|.|.`.`.|.|.|.|.|.|.`.`.`.`.|.|.`.`.`.`.`.`.`.`.|.|.|.|.|.|.|.|.|.|.|.M.M.M.`.|.|.|.`.`.`.`.|.|.|.|.|.|.oX X|.oXoX#X&X&X&X&X",
"tXtXtXtXyXyXuXuXtXtXrXrXrXyXtX%Xm.' 8 < 8 8 8 4 8 9 4 < 8 : 9 m m m N N M ' a.m.%X*XOX*XrXoX9 9 m Z K H K X.| ] | -XuX=X=X=XrXrXrXrXrXrXrXrXrXrXrXrXrXrXrXrXrXrXrXrXrXrXrXrXrXrXrXrXrXrXrXrXrXrXrXrXrXrXrXrXrXrXeXeXrXrXrXrXrXrXeXeXeXrXrXrXeXeXeXrXtX*Xd.X.oX%X*X*XeXeX*X*X*XeX*XeXeX*XeXrXeX%XM.' m 8 m m 8 8 1 1 1 1 8 4 4 4 8 8 8 8 9 m m m m m M M Z H H H ' ` ` ` { +.s.d.s.X.X.a.a.' `  XoXoXXX+XoXXXXX+X#X XoX`.AXD 7 t ^ 4.W D u t y y , V {.;X>XIX=X'. X X X|.|. X X X|. X X X.X.X XoX|.|.S.S.S.|.S.S.S.S.S.S.S.S.S.S.|.|.|.|.|.|.|.|.|.|.|.|.|.|.|.|.|.|.|.|.|.|.|.oX X X X X|.|.|.S.S.S.|.|.S.|.|.|.`.|.|.|.|.|.M.M.S.M.M.M.S.S.S.S.M.M.M.M.M.|.|.|. X|.|.`.M.M.`.`.M.M.M.M.`.|.`.`.`.`.`.`.`.|.M.`.S.M.M.M.M.S.M.|.|.|.|.|.`.`.|.|.`.`.|.`.`.|.oXOX X|.|.`.|.|.`.M.M.M.M.M.M.N.S.S.N.M.M.M.M.M.M.S.S.M.N.N.N.M.N.N.M.M.M.M.M.M.M.M.M.M.M.M.M.M.M.M.M.M.M.M.M.M.M.M.M.M.M.M.M.M.M.`.`.`.`.|.|.|.|.|.`.|.|.|.|.|.`.`.`.`.`.`.`.|.`.M.M.M.M.`.`.`.`.`.|.|.|.`.`.`.`.`.M.M.M.`.`.|.oXoXoXoXoXoXoXoXoXoX|.|.|.|.|.oXOX#X&X&X*X*X",
"rXrXtXtXrXrXrXrXtXrXtXtXrXrXoX{ 9 4 < 4 8 4 8 9 ; < < 8 1 m d.#X%X&X%X%X%XeXrXtXyXzX*X#X|.f.H 4 9 M ' H K X.o.X.X.x.=XuX=X=XpX=XrXrXrXrXrXrXrXrXrXrXrXrXrXrXrXrXrXrXtXtXrXrXrXrXrXtXtXtXrXrXrXrXrXrXrXrXrXrXrXrXrXrXrXrXrXrXrXrXrXrXeXrXrXrXrXrXtX*XrX&Xh.X.oX%X%X*X*XeXeXeXeX*X%XrXtX*XrXrX+Xd.Z m m m m 1 1 8 < < 1 1 1 1 4 4 8 8 8 9 9 9 m m m m M M Z H ' ' ` { { } X.m.`.m.f.X.` X.m.a.X.m.oXoXoXoXoXoXoXXX+XOXoXf.CX] E G }.<X}.4.4.3.y S > 6 4.>X>XIX>X'. X|.|.|.S.S.S.S.|.|.|.|.|.|.|.|.|.|.S.S.S.S.S.S.S.S.S.S.S.S.S.S.|.|.|.|.|.|.|.|.|.|.|.|.|.|.|.|.|.|.|.|.|.|.|.|. X X|.|.|.|.|.|.M.S.S.S.S.S.S.S.`.`.`.|.|.|.M.M.S.M.M.N.M.S.S.S.M.M.M.M.`.|.|.|.`.`.M.M.M.`.`.`.`.`.`.`.|.oXoX|.|.oXoXoXoX|.`.M.|.|.`.`.`.|.|.|.|.|.|.|.`.`.|.oX$X$XOXOXOXOXOXOXoXoXoX|.|.|.|.`.M.M.N.N.N.N.N.N.N.N.N.M.M.M.M.M.S.M.N.N.N.N.N.N.M.M.N.N.N.M.N.N.N.N.N.N.N.N.N.N.N.N.N.m.M.M.M.M.M.M.M.m.M.`.`.`.`.|.|.|.|.|.|.|.`.`.`.`.`.`.`.`.`.M.M.`.`.`.M.M.M.M.M.`.`.`.`.|.`.`.`.`.`.`.`.`.|.`.`.`.|.oXoXoXoXoXoXoXoX|.|.|.`.`.`.`.`.|.OXOXOXOXOXOX",
"rXrXrXrXrXrXrXrXuX*XuXlX*Xa.Z 1 < 8 8 4 < ; ; ; 4 1 < 1 ; ' *XpXrXrXtXyXyXyXyXyX*XrXtXeXeX*XOXZ 1 m ` ` ' | X.X.o.| ).*X=XrXuX*XrXrXrXrXrXrXrXrXrXrXrXrXrXrXrXrXrXrXrXrXrXrXrXrXrXrXrXtXrXrXrXrXrXrXrXrXrXrXrXrXrXrXrXrXrXrXrXrXrXrXrXrXrXrXeXeXrX*X*XoXa.{ `.%X*X*X*X*X*XeXeX*X*X*X%X*XeX#XX.M N 8 1 1 8 8 1 < < < 1 < < 4 4 4 8 9 9 9 9 m m m m M M M Z H ' ' } } | } { s.s.` H H Z H d.m.d.h.oXoXoXoXoXoXoXOXXX#X`.f.hXO.3...>XIXIX<X}._.y D 5 > D >X,XIX<X'.|.`.|.S.S.S.S.S.S.S.S.|.|.|.|.|.|.|.S.S.S.S.S.S.S.S.S.S.S.S.S.S.S.S.S.S.S.S.|.|.S.S.S.|.|.|.|.|.|.|.|.|.|.`.`.`.|. X|.|.|.|.|.|.|.M.M.M.M.M.M.M.M.M.`.|.`.|.M.M.S.M.N.N.M.M.M.M.M.M.M.M.|.`.|.|.M.M.M.M.`.`.`.`.`.`.`.`.oXoXoXoXOXOXOXOXOXoX|.`.|.|.`.`.|.|.|.|.|.|.|.|.|.|.oXoXOXOXOXOXOXOXOXOXOXOXOXOXoX|.`.`.|.M.N.N.N.S.N.N.N.N.N.N.N.N.N.N.M.N.h.h.N.N.M.M.M.N.N.N.N.N.N.N.N.N.m.m.m.m.M.M.N.N.m.m.M.M.M.M.M.M.M.`.`.`.|.oX|.|. X|.oX|.|.|.`.`.`.`.`.`.`.`.`.M.M.M.M.`.M.M.M.M.`.`.`.`.`.`.|.|.|.|.|.|.|.|.`.`.`.`.`.|.oX`.|.|.`.`.`.`.`.`.`.`.oXoX`.`.oXoX].].].].",
"rXrXrXrXuXuX=X=X*XuXuXOX} 9 < < 8 4 < - 4 9 8 : ; ; : : m oXCXyXlXpXtXrXeXeXrXtXyX*XuXrXrXrXyXa.8 8 H | | X.| | o.| o.'.uXuX*XuXrXrXrXrXrXrXrXrXrXrXrXrXrXrXrXrXrXrXrXrXtXtXtXtXrXrXrXrXrXrXrXrXrXrXrXrXrXrXrXrXrXrXrXrXrXrXrXrXrXrXrXrXeXrXeXeX*XeXrX`.+.' m.#X*XrXrXeXeXeXeX%XrX*X*XeXoX{ M B 8 N 8 1 1 8 8 1 < 1 < < 4 4 4 4 9 9 9 9 9 9 m m m m M M Z H H ' ` ` X.X.X.X.` M 8 9 8 8 H X.d.`.oXoXoXoXoXoXOXOXOXOX`.`.uXo.R E 4.>X<XIX2.f S S > > r {.IXIXIX'.M.M.M.M.S.S.S.S.S.S.S.S.S.|.|.|.|.S.S.S.S.S.S.S.S.S.S.S.S.S.S.S.S.S.S.S.S.S.S.S.M.M.M.`.|.|.|.|.|.|.|.|.`.`.`.`.|.`.|.|.`.|.|.|.S.M.M.M.M.M.M.M.M.M.`.`.`.M.M.M.S.M.N.N.M.M.M.M.M.M.M.M.`.`.`.`.|.`.`.`.`.`.`.`.`.`.`.|.oXoXoXoXoXoXOXOXoXoX|.`.|.|.`.`.|.|.|.|.|.|.|.|.|.|.oXoXOXOX$X'.'.`.$XOXOXOXOXOXOXOXoXoX X|.M.N.N.M.S.N.h.h.h.h.N.N.h.N.N.h.h.h.N.N.N.N.m.m.m.m.N.N.N.N.N.N.N.m.m.m.M.M.N.N.m.m.m.M.M.M.M.`.`.`.|.oXoXoXoXoXoXoXoXoXoXoX`.`.`.M.`.`.`.`.`.`.M.M.M.M.M.M.M.M.`.`.M.`.`.`.`.`.`.`.`.`.`.`.`.`.`.`.`.`.`.`.`.`.`.`.`.`.`.`.`.`.oXoXoXoX`.`.$X$X`.`.",
"rXrXrXrXrX=X=X=X=XjX-XJ 4 < 8 8 : 4 8 8 < : 1 1 1 1 1 1 H *XtXrXrXrXtXyXyXtXrXeX*X%XeXrXrX%XrX#XH 8 M ` X.X.X.X.| o.| X.-XuX*XyXrXrXrXrXrXrXrXrXrXrXrXrXrXrXrXrXrXrXrXrXtXtXtXtXrXrXrXrXrXrXrXrXrXrXrXrXrXrXrXrX*X*XrXrXeXeXeXeXrXrXrXeXeXeXeX*X*XrXeXm.a.' m.|.OX*XrXeX*XeXeX%X*XrXeXoX{ m 8 m 8 m m 8 8 1 8 1 1 1 4 4 4 4 4 4 8 8 8 8 8 8 8 8 8 m M M Z H H ' ` ` +.s.+.s.+.H M M 9 8 9 H p.`.`.oXoXoXoXoXoXoXXX|.`.'.AX3.J E ( }.>X}.k 6 D K > > , ( <XIXIX'.M.M.M.M.M.M.S.S.S.S.S.S.S.S.|.|.S.S.S.S.S.S.S.N.S.S.S.S.S.S.S.S.M.M.M.M.M.S.S.S.M.M.S.S.|.|.|.|.`.|.|.|.`.`.`.`.`.`.`.`.`.M.M.M.|.M.M.M.M.M.M.M.M.M.M.M.M.M.M.`.S.M.N.N.M.M.M.M.M.M.M.`.`.`.`.|.|.|.|.`.`.`.`.`.`.`.`.|.oXoXoXoX`.oXoXoX|.`.`.`.|.|.`.|.|.|.|.|.|.|.`.`.|.|.|.|.oX$X`.`.`.`.'.$X].OXOXOXOXOXOX#XoX|.M.N.N.N.N.N.h.h.h.h.h.h.h.h.h.h.h.h.h.N.N.h.h.h.h.h.h.N.N.N.N.N.N.N.m.m.M.M.m.m.m.m.M.M.M.M.`.`.`.|.oXoXoXoXoXoX|.`.`.`.|.oX`.`.`.M.M.M.`.`.M.M.M.M.m.M.M.M.`.`.`.`.M.M.M.`.m.m.m.m.M.M.M.M.`.`.m.m.`.`.`.`.`.`.`.`.`.`.`.oX$X`.`.`.$X`.`.`.oX`.`.`.",
"rXrXrX=X=X=X=X=X=X=XO.9 - 3 4 4 9 4 < 8 8 1 1 1 < 1 1 1 ' OXoXpXuXtXtXrXrXrXrXrXrXtX%X*XrXeXrXtX`.M 9 H ` X.X.o.o.o.o.| f.rXrXrXrXrXrXrXrXrXrXrXrXrXrXrXrXrXrXrXtXtXtXtXtXrXrXrXrXrXrXrXrXrXrXrXrXrXrXrXrXrXrXrXrX*X*XeXeXeXeXeXrXrXeXeXeXeX*X*XeX*X%Xm.m.+.`.m.`.#X*XeX*X*XeX*X%XeX+X{ M m m N m m 8 1 8 8 1 1 4 4 4 4 4 4 4 4 4 4 < < < 1 4 8 8 9 M M Z H H ' ` ` +.s.s.f.B.X.H H H H H ' X.a.`.`.oXOXoXoXoXoXXX|.OX`.CX3.J E Y }.;XT = f S K q > % , {.,XIX].`.`.`.`.`.`.`.|.S.S.S.S.S.S.S.|.S.S.M.S.S.S.N.N.S.S.S.S.S.S.S.S.M.M.M.M.M.M.M.M.M.M.M.S.S.|.|.|.`.`.|.`.`.`.`.`.`.`.`.`.M.M.m.N.|.M.M.M.M.M.M.M.M.M.M.M.M.M.`.`.S.M.N.N.M.M.M.N.`.`.|.|.|.|.|. X`.`.`.`.|.|.`.|.`.`.`.`.`.oXoX$X$XoXoX`.|.`.`.`.|.|.|.|.|.|.|.|.|.`.`.`.`.`.`.`.`.`.`.`.`.`.`.'.].OXOXOXOX$XoXoX X|.N.h.h.N.h.h.h.h.h.h.h.g.g.g.h.h.h.h.h.h.h.h.h.h.h.h.h.N.N.N.h.h.h.h.m.m.m.m.N.m.m.m.M.M.`.`.`.`.`.|.oXoX$X$X`.`.`.`.`.`.`.`.`.`.`.M.M.M.`.`.M.M.M.m.m.m.m.M.M.`.M.m.m.m.m.M.`.`.`.`.`.`.`.`.`.`.`.`.`.`.`.`.`.`.`.`.`.`.`.|.$X`.`.`.`.`.$X$X`.`.`.`.",
"=X=X=XuX-X_.{.{.>X}.E 3 4 4 ; 8 < 8 8 4 4 8 1 1 9 M H H ' ` d.rXtXtXrXrXrXrXrXrXeXeXeXeXeXeXeXrX%Xh.m M K | | O.o.o.O.| ] '.uX=XuX*XrXuX*XrXuXrXrXrXrXrXrXrXrXrXrXrXrXrXrXrXrXrXrXrXrXrXtXtXtXtXrXrXrXrXrXrXrXrX*X*X*X*X*X*X*X*X*XrXrXrX*X*X*X*X*XrXOXm.OX` `.%Xd.`.%XrXrX*X*X#X*XoX+.Z m M m 8 9 8 8 8 8 8 8 8 4 4 4 8 8 4 - 4 - < < < > 4 8 1 8 9 Z 9 H H H ` ` ` | O.O.x.'.O. .| | O.X.s.+.+.f.`.'.`.oXoXoXoXoXoX`.OXJX3.D E j w.}.t = t f _.E % % = r -XIX_.`.`.M.M.M.|.|.S.S.M.M.M.S.S.S.S.S.S.S.S.S.S.S.S.M.M.M.S.S.S.S.S.S.S.S.S.S.S.S.M.M.M.M.M.`.`.`.`.`.`.`.`.`.`.`.`.M.`.`.`.`.M.m.m.M.M.M.M.M.N.N.N.M.M.M.M.M.M.M.M.M.M.M.N.N.N.N.M.`.`.`.|.|.oX`.`.'.`.`.'.'.'.`.`.`.`.`.$X`.|.oXoX$X$XoXoX`.`.|.`.`.|.|.|.|.`.|.`.`.`.`.`.`.`.`.`.`.).`.`.oX$XOXOX$X$X$X`.`.`.`.`.N.N.N.h.h.h.h.N.h.h.g.h.h.h.h.g.g.g.h.h.h.h.h.h.h.h.h.h.m.m.N.m.m.m.M.M.`.`.`.`.m.m.m.m.`.`.`.`.`.`.`.`.`.$X'.$X`.`.`.m.m.`.`.`.M.M.m.m.m.m.m.m.M.M.M.M.M.M.m.m.M.M.M.M.M.`.`.`.`.`.`.`.`.`.`.`.`.`.`.`.`.`.`.`.`.`.`.`.`.`.`.oXOXoX`.`.`.|.`.`.`.`.`.`.",
"-X-X=X=Xc.4.6.{.}.>X3.5 > q 8 > 8 4 4 4 9 9 m M H H H H ' H h.tXrXrXrXrXeXeXeXeXeXeXeXeXeXeXeXeXrXeXX.9 M ` | o.o.| | | ` f.*XuXrX*XuXuXrXrXrXrXrXrXrXrXrXrXrXrXrXrXrXrXrXrXrXrXrXrXrXrXtXtXtXtXrXrXrXrXrXrXrXrX*X*XrX*X*X*X*X*X*XrXrX*X*X*X*X*X*XrXoX`.#X{ +.*XOXd.h.&XrX*X*X*X&Xa.H M M m 8 9 9 9 8 9 8 8 8 8 4 4 8 0 9 4 - - > - < < 4 4 8 1 8 8 Z M Z H H ` | X.o.OX=X].=X-X=X=X=X].).f.X.o.f.`.'.`.`.|.|.`.`.oX`.uXDX).| G F ) w.t = = ^ =X..6 % % , E [.x.m.m.M.`.|.|.|.S.M.M.S.S.S.S.|.S.S.S.S.S.M.S.S.S.M.M.M.M.S.S.S.S.S.S.S.S.M.M.M.M.M.M.M.M.M.`.M.m.M.M.M.`.`.`.`.`.M.M.`.`.`.`.M.m.M.M.M.M.M.N.N.N.M.M.M.M.M.M.M.M.N.m.N.N.N.N.M.M.M.M.`.`.`.`.`.`.`.`.].$X$X$X$X].`.`.$X`.`.`.oX$XoXoXoX`.`.`.`.`.|.|.`.`.`.`.`.`.`.`.`.`.`.`.`.`.`.`.`.`.`.$X$X$X`.`.`.`.`.`.m.m.N.N.N.N.N.N.N.N.h.h.g.h.h.h.h.g.g.g.g.h.h.h.h.h.h.h.h.m.m.N.N.N.m.m.M.M.`.`.`.`.M.M.`.`.`.`.`.`.`.`.oXoXoX`.`.`.`.`.`.m.`.`.`.`.m.m.m.m.m.m.m.m.m.m.M.M.M.m.m.m.m.m.m.M.`.`.`.`.`.`.`.`.`.`.`.|.`.`.`.`.`.`.`.`.`.oX`.`.oXoXoXoXoX`.`.`.`.`.`.`.`.`.`.`.",
"[  .3.3.4.=.5.v.{.{.4.D q 5 q M S q < 4 9 9 9 M M Z H H ` H `.eXrXrXrXrXeXeXeXeXeXeXeXeXeXeXeXeX*X*XOXH 8 M X.X.| | ` ` ` X.`.=XuXuXrXrXuXrXrXuXrXrXrXrXrXrXrXrXrXrXrXrXrXrXrXrXtXtXrXrXtXtXtXtXrXrXrXrXrXrXrXrX*X*X*X*XrX*X*X*XrXrX*X*X*X*X*X*X*XrX`.OX*Xs.H OX#X`.a.m.OX&XOXoXd.' 9 m M m 9 m 9 9 9 9 9 8 8 8 4 4 8 9 0 8 4 - > > < < 8 q 8 8 M 9 f S S +.`.].AXAX=XIXPXAXJXKXIXJXJXPXAXJX).O.X.s.f.`.`.|.|.|.oXoX`.CXAXx.3.| ^ 3.{.f = t _.=X3.Y t 6 , , S | f.m.M.M.M.|.|.M.M.S.|.|.|.|.S.M.S.S.M.M.N.N.S.S.M.M.M.M.M.M.S.M.S.S.S.M.M.M.M.M.m.m.M.M.M.M.m.m.m.m.N.M.`.`.`.`.`.`.`.`.`.`.M.M.m.M.M.M.M.N.N.h.M.M.M.m.M.M.M.M.m.m.m.m.m.M.M.M.M.M.M.`.`.`.`.'.$X$XOXOXOXOX$X$X].].].'.'.`.].$X$X$X$XoXoX`.`.`.`.`.`.`.'.].$XOX`.`.`.`.'.'.'.'.`.`.`.`.`.`.`.`.`.`.).).m.m.m.h.m.m.N.N.N.h.h.h.h.h.h.h.h.h.h.g.g.g.h.h.h.h.h.h.h.h.h.m.N.N.M.M.M.M.M.M.`.`.`.`.M.M.`.`.`.`.`.`.`.`.`.`.`.`.`.`.m.m.m.m.m.m.M.M.m.m.m.m.m.m.m.m.m.m.m.m.m.m.m.m.m.m.m.M.`.`.`.`.`.`.`.`.`.`.`.|.`.`.`.`.`.`.`.`.`.`.`.`.`.`.`.`.`.`.m.m.m.`.M.m.m.m.m.m.",
"( W W [ 4.,.*.5.6.:.W E D 7 y J K 0 4 8 9 m M Z Z Z M H { p.*XyXrXrXrXrXeXeXeXeXeXeXeXeXeXeXeXeXrX%XuX`.H M H ` ] ` J ` ] ` +.].rXuXrX*XuXyXrXrXrXrXrXrXrXrXrXrXrXrXrXrXrXrXrXrXrXrXrXrXrXrXrXrXrXrXrXrXrXrXrXrXrXrXrXrXrXrXrXrXrXrXrX*X*X*X%X%X*X*X|.OXrX`.H p.oXOXm.X.X.f.d.X.H Z M 9 9 m m m 8 9 M Z M 9 8 4 8 4 4 8 q 8 4 4 > 4 < 4 8 q 0 0 9 y i W [ hXJXDXJXLXIXIXPXJXJXPXIXIXAXJXAXPX].| O.s.f.`.`.|.|.|.OX`.f.*X=X| | E J 3.w.f t R {.w.W ^ E U S 6 0 J +.d.B.m.N.M.`.|.M.S.|.|.|.|.S.M.M.M.N.N.N.N.S.S.M.M.M.M.M.M.M.M.S.S.M.M.M.M.M.M.m.m.M.M.M.N.h.h.h.h.m.N.m.M.`.`.M.M.`.M.`.`.`.m.m.m.M.M.M.M.M.m.m.m.m.m.M.M.m.m.m.m.m.m.m.m.m.m.m.m.`.`.`.'.'.].OXOXOXOXOXOXOXOXOX$X$X].`.'.'.].'.$X].$XoXoX`.`.`.`.'.].OXOX-X-XOX$X'.`.'.'.'.'.`.`.`.`.`.`.).x.`.`.`.).).m.m.m.m.m.m.m.N.h.h.h.h.h.h.h.h.h.h.h.h.h.h.h.m.m.m.m.h.h.m.m.m.m.N.N.M.M.M.M.m.m.`.`.m.M.M.`.`.`.`.`.`.`.`.`.`.m.m.f.m.m.m.m.m.m.m.m.h.h.h.m.m.m.m.m.m.m.m.m.m.m.m.m.m.m.m.`.`.`.`.`.`.`.`.`.`.`.`.`.`.`.`.`.`.`.`.`.m.m.`.).).).m.m.m.m.m.m.m.m.m.m.m.m.m.m.",
" .( ( :.:.T T =.=.W W W W G E R J S 0 4 4 8 8 9 m M M m.*XrXtX*XrXrXrXrXrXrXrXrXeXeXrXrXrXeXrXrXeXtXrX*XOXX.8 K ` | ` ` | | ] O.OXrXuX*XrXyXrXrXrXrXrXrXrXrXrXrXrXrXrXrXrXrXrXrXrXrXrXrXrXrXrXrXrXrXrXrXrXrXrXrXrXrXrXrXrXrXrXrX*XrXrX*X*X*X&X#X%XOXOX`.*XOX` Z h.`.`.a.{ K H } Z H M 8 8 m M 9 9 9 Z S S M q 8 8 4 4 4 4 5 4 4 5 4 4 4 q 0 y y y W %.-.*.>XJXDXAXJXJXIXPXPXIXIXIXAXAXAXhXAXAXx.o.+.O.f.`.`.|.|.`.f.f.+.).S q 5 7 f y y h R 2.2.(  ... .R G ] +.` { s.B.m.m.M.|.S.|.|.|.|.S.M.M.M.M.N.N.N.N.N.S.N.M.M.M.M.M.M.M.M.M.M.M.M.M.M.M.m.M.`.M.M.N.m.h.h.h.h.m.m.m.m.m.m.m.M.`.`.`.M.m.m.m.M.M.M.m.m.m.m.m.`.`.`.m.m.m.m.m.m.m.m.m.m.M.M.`.`.oX].OXOXOXOXOXOXOXOXOX].].].].].'.`.`.'.$X].].$X$X$XoXoX`.`.`.`.].].OXOXOXOX].'.'.'.'.'.'.`.`.`.`.`.`.`.`.`.).`.`.`.`.`.`.`.`.`.`.`.m.m.h.h.h.h.h.h.h.h.h.h.h.m.m.m.m.m.h.m.m.m.m.m.m.m.m.m.m.m.m.m.m.m.m.m.m.m.M.`.`.`.`.`.`.`.m.m.m.m.f.d.h.m.m.m.m.h.h.h.h.h.h.m.m.m.m.m.m.m.m.m.m.m.m.m.m.`.`.`.`.`.`.`.`.`.`.`.`.`.`.`.`.).).B.).m.).`.`.`.m.m.m.m.m.m.m.m.m.m.m.m.m.m.m.h.h.",
"( ^ ^ T T W W W W W W W W E E W | / J Z 8 8 9 9 8 m H &XrXtXtXyXrXrXrXrXrXrXrXrXtXtXrXrXtXtXtXtXeX*X%XrXrXOXK M J | | ` | | ` | s.-XuXuXrXrXrXrXrXrXrXrXrXrXtXtXrXrXrXrXrXrXrXrXrXrXrXrXrXrXrXrXrXrXrXrXrXrXrXrXrXrXrXrXrXrXeXrX*X*X*X*X*X*X&X#XOX`.OXd.OX*X`.H H X.m.|.f.K M ' H Z m 9 8 9 9 9 9 9 M M M 9 q 8 8 4 4 4 5 5 4 4 4 4 q 0 u V i V u C 8.&.-.{.IXJXAXAXAX=X=X-X[.-X-X-X=X=X-X].=XO.O.+.X.s.m.`.`.`.m.`.B.M ` M 5 @ * 5 % 6 6 6 r D ^ Y E  .| | O.f.Z H } d.M.M.m.M.S.|.|.|.|.M.M.M.M.M.M.N.N.N.N.N.N.N.N.N.N.M.M.M.M.M.M.M.N.N.m.m.m.m.M.M.N.h.h.h.h.h.h.h.m.h.h.h.h.m.m.m.`.`.m.M.m.m.m.m.m.`.`.`.`.`.`.`.`.`.`.`.m.m.m.m.m.m.M.`.`.`.$XOXOXOXOXOXOXOXOX].].].'.'.'.].].].].].$X$X'.'.'.'.$X`.`.`.$X].$X`.'.'.].].'.`.`.'.'.].'.'.`.`.`.`.`.`.`.`.`.`.`.`.`.`.`.`.`.`.`.`.`.m.m.h.h.h.h.h.h.h.h.h.h.m.m.m.m.m.h.h.m.m.m.m.h.h.h.h.h.h.h.h.h.h.h.h.m.m.m.m.m.m.m.m.m.m.m.m.h.h.d.d.d.h.h.m.h.h.h.h.h.h.h.h.h.m.m.m.m.m.m.m.M.M.M.M.`.`.`.`.`.`.`.`.`.`.`.`.`.`.m.h.h.h.f.m.f.m.m.`.`.`.m.m.m.m.m.m.m.m.`.M.m.m.m.m.m.m.h.h.",
"4.:.( T T :.T i b i W W W W W W D S f 0 8 8 9 M m K m.yXrXeXeXtXrXrXrXrXrXrXrXrXtXtXtXtXtXtXtXtXjX*X*XrX*X*XB.8 Z J } ` ` ` ] ] X.).*XuXrXrXrXrXtXrXrXrXrXrXrXrXrXrXrXrXrXrXrXrXrXrXrXrXrXrXrXrXrXrXrXrXrXrXrXrXrXrXeXeXeXeXeXeX*X*X*X*X*X*X%X&XOX`.`.+.`.OXOXX.m ' X.m.`.` M Z H Z m 9 9 8 9 m 9 9 9 9 9 q 8 8 4 4 5 4 4 4 4 4 4 5 r u C %.%.C =.*.-.&.=.[ _.].../ | |  ..._.{.-X=X_._.3.).'.f.f.+.X.s.m.`.`.m.m.`.+.8 9 9 M 0 3 q 5 * % * 6 6 r r D ^  .] ] H 9 8 Z X.M.M.m.M.|.|.|.S.M.M.M.M.S.M.M.N.N.h.N.N.N.N.N.N.N.N.N.N.M.M.M.N.m.m.m.m.m.M.M.M.m.h.h.g.h.h.h.h.h.h.h.h.h.h.m.m.m.m.m.m.`.`.`.`.`.`.`.`.`.`.`.`.`.`.`.`.`.`.`.M.`.`.`.`.`.`.OXOXOXOXOX-XOX].].'.'.].].].].].OXOX].].].].'.'.`.`.`.`.`.`.`.`.`.`.`.'.'.`.).).).'.].].].'.'.'.'.`.`.`.`.`.'.`.`.`.`.`.`.`.`.`.m.m.m.m.h.m.m.m.h.h.m.m.h.h.h.h.h.h.m.h.h.h.h.h.h.h.h.h.h.h.d.h.h.m.m.m.h.h.m.m.m.m.m.m.m.h.m.h.m.h.d.d.d.d.d.m.h.m.h.h.h.h.m.m.m.m.m.m.m.m.m.m.M.`.`.`.`.`.`.`.`.`.`.`.`.`.`.`.m.m.m.m.h.h.h.h.h.h.h.m.m.m.m.m.m.m.m.m.m.m.m.`.`.`.m.m.m.m.m.m.m.m.",
",.=.=.[ T :.:.i u b W W W W [ [ E G D S Z 9 M H s.$XrXrX*XyXpXrXrXrXrXrXrXrXrXrXeXeXrXrXrXrXrXrX%XyXyX*XrXrX*XH 4 S ` ` ` ` ] | X.o.'.*XuXuXyXrXtXrXrXrXrXrXrXrXrXrXrXrXrXrXrXrXrXrXrXrXrXrXrXrXrXrXrXrXrXrXrXrXeXeXeXeX*XeX*X*X*X*X*X*X*X*X%X%X&X#X`.{ X.s.m.s.' H Z { d.` M Z M M M M 9 9 m 9 m m M M M q q 8 4 8 4 4 > > 4 4 4 5 u i %.%.%.i i %.%.i W S D y D D G E G G / D G R D 6 y q 0 S V M S ` a.m.`.`.m.f.J 8 < - Z M 0 q f f D R  ...( ( R D f D y 4 8 ; < ' m.m.m.M.|.|.S.M.M.M.M.M.S.M.M.N.N.h.h.N.N.N.N.N.N.N.N.N.M.M.N.N.m.m.m.m.m.m.m.m.h.g.g.g.h.h.h.h.h.h.h.h.h.h.h.m.m.m.m.m.`.`.`.`.`.`.$X$X`.`.`.`.`.`.`.oXOXoXoX`.`.`.`.`.`.`.].$X].].OXOXOX].].].].].OX-X-X-X-XOX].'.'.'.`.`.`.`.`.`.`.`.`.`.`.).).).`.).).).).'.].].].'.].].'.'.`.`.`.$X`.`.`.`.`.`.`.m.`.m.m.m.m.m.m.m.m.m.m.m.m.m.m.h.d.d.h.h.h.h.h.h.d.d.d.d.d.h.h.h.h.m.m.m.m.m.m.m.M.M.M.m.m.m.m.m.m.m.m.m.m.m.B.B.m.m.m.m.m.m.m.N.m.m.m.m.m.m.m.m.M.`.`.`.`.|.|.|.`.`.`.`.`.`.`.`.m.m.h.h.h.h.h.d.h.h.h.h.h.h.m.m.m.`.`.`.`.`.`.m.m.m.`.M.m.m.m.m.m.m.m.m.",
",.4.4.W E ,.[ W u u i b i =.T 5.{.) J K H ' x.=XrXrXrXrXrXrXrXrXrXrXrXrXrXrXrXrXrXrXrXrXrXrXrXrXrXrXrXrXrXrX*XoXm 8 J ` | | ` | X.X.X.OXuXtXrXrXeXuXuXrXrXrXtXtXtXtXtXrXrX*X*XrX*X*X*XrXrXrXrXrXrXrXrXrXrXrXrX*X*X*XeX*X*X*X*X*X%X%X%X%X%X%X%X%XoXOXOXM.+.` X.+.a.M M H ` J M M 0 M 0 4 4 q 9 9 0 9 M S S M 8 4 5 4 4 4 4 4 4 4 8 6 r i %.C i u r y V V V y y y y 0 q q q 7 0 0 6 7 q 5 6 7 7 6 q 5 q q M ' s.`.`.X.S 5 4 < 3 f f 7 ! z I 2.}.}.}.;X;X>X{.7 4 m m m Z p.M.M.m.M.S.|.M.M.|.`.m.`.m.m.m.N.N.N.h.h.h.h.N.N.M.M.M.N.m.m.m.m.m.m.h.h.m.m.h.h.h.h.g.g.g.g.g.h.h.h.h.h.h.h.h.m.).`.`.`.m.oXOXOXOXOXOX].'.'.).).'.].-X-X-X-XOXOXOX|.`.`.`.`.'.$X'.'.'.`.`.`.'.'.].-X-X-X-X-X-X-X].'.'.'.`.`.).`.`.`.`.`.).`.).).).x.x.f.x.).'.'.'.'.].].'.'.`.`.`.`.`.`.`.`.`.`.`.m.m.h.f.m.m.m.m.h.h.h.h.h.h.h.h.h.h.h.d.d.d.d.d.h.h.h.d.d.d.h.h.m.m.m.m.m.m.m.m.m.m.m.`.m.m.m.`.`.`.`.m.m.m.m.m.m.h.h.m.m.`.`.`.m.m.h.m.m.m.m.`.`.`.`.`.`.`.`.`.`.`.`.`.`.`.`.`.`.`.`.h.m.m.m.h.f.f.h.d.d.d.d.B.m.m.m.).`.`.`.m.m.m.m.m.`.`.`.`.m.m.m.h.h.h.h.",
"T ,.4.4.W W W W u u i W T =.=.}.<X_...f.OX*XrX=XrXrXrXrXrXrXrXrXrXrXrXrXrXrXrXrXrXrXrXrXrXrXrXrXrXrXrXrXrXrXrX*X} 8 9 K ` | ] | X.X.s.s.OXpX*X*XuXuXrXrXrXyXyXrXtXtXrXrXrXrXrXrX*X*X*XrXrXrXrXrX*X*X*XrX*X*X*X*X*X*X*X*X%X%X%X%X%X%X&X&X&X#X#X#X#XOXoX`.f.+.} ' ` ` ' m 8 M 0 8 q 8 q 9 8 4 8 M 0 0 0 0 M M q 5 5 4 4 4 4 4 4 4 < 5 6 u i u r r 6 r y 0 0 q 6 q 5 5 5 5 5 5 5 * * * 5 5 6 6 6 7 q 5 q q q M H s.f.J Z q 4 < 5 D f 7 Q _ v ) {.>X>X}.;X,X<X .H H ' Z m Z } a.m.M.M.oXoX|.M.`.|.`.m.m.m.N.N.N.h.h.h.N.N.N.N.N.N.m.m.m.m.m.m.h.h.h.m.m.m.h.h.h.g.g.g.g.g.h.h.h.h.h.m.m.m.m.`.`.`.`.`.$XOXOXOX-X-X-X].].].].].-X-X-XOXOXOXOX$X`.`.`.`.`.`.`.'.`.`.`.`.).).).].].-X-X].].].].'.).).).).).).`.`.`.).).).).).).x.x.f.f.).).`.'.'.'.'.'.`.`.).x.x.).).m.m.m.h.h.h.h.d.d.d.d.f.f.h.h.h.h.d.d.d.d.d.d.d.a.h.h.d.d.h.h.h.d.f.f.h.h.h.m.m.m.h.h.m.m.m.m.h.h.f.f.d.f.m.m.m.m.m.m.m.m.m.m.m.h.m.m.M.`.|.|.`.m.`.`.m.`.`.`.`.m.`.`.`.`.`.`.`.`.`.`.`.`.`.`.m.h.m.m.m.m.h.d.d.d.d.d.d.d.B.m.m.m.B.m.m.m.m.m.m.m.m.m.`.`.m.m.h.h.h.h.d.d.",
",.=.,. .W W E D u u i W *.*.6.<X,X<XhX=XuXrXeXuXrXrXrXrXrXrXrXrXrXrXrXrXrXrXrXrXrXrXrXrXrXrXrXrXrXrXrXrXrXrXuXyXOXZ 8 M | J | | | | o.` `.ZXCXuXuX*XrXuXrXuXyXeXtXtXrXrXrX*XrXrX*XrX*XrXrXrXrXrX*X*X*X*X*X*X*X*X*X%X%X%X%X%X%X%X#X#X+XOX+XXX+X+XOXoXoXoXoX`.a.` ` X.X.H m M M M M q 5 8 4 ; - 8 q 0 q q q 0 0 q 4 4 4 3 3 3 3 3 < 3 5 6 7 6 5 5 5 5 5 5 > > > 5 q 6 5 5 6 6 7 r y 7 6 5 % % % 3 6 3 5 q q 4 0 X.X.M q 0 0 5 q x x s Q e.I ;.{.>X>X;X;X<XIX3.+.B.d.a.{ H Z M H ' X.a.`.|.m.M.`.h.m.m.m.M.m.h.N.N.h.N.h.h.h.h.N.m.m.m.m.h.h.h.h.h.m.m.h.h.h.h.g.g.h.h.h.m.h.m.h.m.m.M.m.M.`.m.h.h.m.m.`.'.'.'.].-X-X-X-X-X-X-X].].].'.[.`.`.`.`.`.`.`.`.`.`.`.`.`.`.).x.).'.].].'._._.'.'.'.'.'.].[.'.'.'.`.`.).B.).).x.h.x.x.x.x.).`.`.`.`.'.`.`.).x.f.f.f.f.f.d.d.d.d.d.d.a.a.d.d.d.d.d.d.d.d.d.s.a.d.d.f.f.d.d.h.d.d.h.h.h.h.d.f.f.h.h.d.d.d.d.d.d.h.m.m.m.h.d.d.d.s.d.d.m.m.m.m.`.m.`.`.`.`.`.`.m.m.`.oXoX|.`.`.`.`.`.`.`.).m.`.`.`.`.`.`.`.`.`.`.).).).`.m.f.m.m.m.m.h.d.d.d.d.d.d.d.m.m.m.m.B.m.m.m.f.h.h.m.d.m.m.m.h.d.d.h.d.d.d.d.",
"=.:.4.(  .3.c._.G u W W =.<.}.,X,X,XhX=XrXrXeXrXrXrXrXrXrXrXrXrXrXrXrXrXrXrXrXrXrXrXrXrXrXrXrXrXrXrXrXrXrXrXrXuXrXX.9 8 H J o.| | | | | X.*XDXAXuX*XrXuXrX*XrXrXrXrXrXrXrXrXrXrXrXrXrXrXrXeX*X*X*X*X*X*X*X%X%X%X%X%X%X%X%X#X#X#X#X#X+XXXXXXXXXXXoXoXoXoXOXoX`.`.s.X.X.X.H M 0 V K K S q 8 q q > 5 q 5 5 q 0 q 5 4 4 3 < < < < - 3 - 4 4 3 < < < - > - - > > > 5 > 6 t y f k k k t t t 6 = 6 3 @ % 3 5 5 q 4 q ] | 5 * 0 0 0 7 y x s _ e.v ;.r.;X;X;X>X>X<X).`.N.d.m.M.M.h.{ H m Z Z { m.m.m.|.`.m.m.m.m.m.N.N.N.N.N.h.h.h.h.h.h.m.h.d.d.d.d.h.h.m.m.h.d.h.h.h.h.m.m.m.m.m.m.m.m.M.M.m.m.m.m.h.h.f.f.).'.'._.{.-X-X-X=X-X-X].'.'.).).).).).).).).`.`.`.`.`.`.`.`.).).).'.'.].].'._._._.].-X-X-X-X-XOXOX$X`.`.`.).).).x.h.x.x.x.).).`.`.`.`.`.`.`.x.f.f.f.d.d.d.d.a.a.a.d.d.d.a.d.d.d.d.d.d.d.d.d.a.d.d.d.h.h.m.m.d.d.d.f.h.h.h.h.f.d.d.d.d.d.d.d.s.a.d.h.m.m.h.d.d.d.a.d.d.h.m.`.`.`.`.`.`.`.`.`.m.m.m.m.`.|.`.m.`.`.`.`.`.`.`.).`.`.`.`.`.`.`.`.`.`.).m.).`.m.m.m.m.m.h.h.f.d.d.d.d.d.d.h.m.f.d.B.m.m.m.f.d.d.d.a.d.d.d.d.d.h.m.d.d.d.d.",
"W ,.[ [ '.=X=X=X3.D W T =.<.>X,X,X,X<X=XrXyXtXrXrXrXrXrXrXrXrXrXrXrXrXrXrXrXrXrXrXrXrXrXrXrXrXrXrXrXrXrXrXrXrXrXuXOXS 4 4 J | ` ] | ] ` K ` OXAXCX=X*XuXrX*XrXrXrXrXrXrXrXrXrXrXtXrXeX*X*X*X*X*X%X%X%X%X%X%X%X%X#X#X%X#X#X#X+X+X+X+XXXXXoXoXoXoXoXXXXXoX X|.oXoX`.h.j.X.H M M 9 M H K M 8 9 M 9 5 4 4 5 q 5 5 5 4 4 3 - - - - - > > - < - @ # @ @ @ @ @ % 3 q q f D D D W W T T 2.( W u = = * 3 % % 3 % 5 5 5 K K 3 @ 5 q 0 0 f x l e.e.c ;.}.>X;X;X>X;X<X).).a.M.N.h.a.m.`.M.h.' m Z +.d.s.f.`.m.m.m.m.m.N.M.M.N.m.h.h.h.h.h.h.h.h.d.d.d.d.h.h.m.m.m.h.h.h.h.h.m.m.m.m.m.m.m.m.m.m.m.m.m.m.h.h.).x.).'.].{.{.-X-X-X-X-X'.'.).).).).).).`.`.`.`.`.).`.`.).).).).).`.'.].].].].{.{.{.].-X-X-X-X-X-X-X].'.'.`.`.).`.m.m.f.f.f.B.B.).`.`.`.`.`.).).f.d.f.f.d.d.d.a.d.d.d.d.d.d.d.d.d.d.d.d.d.d.d.d.h.f.f.f.h.h.h.h.h.h.h.h.h.h.h.h.h.h.h.d.d.a.a.a.a.a.s.d.f.h.m.h.m.h.d.d.h.m.m.m.m.m.).`.`.`.`.h.m.m.m.m.`.`.`.`.`.`.`.`.`.`.`.`.`.`.`.`.`.`.`.`.`.B.B.B.m.`.`.m.m.m.m.m.h.h.f.d.h.d.d.d.h.h.d.d.m.m.m.m.d.d.d.d.a.a.a.d.d.d.h.m.d.d.h.h.",
"W 4.c._.=XuX=X=X-X^ L T =.<.>X,X,X,XIXhX=X*XeXrXrXrXrXrXrXrXrXrXrXrXrXrXrXrXrXrXrXrXrXrXrXrXrXrXuXrXrXrXrXrXuXrX*XuX`.4 8 M K ` ` J H V ` ` ` =XDXCX*X=XuXuX=X=XrXrXrXrXrXrXrXeXeXeX%X%X%X%X%X%X&X&X&X&X&X#X#X#X#X#X#X#X+XXXoXoXoXoXoXoXoXoXoXoXXXXXoXoXoXXXXXoXOXOX`.h.` H M 8 > q M 0 9 9 9 8 q 4 - 4 4 3 3 5 4 3 - - - - ; ; - @ @ @ + # # # @ @ @ % > 6 t y k L T :.6.{.>X<X<X;Xr.4.b = % * % > 3 > q 0 0 S M 4 * 3 3 q V G 7 x _ P v 2.}.}.>X>X>X<X<XO.f.M.a.m.m.M.M.M.h.a.K 8 8 ' +.+.s.f.B.B.m.m.m.m.N.N.N.m.h.h.h.h.h.h.h.h.d.d.d.d.h.h.m.m.m.m.m.m.h.h.m.m.m.m.m.m.m.m.m.m.m.f.f.).).).`.'.'.].].{.-X-X-X-X].'.).).x.x.).`.`.`.`.`.`.`.`.).`.`.`.`.`.`.'.'.].-X-X-X-X-X-X-X-X-X-X-X].].].'.'.).).).m.B.`.m.h.h.h.f.h.f.h.m.`.).).x.f.f.h.h.h.h.h.h.d.d.d.d.d.d.d.d.d.d.d.a.a.a.d.d.d.d.h.f.h.m.`.`.`.`.`.).m.h.m.h.f.f.h.h.h.h.d.d.a.a.a.a.a.a.d.h.m.m.m.h.d.d.h.h.m.m.m.m.m.).`.`.`.x.f.B.m.m.m.`.`.`.`.`.`.`.`.`.`.).`.`.`.`.`.).).`.B.B.f.f.B.m.m.`.m.h.h.h.h.h.h.h.h.d.d.d.h.h.d.d.d.d.h.h.h.d.d.d.d.d.d.d.d.d.h.h.d.d.h.h.",
"V 3.=XhXrX*X*XpX=X_.W T =.6.>X,X,X,X<XhX=XyXyXeXrXrXrXrXrXrXrXrXrXrXrXrXrXrXrXrXrXrXrXrXrXrXrXrXuXrXrXrXrXrXrXuX*XuX*XH ).` H K J H ' X.'.OX+.).CXZXuX*XuXuX*X*X*XrX*XrXeXeX*X%X%X%X%X%X%X%X&X#XOX#X#X#X#X#X#X#X#XOXOXoXoXoXoXoXoXoXoXoXoXoXoXoXXXoXoXoXXXOXXXXX|.oX|.oXa.H M m 9 8 8 9 M M 9 8 8 8 4 4 - - 3 3 < - - @ @ @ @ + # # # + # # # # # @ % 6 r u W W :.r.}.>X>X>X:X:X:X:X:X;X{.:.y % > % 5 q 0 y y S q 4 3 @ > 5 0 G 6 5 = * h ^ ^ ^ 2.w.{.>X}.E X.m.M.N.d.m.`.m.{ Z < ; ; M X.f.).f.B.m.m.m.m.m.N.N.h.h.h.h.h.h.h.h.h.h.d.d.d.d.h.h.m.m.m.m.m.`.`.`.M.m.m.m.m.m.`.).).`.`.`.`.'.'.'.-X-X-X-X-X-X-X].].'.).).).).x.x.f.).).).`.).m.m.`.).`.`.`.`.'.'.'.].].-X-X-X-X-X-X-X-X-X{.[._._.).).x.x.x.x.h.m.`.`.h.h.d.d.d.f.d.f.).m.f.f.f.f.`.`.`.m.m.h.h.d.d.d.d.a.a.a.a.a.d.d.a.a.d.d.d.f.f.m.m.`.`.`.`.`.m.f.f.f.h.h.f.f.h.h.h.h.d.d.d.a.d.a.a.a.d.h.m.h.h.h.h.h.h.h.h.h.f.f.m.`.`.`.`.`.m.m.m.B.B.).`.`.`.`.`.`.`.).).x.).`.`.`.x.f.f.x.f.B.m.m.f.f.m.).m.h.h.h.m.h.h.d.h.h.d.d.d.d.d.d.d.d.h.h.h.d.h.h.d.d.d.a.d.d.d.d.d.d.d.d.",
"r V x.rXrXtXyXeX=X=X[ b =.y.:X:X,X,XIXAX=X=XyXrXrXrXrXrXrXrXrXrXrXrXrXrXrXrXrXrXrXrXrXrXrXrXrXrXrXrXrXuXrXrXrXrXuX*X`.$XZXAXH S K ` f.*XuXuX-X| =XZXZX=X=XrX=X=X*X*X*X*X*X%X%X%X%X%X%X&X#X#X&X#XOXOXOX#X#X#X#X#XOXOXoXoXoXXX#X&X|.oXoXoXoXoXoXoXoXoXoXoX XXXXXXXoXOXoX`.+.H H M 9 8 8 > 4 8 8 8 8 9 8 < - < < ; - - @ @ + + + + o o o O # # # # % % 6 t D ( 4.6.r.{.;X;X>X>X:X,X:X:X:X;X;X;X2.6 5 % 5 q q q 5 q 9 3 @ - 8 8 5 S 0 q @ * D D 6 7 6 r r k D q H { h.N.M.M.d.{ m : < 1 < 4 H s.).f.`.m.m.m.h.h.h.h.h.h.h.g.g.h.h.h.d.d.d.d.d.h.h.m.m.m.m.).`.`.`.`.`.`.`.`.`.`.`.`.`.'.].OXOX-X-X-X-X-X-X].'.].'.).).).).).).).).x.f.f.B.m.).m.m.m.f.f.f.B.).`.`.'.'.'.'.'.].].{._.{._._.{._._._._.).).x.x.`.`.`.`.m.m.h.f.d.d.d.d.d.f.m.).`.).).).m.m.m.h.h.h.d.a.d.d.d.d.d.d.a.a.d.d.d.a.d.d.f.m.m.m.`.`.m.d.s.a.d.s.d.d.f.h.h.f.d.d.d.f.f.d.d.d.d.d.a.a.d.h.h.h.h.h.h.h.h.h.h.d.d.d.d.h.).`.`.).`.`.m.f.f.B.`.`.`.`.`.`.`.`.).).x.).`.x.f.f.f.f.f.B.`.`.m.f.m.`.m.h.h.h.h.h.d.d.h.h.d.d.d.d.d.d.d.d.m.h.h.d.d.d.a.a.a.a.g.d.d.d.a.a.d.d.",
"q 0 H X.s.d.oXeX=X=X4.W 5.;X:X:X,X,X,X,X<X=XrXyXrXrXrXrXrXrXrXrX*X*XrXrXrXrXrXrX*X*XrXrXuXrXrXrXrXrXrXrXrXrXrXrXyX&Xf.=XPX=XK Z O.=XuX=X*XuX*X`.X.=XDXAX=X=XuX*X=X=X*X&XOX&X%X%X%X%X#X%X#XOX+X%X#X#X#XOX#X#X#XOX#XoXm.oXCXZXzXHX%XM.oXoX|.#X&X|.|.oXXXXXXXXXoXoXXX|.+XM.p.' Z Z M m 8 8 1 1 1 8 8 8 8 4 < - ; ; # + O o O O O O + o o + + @ @ @ @ 6 t b :.6.r.r.r.y.;X;X;X>X:X,X:X,X:X:X;X;X}.= * % 5 q q 0 5 q y J H + q 5 0 E K 4 4 0 S S 5 5 q 6 y 7 q S M s.a.m.m.X.Z 1 : : 1 : 9 9 8 | f.f.m.d.m.m.h.h.d.d.a.d.d.h.h.h.h.h.d.d.m.m.m.h.h.h.).`.`.'.'.'.'.].`.`.`.).`.'.].OX-X-X-X-X-X].-X-X].'.).x.f.f.f.f.x.f.f.).`.`.f.d.d.d.h.f.f.d.f.m.).).).).x.).x.).'.'.'.).'.'._.'._._.).).).).'.'.).).).).).).m.f.h.h.d.d.d.f.m.m.`.`.`.`.`.h.h.h.d.d.d.d.d.d.d.d.a.a.a.a.a.a.a.d.a.f.a.f.f.f.).`.`.`.h.d.s.p.p.a.a.a.a.s.f.d.f.f.m.m.f.f.f.f.h.h.h.d.d.d.d.d.d.d.d.d.d.a.a.a.d.d.a.a.d.d.h.m.`.`.`.`.`.`.).).x.x.).).f.f.f.).`.m.).`.`.`.).).f.f.x.h.h.m.`.`.`.m.`.).h.h.h.h.h.h.d.d.d.d.d.h.d.d.d.d.d.d.d.d.d.a.d.d.d.d.d.d.d.d.d.d.d.d.",
"5 > 4 4 1 1 m H ].]. .W 5.;X>X>X,X,X,XIX<XhX*XtXrXrXrXrXrXrXrXrXrXrXrXrXrXrXrXrX*XrXrXuXuXuXrXrXrXrXrXrXrXrXrXrXrX`.f.AXhX).).OX=X=X=X*X*X*X*X*XO.+.=XKXCX-X*X*XOX*X*X%X#X+X#X#X&X+X#X%X%X%XXXoXOXOXOXOXOX#XOX|.+.m.oX*XlXrXeXCXOXh.`.M.M.%XOX|.XXXX XXX+X+XXX|.OX|.XXN.' ' H H M m m 9 8 1 1 1 < < < < ; ; ; ; # O o o O O O O O o + + + + # @ % t j T :.6.6.r.r.y.y.;X;X;X:X:X,X,X:X:X:X;X;XT % % 3 5 q 0 5 q 0 0 5 + 4 > 0 J S 3 5 0 S S 5 q 0 5 q y 0 Z Z d.m.B.} M < < 1 < < ' s.' 8 S O.X.f.d.m.m.m.m.d.a.h.d.d.d.d.h.m.m.M.m.m.m.h.m.`.`.`.'.'.'.'.].].].'.'.OX-X-X-XOX].'.].].-X-X-X].].).).x.f.f.f.f.f.f.f.x.).`.).f.s.d.d.d.d.d.d.f.B.f.f.).).).`.`.`.'.).).).).'._.)._._.'.'.'.).).).).).x.f.f.f.f.d.h.d.d.d.f.m.m.m.`.).m.f.f.d.f.f.d.d.d.d.a.a.a.a.a.a.a.a.d.d.d.d.d.d.d.f.d.f.x.).m.h.f.d.s.a.a.a.a.a.a.a.f.d.f.f.d.d.d.f.d.h.m.`.`.`.m.h.f.d.d.f.s.a.a.a.a.a.a.a.a.a.a.a.a.d.d.f.m.m.m.m.B.f.f.f.f.f.f.).).`.`.B.).).).).).).).).).).m.).`.`.`.`.).B.f.f.h.h.h.h.d.d.d.d.d.h.h.d.d.d.d.d.d.d.d.a.g.d.d.d.d.d.g.g.d.d.d.d.",
"V 0 8 8 1 < 8 8 8 M y u 4.}.;X>X,X,X,X,X,XhX=XrXrXrXrXrXrXrXrXrXrXrXrXrXrXrXrXrXrXrXrXrXrXrXuXrXrXrXrXrXrXrXrXrXrX`.X.=X=X-X=X=X=X=X*X=XrX*X*XrX-X+.O.=XDXCX*XOX*X&XOX&X%X%X%X+X&X#X+XXXOX#X%X#X%X#XoX`.h.a.X.X.H H H H H H H ` ' H ' ' ` #Xm.h.m.`.XXXXXXXXXXoXXX X Xm.H ' H Z M M m m 9 8 1 1 ; ; ; ; ; ; ; + + O o X o O o o o o + + + + @ % 6 y W :.:.5.5.6.r.y.y.;X;X>X:X:X,X,X,X:X:X;X>Xr.6 % * 6 6 5 5 5 @ @ - 5 4 5 q S G 0 0 y S y 3 5 q q 0 0 5 9 K `.a.Z 1 < 1 1 1 8 ' d.`.s.Z 8 ` X.a.d.m.B.d.d.d.a.d.a.a.d.m.M.`.`.`.m.m.m.m.).`.`.[.'.].].].].].].].].-X-X-X].].'.).'.'.].'.'.'.).x.f.f.O.f.f.f.f.x.x.).).).B.f.s.d.d.d.d.d.d.f.f.f.f.x.).).`.`.`.'.).x.x.).'.'.)._.).).).).).x.x.f.f.f.s.d.d.d.f.h.d.d.d.f.f.m.m.m.f.f.d.f.a.s.s.s.s.a.a.a.a.a.a.a.a.a.d.d.d.d.d.d.a.a.f.d.f.f.f.d.f.f.f.s.a.a.s.a.a.s.f.d.d.d.d.s.s.s.d.f.m.`.`.`.`.`.).f.d.s.s.a.s.a.a.a.a.a.a.p.p.a.a.p.a.a.a.d.d.f.f.f.f.f.f.f.f.).).`.`.`.f.B.B.B.B.B.m.`.`.).x.f.f.f.m.f.f.f.f.f.f.h.h.h.h.d.d.d.d.h.h.h.d.d.d.d.d.d.d.d.d.a.a.d.d.d.d.a.a.d.d.d.d.",
"0 q q 4 4 4 < ; < ; 5 6 V T 4.>X>X,X,X,X,XhXhXuXrXrXrXrXrXrXrXrX*XrXrXrXrXrXrXrXrXrXrXrXrXrXrXrXrXrXrXrXrXrXrXrX*XOXX.=XAXIXIX-X-X=X=X=XrXrX*X*X*X$X+.s.uXHXCX-XOXOX&X&XXXXX+X%XoX#X%XOXoXoXoXoXN.d.{ ' Z M m m H M M M Z H Z M Z Z Z Z Z oX` ` { p.h.|. X XXXOXXX X X|.Z H H Z M M M m m 9 8 8 < ; ; ; ; ; + o O O X X o O O o o + + + O O % > t k W T :.:.>.6.r.y.;X;X;X;X:X:X:X,X,X:X:X:X:X;Xk = % 5 5 3 > 3 0 5 > > q 0 0 0 R D G G J G S D y f S G D S | O.m 1 < 1 < : m X.`.m.f.).} 9 m ` } s.d.d.a.a.d.d.d.d.d.m.`.`.`.`.m.m.).`.`.`.`.`.].].-X-X-X-X].].-X].].'.'.).).).'.'.'.).).x.x.x.x.x.x.x.x.x.x.x.).).).`.).B.f.s.a.d.a.a.s.s.f.f.x.).).`.).`.`.).'.).x.x.).).).).).x.).).).x.x.f.s.s.s.s.d.d.d.h.h.d.d.d.d.d.f.f.f.f.d.f.s.s.s.s.a.a.a.a.a.a.a.a.a.a.a.d.d.d.a.a.a.a.a.s.f.f.f.f.f.f.f.f.s.s.a.a.a.a.a.f.d.d.d.d.s.s.f.f.f.f.m.).).`.`.`.`.).B.B.d.a.a.a.a.a.a.a.a.a.p.a.p.p.p.p.a.a.a.d.f.B.).).).`.`.).).).m.f.f.f.B.f.B.B.).`.).x.f.f.f.f.d.d.f.f.f.f.h.h.h.d.d.d.d.d.d.d.d.d.d.d.d.d.d.d.d.a.a.a.a.d.a.a.a.a.g.d.d.d.",
"K S 0 4 < 8 4 < 9 < 8 5 q 6 u 3.<X,X,X,X,XIXhX=XrXrXrXrXrXrXrXrXrXrXrXrXrXrXrXrXrXrXrXrXrXrXrXrXeXrXrXrXeX*X*X*X*X*X'.-X=X=XAXhX[.=X=X=X*X*X*X%X%X%XOXs.+.*XDXZX*X%XOXoXXX+X@X@X+X+XXXoXoX`.X.H Z M m 8 8 8 m m 9 m M Z M H H Z H H H H H OX` H ` ' ` p.`.oXoXoXoXoX|.`.Z Z Z M M M M m m m 9 8 < < ; ; ; + + o O o X X o O o o O O O O O # > q y j L T :.:.>.6.r.r.y.;X;X;X;X;X;X:X:X:X:X;Xy.r.( r % % > 3 > > 3 @ @ 5 O.O.| J G D D G U R R ^ ;.2.2.{.{.2.E 0 < 1 < ; 1 H +.`.B.f.`.`.s.H 8 9 H X.+.d.d.a.d.d.`.`.`.`.`.`.m.f.m.m.`.`.`.`.'.'.].].-X-X-X-X].'._._.'.'.'.'.'.).'.'.).).x.x.).'.).`.`.`.`.).).).).).m.m.B.f.d.d.s.s.s.s.d.f.f.B.).`.`.`.`.`.'.).).).x.x.).).).).x.x.x.x.f.f.f.s.s.s.s.s.d.d.f.f.f.f.d.d.f.d.f.f.f.d.d.s.s.s.s.s.s.s.d.d.d.d.a.a.a.d.d.d.d.a.a.a.j.j.j.s.f.B.f.f.f.f.f.a.a.a.a.a.a.a.s.f.d.d.d.d.s.f.f.f.f.f.f.f.f.).`.`.`.`.`.`.m.d.s.a.a.a.a.a.a.a.a.a.a.a.a.a.a.a.a.a.f.f.).`.`.`.`.).m.m.m.f.f.f.f.B.m.m.).).).x.f.f.f.f.f.f.f.B.f.B.f.d.d.d.d.d.a.d.d.d.d.d.d.d.a.a.a.d.d.a.a.a.a.a.a.a.a.a.a.a.a.g.",
"J S 0 > - 4 4 - + ; 4 8 q q 5 6 D 4.<XIXIXIXhX=XrXrXrXrXrXrXrXrXrXrXrXrXrXrXrXrXrXrXrXrXrXrXeXeX*X*X*X*X*X*X*X*XrX*X-X3.^ 2.<XhX3.].=X=X=X%X%X%X*X%X&X`.+.+.OXCXDXCX*X&X#X&X#XXXoXOXoXa.H m m M m N N m m m M M M M M M m M H H Z H H H K &X+.' ` ' ' ` p.h.`.oXOXOX|.`.H M Z Z Z M M m m m 9 8 - - ; ; + + + O O o X o O O o o O O O O # > 6 y y j L T :.:.>.6.r.r.r.y.;X;X;X;X;Xy.;Xy.y.>.>.r.{.u % % % % % > q 5 q M O.] S y D D D D Y ( ;.4.{.;X>X<X}.G 7 % 4 ; ; 9 } `.`.f.m.d.`.).`.s.m ; m ' ` +.m.s.d.d.`.B.B.B.`.`.m.B.B.B.B.f.x.).`.'.'.].].].]._._._.).'.'.'.'.'.).).x.).).).x.x.x.x.f.f.x.).).).).).).).B.f.f.s.d.d.d.d.d.f.f.B.B.B.f.).).`.`.`.'.).).).).).`.`.`.).).).x.f.f.f.s.s.s.s.s.s.s.f.f.f.f.f.f.f.d.f.h.h.f.f.f.d.f.d.d.d.B.m.).`.m.h.h.d.d.d.d.d.d.d.s.s.s.s.s.s.f.f.f.f.f.d.f.a.a.a.a.a.a.a.s.f.f.d.d.d.f.f.m.`.`.m.f.d.f.f.f.).`.`.`.`.`.`.f.s.a.a.a.p.a.a.a.a.a.a.a.a.a.a.a.a.s.s.f.f.f.).`.`.m.m.f.d.s.s.f.d.d.d.d.f.f.f.f.f.f.).).B.f.B.B.d.d.a.a.a.a.a.a.a.a.d.a.a.d.a.a.a.a.a.d.a.d.d.d.d.a.a.a.a.a.a.a.a.",
"S S q 3 3 4 4 4 4 8 1 < 4 4 5 3 5 6 r W {.hXhXhXrXrXrXrXrXrXrXrXrXrXrXrXrXrXrXrXrXrXrXrXeXeX*X*X*X*X*X*X*X*X*X*X*X*X'.G F 2.>X<Xw.{.=X=X=X*X#X#X#X&XOX&X*X).| f.=XAXDXjXOX|.oX&XoX+.Z N m m 9 8 m m m m m 9 8 9 m M M H K ' ' K ` ` } X.` -Xf.` ` ` { ` ` { s.`.oXoX|.`.' m M Z Z M M m m m 9 8 ; - - - + + O O o o X o O O O o O O O # % 6 y y u j L T :.:.:.4.>.>.6.r.r.y.y.y.;Xy.r.:.#.#.>.}.}.b = = % % > 6 q 5 5 q S V S S S D D Y ( 4.}.;X;X<X<X{.~ % @ 8 ; 4 H s.`.`.`.`.`.f.d.m.`.d.H : 8 Z M ` d.s.d.d.f.f.f.B.B.).`.`.B.d.d.s.f.f.).).).).).).).x.x.).'.'.).).x.).).).).).).x.f.s.s.s.s.s.f.f.f.f.x.).).B.B.d.s.d.d.d.d.d.f.B.`.`.).B.f.x.).`.'.`.).).).).'.'.'.`.`.`.x.f.f.f.s.s.s.s.s.s.f.f.f.f.f.x.).f.f.f.f.f.h.h.f.f.d.d.f.d.d.d.f.B.).).m.h.h.f.f.d.d.d.d.d.f.s.d.f.f.f.f.f.f.B.h.d.f.a.a.a.a.a.a.a.s.f.f.f.d.f.f.f.).).).x.f.f.s.s.s.f.x.).).f.`.`.x.d.a.a.a.a.a.a.p.p.p.p.a.a.a.a.a.a.j.a.s.s.f.f.).f.d.d.s.a.a.s.a.a.+.a.s.s.f.s.f.f.f.).B.B.f.f.B.d.d.s.s.a.a.a.a.a.a.a.a.a.a.a.a.a.a.a.a.a.d.d.d.d.d.a.a.a.a.a.a.a.",
"J S 0 5 > 3 5 4 > 4 ; 4 4 ; 4 4 < 3 5 6 = y  .].rXrXrXrXrXrXrXrX*X*X*XrXrXrXrXrXrXrXrXeXeXeX*X*X*X*X*X*X*X*X*X*X*X*X).U ^ ( ( >X<X<X=X-XOX*X#X#X#X#X#XOXOXOX'.s.| '.uXCXrX&X`.p.Z m 8 8 8 8 9 m m N N m m m M M Z H H H H ' ' ` ` ` } X.X.*X].| | | } { ` ` X.j.`.oX|.oXX.m M M M M M M M M m 8 ; - < - @ + o X O o o o O O O o O O + @ 3 q y y u k j L T :.:.5.:.:.>.>.r.r.y.y.y.r.>.b #.>.r.r.}.u & = % 3 6 y q 5 0 H ` O.o.S D D D W ( 4.}.;X>X>Xw.t 6 5 4 1 8 K s.`.`.).`.'.m.`.`.`.`.a.` 8 4 9 ; Z +.+.d.B.f.B.).`.`.B.f.f.d.d.B.f.f.f.f.f.f.f.f.x.3.x.).'.).).'.'.'.`.`.).`.).).f.s.s.s.s.s.f.f.f.f.x.).`.`.m.B.d.s.d.d.d.B.B.B.`.`.`.).B.).`.`.'.'.'.'.'.).).'.'.].$X`.).f.s.s.s.s.j.s.s.+.s.f.f.x.x.).).`.).f.f.s.d.d.d.s.s.a.a.a.a.a.a.a.a.s.s.f.s.a.a.s.s.s.s.a.f.f.f.d.f.f.f.f.f.f.).m.f.f.a.a.a.a.s.a.a.s.s.f.f.a.a.f.f.f.f.f.f.s.s.s.s.j.s.f.).h.d.x.x.x.d.a.a.a.a.a.a.p.a.p.p.a.a.+.a.a.a.a.a.s.s.f.f.f.s.a.j.j.j.s.a.a.a.j.a.f.d.f.f.f.x.).).).B.f.f.f.d.d.s.a.d.a.a.a.a.a.a.a.a.a.a.a.a.a.a.a.a.d.d.d.d.d.a.a.a.a.a.a.a.",
"U y t y 7 6 5 > 4 3 4 4 4 4 4 4 4 4 4 < < 4 8 q K oXrXrXrXrXeXrXeX*XeXeX*XeX*X*X*X*X*XeXeX*X*X*X*X*X*X*X%X%X%X%X%X*X'.^ L W :.r.;X<X>X-X-X*XoX&X+X+X#X#X#X#XOXOX`.X.` OXCX$XH m 8 8 4 8 8 9 m m 9 9 9 9 m M M Z H H K ` ` ` ` ] | X.X.O.X.=X-Xo.X.X.| ` X.{ ` X.s.m.$X`.f.m m M Z m M M m m 8 < - < < @ o X X X o O O O X O O O $ O @ 3 7 t y y y D L W T T T T :.:.:.:.*.>.y.y.r.>.=.b b b b i T u = , 6 t u u S D K f.f.O.E V D D L W :.4.}.>X;XQ 6 3 3 4 8 9 +.s.).).B.`.`.`.`.).m.`.`.`.s.M 9 8 < 8 } +.s.s.f.f.).).x.f.f.f.f.f.f.f.f.f.f.f.f.f.f.f.x.).).).).).).).`.`.).h.).x.x.f.f.f.s.s.s.d.f.f.f.f.).'.'.).f.f.f.s.s.f.f.).'.OXOX'.`.).'.'.'.`.).).).'.'.'.'.'.).x.x.s.s.s.s.+.+.+.s.s.f.d.f.f.x.).).).).).f.f.s.s.s.f.s.s.s.j.j.j.a.s.a.j.j.j.a.a.s.s.a.j.+.+.+.+.j.a.a.a.s.d.f.f.f.f.B.B.f.f.d.a.a.d.a.a.a.a.a.a.d.d.d.f.f.f.f.d.s.a.+.+.+.+.s.s.f.f.).).).).).f.f.s.d.d.a.a.p.p.p.p.a.a.a.p.s.d.h.`.x.f.s.a.a.p.a.a.j.a.s.a.f.f.d.d.).x.x.x.x.).).`.`.m.f.d.d.a.a.a.a.a.a.a.a.a.d.d.a.a.a.a.a.a.a.a.a.a.a.a.a.a.a.a.a.a.a.a.",
"D D D y y y y q 3 3 3 4 4 4 4 4 - < 4 < < 4 8 q 9 Z d.*XtX*X*XeX*X*X*X*X*X*XeXeX*X*X*X*X*X*X*X*X%X%X%X%X%X%X%X%X%X%XOX3.Y c :.4.r.>X>X-X-XOXoX%XOX#X#X+X+XOXOXOX-X).X.].uXf.8 4 8 8 8 9 9 9 9 8 9 9 9 m M M H H H H K ` ` ` | X.X.O.O.).O.=X=XO.O.O.X.X.X.X.` { X.s.).`.).Z m M M M M 9 9 m 9 : - < < @ o o X X X o O O O O O $ O # 3 5 7 t t y y u u u u u u b b b T =.#.>.r.r.r.:.b p i T T b 4.b & & 6 y D W E J | s.f.O.J D f D L W ;.{.{.w.j r % % @ 3 M O.s.f.`.).B.B.f.f.B.B.m.`.`.`.d.H M < 8 ; ` X.s.s.f.f.).).f.f.f.f.f.f.f.f.f.f.f.f.f.f.f.f.f.x.).).).).).f.f.x.f.d.f.f.f.s.s.s.s.s.d.f.).).).).`.].'.).f.f.f.f.f.f.).`.`.`.`.).).).).).).x.x.x.x.x.).x.x.f.f.f.f.f.s.s.s.s.s.f.f.f.f.f.f.x.).).).).f.f.f.s.O.s.s.f.f.f.f.s.s.a.a.j.j.j.a.j.a.a.a.a.j.p.X.X.X.X.p.p.p.a.a.d.f.f.f.f.B.B.f.f.d.a.a.a.a.a.a.a.p.a.a.a.s.s.f.d.d.d.a.s.+.+.+.+.+.a.a.s.f.f.f.).).m.f.d.a.a.a.a.p.p.p.p.+.+.a.a.f.d.h.`.f.s.j.j.p.+.p.a.s.s.s.s.a.d.f.h.x.f.f.f.x.x.).).m.m.f.d.d.a.a.a.a.a.a.a.a.a.a.d.p.p.p.a.a.a.a.d.a.a.d.d.d.a.a.a.a.a.a.a.",
"y D D D S D R D y t 6 5 3 3 3 - 4 4 < < < 4 8 9 < 9 M +.*X*X#XrX*X*X*X*X*X*XeXeX*X*X*X*X*X*X%X%X%X%X%X%X%X%X%X#X%X+X*X]./ j T :.e.;X>X>X-X%X+X+X+X+X+X+X#X#XOXOX[.).O.-XCXx.q q < < - < 4 8 9 9 8 9 m M M Z H H H H K ` ` | X.X.o.O.)._.).-X=X).).O.o.o.o.X.X.X.s.+.f.`.`.' 9 M M M m M m 9 m ; < < < @ + o o X X X O O O O X $ O % 5 q 7 7 t y t u u r r r r t u u b b b =.6.y.r.#.p p b 6.{.}.;X4.e & r k D D E E O.+.f.o.V V k D D L 4.{.( 6 % % % * 5 ] ).O.f.B.).).B.B.f.f.B.).`.`.f.m.d.' Z < 4 ; H +.+.B.f.f.f.f.f.f.f.d.f.f.f.f.f.f.f.f.f.f.f.f.x.).`.'.`.).f.s.s.f.f.s.s.s.s.s.s.s.s.s.d.f.x.).).`.`.`.'.).).).`.`.f.f.f.f.f.s.f.f.f.x.x.x.f.f.O.O.f.x.x.f.O.o.O.O.s.f.f.s.s.s.f.x.x.f.f.f.f.x.x.).).).).).x.f.f.f.f.x.).h.d.f.s.s.a.j.j.j.a.a.a.a.a.a.p.p.X.X.p.X.X.X.X.+.a.a.s.s.s.s.f.f.f.d.d.a.a.a.a.a.p.p.p.p.p.p.X.+.j.s.a.a.s.s.p.p.p.+.+.+.+.p.s.s.f.f.h.h.d.a.a.a.a.a.a.a.a.a.a.d.d.d.d.d.d.d.s.j.+.j.p.+.p.a.s.s.s.a.d.d.m.m.f.f.f.f.f.x.h.f.m.m.f.d.d.d.a.a.a.a.a.a.a.a.a.a.p.p.a.p.a.a.a.a.a.a.d.d.d.d.a.a.a.a.a.a.",
"D y y D D L E ( ^ R D D y 0 q 3 4 > - - 4 8 8 8 9 M 9 9 a.%X*X*X*X*X*X*X*X*XeXeX*X*X*X*X%X%X%X%X%X%X%X%X%X#X#X#X#XXX&X-X..F v :.4.r.r.}.).OX%X+X+X@X@X+X%XXX`.s.| | J  .).| S K S S 0 0 9 8 9 9 8 9 m M M S H H H H K ` ` | o.O.O.).).[.[.].hX[.).3.O.O.o.o.O.x.`.f.s.f.`.X.9 m M M m K H 9 9 ; < < - @ + O O o X X O O O O # # % 5 7 7 7 7 t y t u u u u t r r r r u i i =.r.;X6.b b =.4.{.}.;X:X}.p & r u t 6 7 K O.O.x.] V D D u Y ;.( y = * = * = R _._.x.x.f.f.f.B.B.B.B.f.f.).m.m.d.d.s.{ Z 9 ; < 9 +.+.`.f.f.s.s.f.d.s.s.f.f.f.f.f.f.B.).x.x.x.x.).).`.`.).f.s.s.s.s.s.s.s.s.s.s.s.s.f.d.s.f.f.).).).).x.`.`.`.'.'.`.f.f.s.s.s.s.s.f.f.x.f.f.f.f.f.f.f.x.x.f.f.f.f.f.f.f.f.s.+.s.f.f.f.s.s.s.f.f.x.x.).).`.`.).).x.f.f.f.d.d.d.s.a.a.a.p.p.a.a.a.a.a.a.p.p.p.p.p.p.p.p.X.X.X.+.p.p.+.+.+.s.s.d.d.a.a.a.a.p.p.+.X.X.X.X.X.X.X.p.p.a.a.a.p.p.p.p.+.p.p.j.j.+.s.s.f.f.d.s.a.a.a.a.a.a.d.d.d.m.m.m.h.d.d.s.a.a.j.j.a.a.p.p.j.j.j.f.d.f.h.f.f.f.f.f.f.f.f.f.f.m.h.f.d.d.d.d.d.a.a.a.a.a.a.a.a.a.a.a.a.a.a.a.a.s.a.a.d.d.d.d.s.a.a.a.a.",
"G y y S D W W T ( ( ;.2. .^ G f 5 > - - 4 8 4 < 9 4 9 9 m d.tX%X*X*X*X*X*X*X*X*X%X%X%X%X%X%X%X%X%X%X%X#X#X#X#X#X+X+X+XOX[.^ j b v :.r.}.{.OX&XoX@X@X+X@X|.B.X.` | / |  . . . . .| | | J K M 9 q 0 M M M S S H H H H K ` ] | o.O.3.).[.].-X-XhX}._.w.w.3.o.o.x.).).s.X.] s.O.V m M M M ` ' 8 9 ; - - - + + O O o X X $ O O # % % 5 6 7 7 t t t y u u u u u t r r r r r u i T r.,X:X6.*.=.:.6.r.;X:X;Xb e p k y 6 y | O.f.x.J D D j D G D t * % * = t 2.<X}.3.).x.x.f.x.).`.).).).f.B.d.d.s.a.s.+.M Z : 1 < ` +.f.s.s.s.s.s.s.s.j.s.s.s.d.f.f.B.).f.f.f.f.).).x.x.f.f.s.s.s.s.s.s.f.f.s.s.s.f.f.d.f.f.x.).`.'.).).`.`.`.`.`.f.f.s.s.s.s.s.f.f.x.x.x.x.x.f.f.f.f.f.x.f.x.x.x.f.f.f.s.s.+.+.s.s.s.+.a.+.O.O.f.f.f.x.f.f.f.f.O.+.j.j.p.p.p.p.p.p.p.p.+.p.a.a.a.p.p.p.p.p.p.p.p.p.+.X.X.X.X.X.X.X.X.X.+.a.a.a.a.a.a.a.X.X.X.X.X.X.+.X.p.p.p.p.a.a.p.p.p.p.p.p.p.j.a.a.s.s.s.f.f.d.a.a.d.d.d.d.d.h.h.m.d.d.d.d.d.f.a.a.p.p.j.s.s.s.a.s.f.d.d.h.h.f.f.f.f.f.f.f.f.f.f.f.f.f.f.d.d.d.d.d.a.a.a.a.a.a.a.a.a.a.a.a.a.a.s.d.s.s.d.d.d.d.d.d.d.d.d.d.",
"k y y y D R ( W :.:.:.2.4.4.4.;.E S q > @ - 4 4 8 ; 9 m 8 Z m.rX%X%X%X%X%X%X%X%X%X%X%X%X%X%X%X%X#X#X#X#X#X#X#X#X@X%X+X+X&X3.G k k ~ r.>X=X'.OXoX+X+X+X`.d.| | | | | ..O.^  .../ | | | J K S S M M M M V S S S S H H J ` ] o.O.O.x.'.-X-X=X=XAX=X{.[._.)...O.O.o.X.` H V J ` S q 9 M M H S 9 9 ; - - ; + O O O X X X X O # % 3 5 7 7 7 7 t t t r r 6 = = r r = = r r r t u T r.:X:X;Xy.r.r.;X;X;X:X:X>.p u W D V ] ).x.x.o.V S S D D t % % 6 6 % L }.<X<X}.3.x.x.x.x.x.).`.`.`.`.`.`.f.f.d.s.s.+.H Z 8 ; 1 Z +.a.s.s.s.s.s.s.a.a.s.s.s.s.s.s.f.B.f.f.m.m.f.f.f.f.s.s.s.s.s.s.s.s.f.f.a.a.a.a.f.f.f.f.x.).).).).).).).f.f.s.s.s.f.f.f.s.s.f.f.x.x.x.x.f.f.s.s.+.+.f.f.s.s.f.f.f.f.s.+.X.X.+.s.+.+.+.+.+.X.X.X.+.o.O.O.O.+.+.X.X.X.X.X.X.X.p.p.p.p.X.X.p.p.p.p.X.{ p.p.p.p.p.p.p.X.{ { p.X.p.p.p.p.X.X.+.p.a.a.a.p.X.X.X.X.X.+.+.p.p.p.p.p.a.a.a.a.a.a.p.p.p.p.j.j.+.O.s.d.f.d.d.s.a.a.a.a.a.f.d.d.a.a.a.a.a.a.a.a.a.a.s.d.h.h.h.h.`.`.m.h.f.f.f.f.d.d.f.f.f.f.f.f.s.s.s.d.d.a.a.a.a.a.a.a.a.a.a.a.p.a.a.a.a.d.d.d.d.d.d.d.B.B.d.d.h.h.h.m.",
"u u y y y R ( :.:.:.:.:.:.4.4.4.3.2.R y 5 > 3 4 4 8 4 8 9 8 H %X%X%X%X%X%X%X%X%X%X%X%X%X#X#X#X%X#X#X#X#X+X#X+X+X+X#X+X+X%X]. .h L I ;.{.{.| `.OX+XoXM.a.| | |  . . . . .E | .. .O.| J K S S S S M V S S S S S H H K J ` | o.O.O.x.'.=X=XhXAXIXhX-X{.]._.3.3.o.D S 0 0 8 0 0 V 5 4 8 8 9 9 9 8 ; - - + + o O O X X X O O @ 3 6 7 t 7 t t r r 6 = % % % 6 u b u r r t t u u i :.;X,X:X:X:X:X,X,X,X:X:Xr.i u k V S o.x.O.O.] S D D y 3 % 6 % . r ( >X<X<X,X}.4._.x.x.).).'.'.'.'.'.].'.f.f.f.a.s.+.} M 8 ; 1 M ` +.s.O.a.a.a.a.s.s.f.f.f.f.s.s.s.f.m.f.f.f.d.f.f.f.s.s.s.s.s.s.s.s.s.s.s.s.s.s.s.s.f.f.f.x.x.).).'.x.f.O.+.+.+.s.f.f.f.s.s.f.f.x.x.).f.f.s.+.X.X.X.O.+.X.X.+.O.s.s.s.s.+.+.+.+.s.s.p.p.X.X.X.X.X.X.+.+.O.O.+.+.X.p.X.X.X.X.X.p.p.p.X.X.X.X.{ { { { { { { { { { { { p.{ p.p.p.p.p.p.X.X.X.+.p.p.p.+.p.p.p.p.p.p.p.a.a.p.p.p.a.a.a.a.a.a.a.a.a.a.p.+.+.+.s.s.s.d.s.a.a.a.a.a.a.a.a.a.a.a.a.a.p.p.p.p.a.a.d.`.`.`.`.`.`.`.`.x.f.f.f.f.f.d.f.f.f.f.f.s.s.s.s.d.d.d.d.d.s.s.a.a.a.a.a.a.a.a.a.d.d.d.f.f.f.d.d.f.m.B.B.d.h.h.m.m.",
"u u y y y V [ 4.:.:.:.:.4.4.4.4.4.4.2.E S q 3 > ; < - 4 m 8 M +.%X%X%X%X%X%X%X%X%X%X#X+X+X+X#X#X#X%X+X+X+X+X+X+X#X+X#X+X+X&X_.G j k ~ {.=Xo.`.oXOXm.{ ` ` | | ^ | | | .... . . .| J S S S S S M S S S S S S S H K K J ` | o.O.O.).].hXAXAXIXIXAX-X{.{.]._.'. .q 3 @ > > 5 @ S q - + 4 9 9 8 4 - - ; + O o O O X   X O # % 5 6 7 t t t t r 6 = % = = r D ;.;.W u u u u u u u b r.:X:X:X,X,X,X,X,X,X:X;Xb i u y H s.x.f.O.J D y y % % % % % y 4.>X;X,X:X:X}.w.].`.'.'.'.].'.'.'.'.B.B.s.s.d.a.s.s.+.9 : < ; Z H s.s.s.a.+.+.j.s.d.h.h.d.d.d.s.d.f.f.f.d.d.s.s.s.a.s.s.s.s.s.s.s.d.s.s.d.d.d.d.d.d.f.f.x.x.x.).'.'.O.O.X.+.+.s.s.f.f.f.f.f.x.).).).).f.s.X.X.X.X.X.+.X.X.X.+.+.+.+.s.s.s.+.+.+.+.s.p.p.X.X.X.X.X.X.+.+.+.+.+.X.X.X.X.X.X.X.p.p.p.p.X.{ { { { { { { { { { { { { { { p.p.p.p.X.X.X.X.p.p.X.+.p.+.+.X.p.p.p.p.p.a.a.a.a.a.p.p.a.a.a.a.s.s.s.s.s.a.a.a.s.s.s.s.d.d.s.s.s.s.s.s.s.s.s.s.j.a.a.s.s.a.a.a.a.a.d.m.`.`.x.x.`.`.`.).x.x.f.f.h.f.d.f.f.f.a.a.s.s.s.d.d.d.d.d.d.d.a.a.a.a.d.d.d.d.d.d.d.d.f.f.f.f.d.f.B.B.f.d.f.f.f.h.",
"i u y V S y W >Xr.:.=.:.4.4.4.4.4.4.4.( Y D 7 5 @ 4 4 @ 9 8 : { %X%X%X%X%X%X%X%X+X+X+X+X#X#X#X#X+X+X+X+X+X+X@X+X+X#X+X@X+X&X`.O.D h ( 2.hX-X3.OX).o.] | | J /  .| |  .^ /  .O.| S S V Z M M M M Z Z S S S S H K H H J ] | o.O.O.).].=XhXIXIXAXIX=X}.{._._.w. .7 7 % 6 6 % q ] M + @ + 0 q q q > # # + o X . O o X O O % 3 6 7 t t t t t t r r r t t u W :.=.T b j u u u u i i =.;X:X:X:X,X,X,X,X,X:X:X=.i D V ] ).).f.| S y 5 3 > 5 % % t 4.}.;X>X<X<X:Xr.{._._.[.[.].'.].'.).O.s.+.+.s.d.d.a.a.+.9 1 ; < 9 K J o.O.| O.X.j.f.f.f.d.f.s.f.f.f.d.f.d.f.a.s.a.a.d.s.s.s.s.s.s.s.s.f.f.h.x.x.).).).).).).x.x.).f.o.+.+.+.j.a.s.f.f.f.s.s.s.f.f.f.f.a.a.+.X.X.X.p.p.+.+.+.+.j.j.+.j.s.s.+.X.+.s.s.s.+.+.p.p.p.{ X.X.X.X.p.a.a.a.+.X.p.p.p.p.p.p.{ { { { { { { { { { { { { { { { { { { { { { X.X.X.p.p.p.p.+.p.p.p.p.p.p.+.p.a.s.s.d.a.a.a.a.a.p.p.a.a.a.a.a.a.d.a.a.a.a.a.a.a.a.a.a.a.a.p.+.a.a.s.s.+.+.+.a.a.a.a.a.a.a.d.f.f.f.h.m.f.f.f.f.x.f.f.f.f.d.d.s.s.s.s.d.f.f.f.f.f.f.f.f.d.s.s.d.f.f.d.d.d.d.s.s.s.d.d.f.m.B.B.f.f.d.d.d.s.s.s.d.",
"W u y 0 S y W {.,X<X}.4.:.4.6.4.4.4.4.:.( E y 7 4 @ 5 < < 8 1 M #X#X%X%X#X#X#X#X#X#X#X#X#X#X#X#X#X#X+X+X+X+X+X+XXX#X+X@X+X&XOX`./ D D E {.-X-Xf.J J J J J E ^ |  .| | ^ ^ | | J S 0 0 0 M Z M M M M M M S S H H K K H J ] o.O.).'._.-X=XAXAXAXAX<X-X{.{.{.{...q D y % % S ..o.M O @ + 4 8 5 5 5 % O   o O $ X o X O O % 5 6 7 t t t y u t t t t u t u W :.:.T b b u u u u i i =.6.:X,X:X:X,X,X:X:X:X:X>.b V V | f.).).J q 5 3 3 > $ % h 2.r.}.;X>X<X<X:Xr.{._.].[.[.[.'.'.'.x.O.+.+.s.s.d.d.d.a.+.m < < < 8 S J o.O.| o.s.s.+.s.a.a.s.a.s.d.d.d.d.f.s.s.s.s.a.d.d.d.s.s.s.f.f.f.).).).).`.`.`.`.).).x.x.x.f.O.X.+.+.a.j.a.j.j.+.+.+.X.X.+.+.+.+.X.X.X.X.p.p.j.j.+.+.+.+.j.j.s.s.s.s.s.+.+.s.s.s.+.+.p.p.p.{ X.X.X.X.X.+.a.a.+.+.X.X.X.X.X.{ { { { { { { { X.X.X.{ { { { { { X.X.X.X.p.p.+.p.p.p.+.p.a.a.a.a.a.+.+.p.+.+.a.s.a.d.d.d.a.a.p.X.p.p.+.a.a.a.a.a.s.+.a.a.a.a.a.+.a.a.s.s.s.s.s.s.s.s.a.s.a.a.a.a.a.a.s.s.s.s.d.f.f.f.f.f.x.x.).).).x.f.f.f.f.f.d.f.f.f.f.f.f.f.f.f.f.B.B.f.d.d.s.f.s.s.s.s.s.s.s.s.f.f.f.s.s.s.s.s.s.s.s.s.s.",
"W u y 0 V V D 4.IXIX,X>X{.6.6.6.4.4.4.4.;.( U y 5 @ 3 - - < 1 Z +X+X#X#X#X#X#X#X#X#X+X+X#X#X+X+X#X+X+X+X+X+X+X+XXX+X+X+X+X#X#XOX].).| R 3.].-X0 5 0 Z S S J ^ | J J J E | J S 0 f 0 0 0 q 0 M S M M M S S S S H H S S S K ` | O.)._.-X=X=XhXhXIXhX=X=X=X{.{...y R [.{._.3.3.o. .5 @ @ + < > > r , %   X O X X X X X O % 5 6 7 t t y y y y u u u j b T :.4.6.4.:.b i u u i i i b *.;X,X:Xy.y.y.;X;X;X;Xr.b t S x.'.f.| 0 @ % % * % 7 Y 2.w.r.}.;X>X<X<X>Xw.3.3.).x.x.x.x.x.x.f.O.+.s.s.f.d.d.a.a.X.M : < < 4 0 K | 3.O.o.+.f.X.s.p.p.a.a.a.d.d.a.s.s.a.a.a.d.d.d.d.d.s.s.s.f.f.f.).).x.).).).).).).f.f.x.f.O.o.O.s.s.s.s.j.p.X.X.X.X.X.X.X.X.X.X.X.X.X.X.X.p.j.j.X.+.+.j.j.s.s.s.s.s.s.s.a.s.s.s.a.a.p.p.p.p.X.X.X.X.X.X.+.+.+.+.X.X.X.X.{ { { { X.X.X.X.X.X.X.X.X.p.X.X.+.p.p.p.p.p.p.p.X.+.+.+.+.p.a.a.a.a.p.+.a.a.a.a.s.d.s.d.d.s.a.+.X.{ { { X.+.+.+.a.a.+.+.X.X.X.X.+.+.a.a.s.s.s.s.s.s.s.s.s.s.+.+.+.p.a.a.s.s.s.s.d.f.f.f.f.s.s.s.f.f.f.f.s.s.s.s.s.a.s.s.s.s.d.d.f.f.f.f.B.B.f.d.s.s.s.s.s.s.f.f.f.f.f.f.f.s.s.s.+.+.+.O.+.+.s.s.",
"W y y 0 V S D W ,X,X,XIX,X;X6.6.4.:.4.:.:.;.2.Y 3 % @ - 8 ; : { +X#X#X#X#X#X#X#X#X+X+X+X+X+X+X+X+X+X+X+X+X+X+X+X+X+X@X@X@X@X@X#XOX&XB.).uXKXAX5 @ < 3 3 4 5 0 S G D D G J S 0 7 0 0 0 Z M 0 0 0 M Z S S S H S S S S V V S S K K  .O._.].{.-X=XAXhXhXAXAX=X-XR 7 _.hXhX-X3. . ._.D @ @ o - # % r p , . $ O O X X X X $ % 5 6 r 7 t y y y u u u k W :.4.r.r.r.r.}.=.b i u u i i b *.6.:X,X;X>.*.6.y.y.u.r.u t | '.B.K q @ # @ # 3 r E 4.4.4.r.;X;X>X<X<X;X4.2.o.O.O.3.x.3.O.f.f.O.s.s.f.f.d.d.a.a.+.H ; : - > q G R w.{.).| f.+.+.a.a.a.d.d.d.d.a.s.a.a.s.f.d.d.d.f.f.f.f.f.f.f.f.).f.f.f.x.).).x.x.x.f.O.s.f.f.f.s.s.s.j.p.p.X.X.X.X.X.X.X.X.X.X.X.X.X.X.X.X.X.X.X.j.+.j.j.j.s.s.+.s.s.s.s.s.s.s.+.+.p.p.p.X.X.X.X.X.X.X.X.+.+.+.{ { { { p.{ X.X.p.p.p.p.p.+.+.+.a.a.a.a.a.a.a.a.a.p.p.p.+.+.+.+.+.+.p.a.a.+.+.+.s.a.s.d.d.s.s.s.+.a.+.X.X.X.X.X.X.X.X.X.X.X.X.X.{ { X.X.X.+.a.s.s.s.s.s.s.s.s.s.+.+.+.+.+.+.+.a.s.s.a.s.s.d.f.f.s.s.s.s.f.f.s.s.a.s.s.s.+.+.+.a.s.s.s.s.d.f.f.f.f.f.f.s.s.f.f.f.x.).).`.`.`.).).).).B.f.f.O.O.O.O.O.+.s.",
"W u y 0 S S V W >X,X,XIXIX,X;X5.:.:.4.:.:.4.{.;.# % > 4 8 ; m `.+X+X#X#X#X#X#X#X#X#X+X+X+X+X+X+X+X+X+X+X+X+X+X+X#X+X@X+X+XXXXX@XXXXX`.`.=XAX=XV q 4 3 3 * w @ 5 * * 7 D D S 0 0 0 0 q 0 0 M M M Z Z S H H H S S S S S S S V V V 0 S ] O._.].-XhXhX=X=X=X=X-XJ R =XAXAXIXIXAX].o.o.@ @ ; @ O % , p r , .   X X X $ $ $ % 6 6 6 r t t y y u u u k W :.4.r.r.r.r.}.5.b b u u u i b *.6.;X:X,Xy.#.*.>.y.y.>.u y O.o.S 5 3 % % % > y Y ^ ;.4.r.r.;X;X:X:X:X;X3.3.x.x.x.x.x.f.s.s.s.s.s.s.s.s.d.s.s.a.d.` ; ; - % 7 R W 4.>X-X| s.f.+.a.a.a.d.d.d.d.a.s.a.+.s.f.f.f.f.f.f.x.).).).x.x.x.f.f.x.).).).).).).x.o.O.x.).f.+.p.p.p.p.p.p.X.X.X.{ X.X.X.X.X.X.X.X.X.X.X.X.X.X.X.p.j.j.s.+.s.+.+.j.s.a.a.+.a.+.+.+.X.X.X.X.X.X.X.X.X.X.X.X.X.{ { { { X.+.+.+.a.a.a.a.a.a.a.a.a.a.a.a.s.s.a.s.a.a.a.a.a.p.p.p.+.+.+.+.+.+.a.a.+.+.s.s.s.s.s.s.+.a.+.+.+.+.p.a.+.+.X.X.X.X.X.X.X.X.X.+.+.s.d.d.s.s.s.s.+.+.s.s.s.s.s.s.s.a.a.+.+.+.a.s.+.O.s.s.f.f.f.x.x.x.f.f.s.s.s.s.s.a.a.s.s.s.s.s.s.s.s.s.f.f.f.f.f.f.B.`.`.`.`.`.'.`.`.`.).).).).).).).).B.B.f.f.",
"W u y 0 S S u W ;X,XIX,X,X,X,X}.:.:.4.:.:.4.}.:.% % > - + 9 X.oX+X+X+X+X#X#X#X+X#X#X#X+X+X+X+X+X+X#X#X#X+X+X+X+X+X+X@X+X+X+XXXXX#X#X+X`.s.} S 0 0 q q 0 y 7 6 5 7 * 7 x s 7 f S S S S 0 0 0 Z H Z Z S S H S S S S M V V V S S S H 0 0 0 D  .[.<X=XhXhXhX-X .S ).IXJXPXLXLXLXAXO...4 + - + O % % , r , & . X X   $ $ # % * 6 6 6 t t y u u u u u j b =.:.6.r.r.r.4.b i u t u u i =.5.r.;X,X;X#.#.*.>.r.:.u S | 0 > @ % % % 7 y D W T :.r.r.r.;X;X:X:X>X}.3.x.).x.f.f.f.f.s.s.s.s.s.s.s.d.s.+.+.s.s.} 8 - 3 6 L :.:.:.{.>XO.o.f.+.+.+.a.d.f.d.d.d.a.s.s.s.f.x.f.f.x.x.).).).).x.x.x.x.f.x.x.).).).).).).O.O.x.f.a.X.X.X.X.p.p.p.p.{ { { { X.X.X.{ { { { X.X.X.X.X.X.X.p.+.p.p.+.j.+.+.+.+.+.X.X.X.+.+.+.X.X.X.X.X.{ { { { { { X.X.X.X.+.+.p.a.a.a.a.a.a.a.a.a.a.a.a.a.a.a.s.s.s.d.s.s.s.s.a.a.a.a.s.a.+.+.+.a.a.s.+.s.s.s.s.f.f.s.s.s.s.d.s.d.d.d.d.s.s.a.a.s.s.s.s.a.a.s.s.s.d.d.f.s.s.s.s.s.s.s.f.f.f.f.d.s.s.a.+.a.s.+.+.X.+.O.s.s.s.f.f.f.s.O.+.+.a.a.s.s.a.a.+.+.O.s.s.s.f.f.B.).).B.f.f.B.B.).).).).).).).).).).).).).).).).`.`.`.`.",
"W j y 0 S V u W ;X,X,X,X,X,X,X,Xr.:.4.:.:.;.{.W 6 > > 4 m { oXOX#X+X+X+X#X#X+X@X#X#X#X#X#X+X+X+X+X+X+X+XOX#X#X#X+X+X+XoX+X+X+XXXXXoXOX&XOX).@.0 5 * * 5 7 f f 7 s x t.r.t.! l 7 0 0 K J K S Z S S S S S S S S S M M M M M V S S 0 M S S y y S ^ _.[.].w. .E -XPXLXLXLXLXPXJXhX| | 0 + @ # O # # % , , , % $     $ O # % * = 6 6 t t u u u u u u k k b =.:.6.6.6.:.i u u t u i i b =.6.r.;X;X:.i #.>.y.:.t 7 0 @ 3 @ % % 7 D G W j ( 4.r.r.y.;X;X:X:X>X{.3.x.).O.O.s.s.s.s.f.d.d.s.s.s.d.s.s.s.s.+.X.M 5 6 u :.4.5.=.4.;Xc.o.s.X.+.+.a.s.d.d.s.s.s.s.s.f.f.f.x.x.x.x.x.).x.x.x.x.f.f.O.O.3.x.x.).).).x.x.x.).f.X.X.{ { { p.p.p.p.{ { { X.X.X.X.{ { { { X.X.X.X.X.X.X.X.+.+.+.+.+.+.X.X.+.+.X.X.X.X.+.X.X.X.X.X.X.{ X.X.X.X.X.X.+.a.a.a.a.s.s.f.f.s.a.s.s.s.s.s.s.a.a.a.a.s.s.s.s.s.s.s.a.a.a.a.a.s.s.s.s.s.s.s.a.s.s.f.f.f.f.f.f.f.f.f.f.s.d.f.f.f.f.f.d.f.f.f.s.s.s.s.s.s.s.d.d.s.s.s.s.s.s.s.s.f.f.d.s.s.s.s.a.+.s.s.s.O.O.O.O.+.X.+.+.+.+.X.X.X.X.X.+.s.s.f.s.s.s.s.f.f.x.).).).).).).f.s.s.s.s.s.f.f.f.f.f.f.f.f.f.x.x.).).).`.`.`.`.",
"W D y 0 V y r W >X,X,X,X,X,X,X,X}.:.:.4.4.:.{.( % 5 4 H h.OX#X#X#X#X+X+X#X#X+X+X#X#X#X#X#X#X#X+X#X+X+X+X+X+X#X#XXX+X+XoXoXXXXXXXoXoXoXOXoX&X).9 5 * # # * f x x s n t.;Xi.t.t.e.S 0 5 0 K ` J K S S S S S S S S M M M V V V V V V 0 S 0 S f y D D D J J | 3.=X-XZXJXLXJXAX-X).D K K @ + # + X O $ & , p , $     $ # % * % = 6 6 r t t u u u u u u u b T :.:.5.6.T p r u u u i i b b :.:.r.;X>.#.#.>.y.>.r % # @ > # 5 y D G D W W T 4.r.{.;X;X;X:X:X>X{.3.x.`.O.s.s.s.+.s.s.a.a.+.s.s.d.s.s.s.d.f.f.K q t u 4.:.*.:.:.}._.O.f.+.+.X.+.O.s.+.+.+.s.s.s.f.f.f.x.x.x.x.x.x.x.x.O.O.s.s.O.O.O.3.x.x.).x.x.x.).).s.X.X.X.X.p.p.p.p.p.{ { { { { { { { { p.p.X.X.X.X.X.X.X.+.+.+.+.+.+.X.X.X.X.X.X.X.+.{ X.X.X.X.X.X.{ p.a.a.a.p.+.+.p.+.p.p.j.j.j.s.s.s.a.a.a.a.s.s.s.a.s.a.a.s.s.s.s.d.d.f.s.s.s.s.s.a.a.a.s.s.s.a.a.s.s.f.f.f.f.f.f.s.s.s.s.s.s.f.f.s.s.s.s.d.f.s.s.+.+.s.+.s.s.s.s.s.s.s.s.s.s.s.s.+.+.+.+.+.a.a.a.O.+.O.s.f.f.f.s.s.s.O.+.+.s.O.O.s.s.s.f.).`.`.).`.`.`.`.`.`.`.`.).).).f.s.+.X.X.X.+.+.O.s.O.O.O.O.O.O.O.O.O.O.O.f.f.).`.",
"L D 6 0 S y u 6.>X,X,X,X,X,X,X,X:X>.:.:.4.4.4.3.6 q '  X#X#X#X#X%X#X#X#X#X#X#X#X#X#X#X#X#XOXOXOX#X#X#X#X#X+X+X@XXXXXXXXXXXXXXXXXoXoX+XXXXX#XB.M q 5 # 5 w * f x s t.i.i.i.t.t.e...0 $ 4 3 8 0 S K H H S S S S S S M M M M M V S V V V V S S S S S S f S K | 3._.[.AXIX=X..R K S S S q X O + X # + X % , r , $   . $ * * % = 6 , r r t t t t u u u k k b T :.:.:.i u u u u u u i u i i :.y.:X:X>.=.>.;X*.& % @ % % 6 y D D L W L W :.4.r.r.;X;X;X:X;X>X3.).f.f.O.a.a.s.a.a.a.a.a.+.O.s.s.s.f.x.c.x.c.W T :.b :.:.=.:.>.r.{.3.X.p.X.O.` O.X.X.+.a.s.s.s.f.f.x.).'.x.x.O.O.x.x.f.O.O.f.x.O.f.x.x.x.x.x.x.).).x.O.X.X.X.X.X.X.p.p.X.p.p.p.p.X.{ { { { { { { X.X.X.X.X.X.X.X.+.+.+.+.+.+.+.+.X.X.X.X.+.+.+.+.+.+.+.+.a.+.+.+.X.X.X.X.X.X.+.+.+.+.+.+.+.O.s.s.s.s.O.+.s.a.s.s.s.+.a.s.B.`.B.s.s.s.s.s.+.+.+.s.s.s.s.s.f.f.f.f.f.s.f.f.f.f.f.f.f.f.f.f.f.f.f.s.s.s.f.).+.+.+.+.+.+.+.+.a.j.+.+.+.O.+.o.+.+.+.+.O.O.+.+.O.O.s.f.f.s.s.s.s.s.s.s.s.s.s.s.O.O.O.s.f.).`.'.'.`.).).`.'.'.'.`.x.f.s.O.+.+.X.X.X.X.+.+.+.+.a.O.O.O.O.O.o.X.X.O.O.O.f.",
"D y y 0 0 t ( }.>X>X:X,X,X,X,X,X,Xr.:.:.4.4.4.{.S | $X%X#X#X#X#X#X#X#X#X#X#X#X#X#X#X#X#XOX#X#X#X#X#X#X#X#X+XXXXXXXXXoXoXoXoXoXoXoXoXOXOXOX&X`.J q 0 5 5 3 * 7 s n i.i.i.n n _ ! ^ / 3 @ 5 4 3 5 8 q M S H S S M 0 0 M M M V M M V V S S S S S S S S S S S G E  .w.3.^ k t t y y 0 K D # $ # # o o X % , 6 6 % $ . # % % % = = = 6 r r r t t u u u u u u b T T b i u u u u u u u p b :.;X:X;X;Xr.#.>.6.i = * # 6 t y k k D D W W W T 4.r.}.;X;X;X;X;X;X2.3.+.+.+.a.+.+.+.a.a.s.d.f.f.B.B.f.f.x.c.c.[ W =.:.:.=.b i b :.r.}.w.3.+.+.O.o.O.X.X.+.a.+.s.f.f.x.x.).).x.x.x.x.x.x.x.x.).).).x.x.x.x.O.x.x.).).).).f.o.+.s.s.f.d.d.a.p.p.X.p.p.X.{ { { { { X.X.X.X.X.X.X.X.X.X.X.+.+.+.X.X.X.+.+.+.X.X.+.X.X.+.+.+.+.+.X.X.X.X.X.X.X.X.X.X.X.X.X.X.X.X.+.O.s.O.O.s.s.O.s.+.+.a.a.+.+.a.s.f.s.s.+.+.+.+.+.+.+.+.+.s.f.f.f.f.f.f.f.s.O.f.f.f.f.f.f.f.f.f.f.f.f.f.s.O.s.s.+.+.+.+.X.X.X.X.X.X.X.X.X.o.+.O.+.+.O.O.O.O.+.+.O.O.f.f.f.f.s.s.s.s.s.f.f.s.s.s.f.f.f.f.f.f.x.x.x.f.f.f.f.f.f.f.f.O.+.+.+.+.X.X.X.X.X.X.X.+.+.+.X.X.X.X.X.X.X.X.X.X.o.O.",
"u 7 7 0 6 D 6.>X>X>X:X:X,X,X,X,X,Xr.:.:.4.4.4.{._.OX*X%X#X#X%XOX#X#X#XOX#X#X#X%X%X%X#X#XOXOX%X%XOXOXOX#X#XOXOXXXoXoXoXXXoXoXoXoXoXoXoXOXOXOX].O.5 5 9 5 q 5 * 7 n }.i.q.n _  .^ / / S 5 3 < 8 - - < 4 q 0 0 M M 0 0 0 0 0 0 M V 0 M S S S S V M 0 f S S S D J E  .w.=X>Xw.W t t t V G 6 % $ O X   X $ . % 6 6 % $ % % % % % = 6 6 6 r r t t t u u u u u u b b u u u u u u u u u :.r.y.;X:X;Xy.r.:.6.*.& % * y E D D D D b b L L L T 4.r.}.;X;X;X;X:X{.2.o.+.+.+.+.+.+.+.+.s.d.d.f.f.s.s.f.s.s.x.[ W ,.W =.r.r.6.;X;X;X:X>X}._._.).O.f.+.X.X.a.a.+.+.O.f.f.x.).).).x.x.x.).).x.x.x.x.x.O.O.O.O.O.O.f.x.).).).f.f.+.s.f.f.f.d.a.X.X.X.X.X.X.{ { { X.X.X.X.X.X.X.X.X.X.X.X.X.X.X.X.X.X.+.+.+.+.+.+.X.X.X.X.+.+.+.+.{ { { { X.X.X.X.{ X.X.X.X.X.X.X.+.O.O.O.O.s.s.s.s.+.X.+.+.+.+.+.s.+.+.+.+.+.+.s.O.O.O.O.O.s.f.f.f.f.f.f.O.O.O.O.O.O.s.f.f.f.f.f.f.f.f.f.s.+.+.+.+.+.+.X.X.X.X.X.` ` ` ` | X.+.O.+.O.O.O.f.f.s.s.O.O.s.f.f.f.s.s.O.s.s.f.f.f.s.O.s.s.f.f.f.f.f.f.f.O.O.O.O.O.O.+.O.+.X.X.+.+.X.X.X.X.X.X.X.X.+.+.X.X.X.X.X.X.X.X.X.X.X.+.",
"y 6 6 7 y :.{.}.;X;X>X:X,X,X,X,X,X;X:.:.4.4.;.{.=X=XOX#X%X*X*XOX%X%XOXOXOXOX#X#XOX-XOXOXOXOX%X%XOXOXOXOX#X#XOXOXoXoXoXoXoXoXoXoXOXoXoXOXoXOXOX`.0 @ q 5 0 5 * 5 _ r.t.n v / | ] J S D 4 - 5 q 3 4 4 4 4 4 8 q 9 0 0 0 0 0 0 M M 0 M V S V M 0 0 0 S S D G J E | (  .w.>XIX,X}.6.:.( :.u 6 % $ X   X     $ % 6 , % % % % % % % * 6 6 r t t t t t t t u u u d u u u u u u u u b W 6.;X;Xr.>.>.y.;X>.6.:.& * f 3.2.h k j j b b b b L T 4.r.}.;X;X;X;X:Xw...X.+.a.s.+.+.a.s.s.s.s.s.f.f.f.f.f.f.x.x.W b =.i i r.:X,X:X,X:X:X:X>X<X<X{.O.).o.X.X.+.+.s.+.X.X.O.x.x.).x.x.x.x.x.x.f.f.O.O.o.o.O.O.O.s.O.O.O.O.O.O.O.O.X.+.s.s.s.s.p.X.X.X.X.X.X.X.X.{ X.X.X.X.X.X.X.X.X.X.X.X.X.X.+.X.+.+.+.+.+.X.X.X.X.X.{ X.X.X.X.X.{ { { X.X.X.X.X.X.X.X.X.X.X.X.X.+.O.O.+.O.s.s.s.O.+.X.X.+.+.+.O.+.+.+.O.O.+.+.s.s.O.O.O.O.O.O.O.s.f.f.f.O.O.O.X.X.o.O.O.O.O.O.O.s.s.s.s.s.+.X.X.X.X.X.X.{ X.X.X.} { } ` ] X.X.O.s.s.f.f.f.f.f.s.O.O.O.s.f.O.s.O.o.O.s.f.f.f.O.O.O.O.s.f.f.f.f.x.O.f.f.f.f.f.f.s.O.O.+.+.+.+.X.X.X.X.X.X.X.X.X.X.X.X.X.X.| X.X.X.X.X.X.+.",
"7 7 5 y E 4.{.r.;X;X;X:X:X:X:X:X,X:X6.:.4.4.;.4.-X=X=X*X*X=X-X-XOXOXOXOXOX-X-X-X-X-X-X-X-X-X*X*XOXOX&XOXOX#XOX#XOXOXOXOXOXOXOXoXOXOXOXOXOXOXOX].X.< < 4 5 3 q 5 _ e.! P U G G J G D J @ - 9 @ 5 4 4 8 8 8 8 4 4 8 8 9 0 0 M 0 0 V S S V 0 0 0 0 S S D J R E  ...3.2.;.4.}.,X,X<X<X>X}.T , = % . $         $ % 6 , % % % % % % * 6 6 r t t t t t r t t u u d u t u u u u u u i i *.=.*.6.y.y.;X;Xr.6.T 6 J O._.Y y k k b b b b b b T 4.r.;X;X;X;X;X>X4.O.+.s.s.s.s.s.s.s.s.s.s.s.s.s.s.s.s.O.o.o.4.W u p i *.{.;X:X,X,X:X:X:X:X>X>X2.3.o.s.a.O.+.+.X.X.X.O.f.x.x.f.O.O.O.O.O.O.O.O.O.O.O.O.O.O.O.x.f.O.O.o.X.X.X.X.+.s.s.s.s.a.p.X.X.X.X.X.X.X.X.X.X.X.X.X.X.+.X.X.X.+.+.X.X.+.+.X.X.X.X.X.X.X.{ X.{ { { { { { { { { X.X.X.X.X.X.X.X.X.X.X.+.+.O.+.+.+.+.+.O.s.s.+.+.+.+.+.X.+.s.s.O.+.s.s.O.O.s.O.O.O.O.s.s.O.O.O.O.O.s.O.O.O.+.+.+.O.+.+.+.+.+.X.X.X.X.X.X.{ { { { { { { X.X.X.X.X.X.X.X.X.o.O.O.O.O.O.O.O.O.O.O.O.O.O.O.O.O.O.O.O.O.O.s.s.O.O.f.O.f.f.f.f.O.f.O.f.f.O.f.f.f.s.s.O.+.X.X.+.+.X.X.X.X.X.X.X.X.X.X.X.| | | | | | X.X.X.X.",
"q 0 q y ^ 4.4.6.r.y.;X;X:X:X:X:X:X,Xr.:.4.4.2.2.{.=X=X-X*X=X-X-X-X-X-X-X*X*X=X=X-X-X-X-X-X-X*X*X-X-X-X&XOXOX#X#X&X&XOXOX#XOXOXOXOXOXOXOXOXOXOXOX].0 ; < @ < q 0 J / s G R G D G S D ).K @ 3 @ 5 4 4 8 q 9 9 q 8 q 8 8 8 9 0 M M S S S V 0 0 0 0 S S G R E  ...3.3.3.4.2.r.>X,X,X,X,X,Xr.p r , & . .         . % , , % % % % % % 6 6 r r t r r r r r r t u u t r t t t u u u i i W *.;X:X;Xu.;X;Xy.r.~ t ..). .D k k u j b b L L b T :.r.y.;X;X;X;X}.2.O.a.d.s.f.s.s.+.+.+.+.+.+.X.X.X.X.X.X.] ] 2.W r r p i =.T r.;X:X:X:X;X:X:X>X4...o.O.+.+.+.+.X.X.O.O.f.f.O.O.O.o.O.O.O.O.O.f.O.O.f.O.O.O.O.O.O.o.o.| | X.X.X.O.s.s.s.s.j.X.+.+.X.X.X.X.X.X.X.X.X.X.+.+.+.+.+.+.+.X.X.X.X.X.X.X.X.{ X.X.{ { { { { { { { { { { { X.X.X.X.X.X.X.X.X.X.+.+.+.O.+.+.+.+.+.O.s.O.+.+.+.+.+.X.+.s.s.O.O.O.O.O.+.+.s.O.O.s.f.s.O.+.X.+.O.s.O.O.s.O.+.+.+.+.+.+.+.X.X.| } } { { { { { { { { { X.X.X.X.X.X.X.X.X.o.O.o.O.O.O.O.o.O.O.O.O.O.O.O.O.O.O.O.O.O.O.O.O.f.f.f.O.O.O.O.O.O.O.O.f.f.f.f.f.f.f.s.O.+.X.X.a.+.X.X.X.{ { X.X.X.X.X.X.X.X.| | | | } X.X.X.",
"9 0 q 0 D W =.:.>.r.y.;X;X;X:X:X:X,X;X4.4.;.4.;.w.{.-X-X-X=X-X=X=X=X=X=X=X=X=X=X-X-X-X-X-X-X-X-X-X-X-X-XOXOXOXOXOXOXOXOXOXOXOXOXOXOXOXOXOXOXOX-XOX} < @ @ @ 5 0 K J 0 D K S S f f 0 ).].M - 4 5 4 4 4 8 8 9 9 M M 9 8 8 q 9 0 0 0 0 M 0 0 0 0 0 S D J |  ...2.3.3.3.4.2.:.6.;X,X:X:X:X>Xi W p p & . .   X O @ > , % % % % % % % , 6 r r r r r r r r r t u u r r r r r r p i W =.6.;X:X:X:X;X;Xy.;X>.T k  .3.R D k k D b L W W W b T :.r.y.;X;X;X;Xw...f.a.d.O.O.O.+.+.X.X.X.X.+.o.+.j.j.p.X.| ] y k t r r u i u >.;X:X:X:X:X:X:X>X{.;.o.X.+.s.+.+.+.+.O.O.O.O.O.O.O.O.O.O.f.f.f.O.O.O.f.f.O.O.O.X.o.o.o.o.X.O.O.O.s.s.+.X.X.X.X.+.+.X.X.X.X.X.X.X.+.+.+.+.X.X.X.+.+.+.X.X.X.X.{ { X.X.{ X.X.X.X.X.{ { X.X.X.X.X.X.X.X.X.X.X.X.X.X.X.X.+.+.+.+.+.X.+.+.X.+.+.O.+.X.X.X.+.+.X.+.O.o.O.O.O.O.s.s.O.f.f.s.s.s.O.o.X.X.O.s.f.f.s.s.+.+.X.X.X.X.{ { { X.` ` ` { { { { } } } } } } } } { X.X.| X.X.o.o.o.o.o.O.O.O.O.O.O.O.O.O.O.O.O.O.O.O.O.O.O.O.O.O.O.O.O.O.O.O.O.O.O.f.f.f.f.f.f.f.s.s.+.X.X.+.X.X.{ { { { X.X.X.X.X.X.X.{ } } | X.X.X.X.X.",
"M 9 q 0 f j W =.:.>.r.y.;X;X;X:X:X,X;X>.4.:.4.4.2._.-X=X=X-X-XuX=X=X=X-X-X-X-X-X-X-X-X-X-X-X-X-X-X-X-XOXOXOXOXOXoXoX$XOXOXOXOXOXOXOXOXOX-XOXOXOXOXB.8 < - # + 3 S D 0 S S H S 0 q # H -XO.0 - 3 4 4 8 8 8 8 8 8 0 9 0 M M 0 q 4 5 q 0 0 0 0 M V S J | ....2.2.3.3.2.3.w.4.:.6.}.,X,X,X,X=.5.W p r , % . O 4 q q , % % % % % % * , 6 r r t u u u t r r t u u t r r r r r p i *.6.{.;X;Xy.y.y.y.:X;Xb j W [ 2.D y k D D W W W W D L T :.r.r.;X;X;X;X4...f.a.d.O.o.+.+.+.O.+.+.+.+.o.+.p.j.j.+.X.| 7 6 6 r u u t u i >.;X;X:X:X:X:X:X>X4.O.X.s.f.).s.s.+.O.o.o.o.O.O.O.O.O.O.O.O.O.f.f.f.f.f.O.o.o.f.O.O.O.O.f.f.f.f.f.O.X.{ X.X.X.+.+.X.X.X.X.X.X.+.+.+.+.+.X.X.X.+.+.X.X.X.{ { { X.X.X.X.X.X.X.X.X.X.X.X.+.+.+.+.X.X.X.X.X.X.X.X.+.+.p.+.+.+.+.X.X.+.+.X.+.+.+.+.X.X.X.X.+.+.X.+.X.o.O.O.f.).).f.f.O.O.O.s.f.s.O.O.f.f.f.f.s.O.+.+.X.X.{ ` ` ` ` ` ` ` ` ` ` ` { ` ` ` ` } } } X.X.X.X.X.X.X.X.| | o.o.O.O.O.O.O.O.O.O.O.O.O.O.O.O.o.o.O.O.o.o.o.O.O.O.O.O.o.o.o.o.o.O.o.o.O.f.f.O.s.+.X.X.X.X.` ` ` { { X.X.X.X.X.X.X.{ { } X.X.X.X.X.X.",
"M q q 0 y k b L T :.6.r.y.;X>X:X:X,X<X4.4.4.;.4.4.4.-X=X=X-X-X-X-XOX].OXOXOXOXOXOXOXOXOXOXOX-X-X-X-X-XOXOXOXOXOXoXoXoX$X$X$X$X$X$XOX-X-X-XOXOXOXOX`.S - - ; - # @ 5 K S S D G 7 @ 5 @ | =XJ 4 - 4 4 4 4 8 9 8 9 9 9 0 0 M M M 8 4 3 3 4 5 0 S V G E  .O.3.3.3.2.2.3.3.3.3.4.4.4.{.>X<X>X6.6.=.p p p p , , > % O y , . % % , , , % = 6 r t t t u r r r t t u u t u u u u u i W =.*.5.5.>.>.y.y.;Xr.L j k ..E D y k j b L W W L D b ~ :.r.r.y.;Xu.{.2.O.).f.s.f.f.f.f.f.f.f.O.O.O.s.s.f.f.f.+.X.+.0 0 6 6 u u t u b b :.y.;X:X:Xu.;X:Xr. .o.s.x.O.O.O.O.o.O.f.f.O.+.+.+.o.O.f.O.O.o.O.O.O.O.f.x.f.x.).).f.s.O.O.O.+.X.X.X.X.X.X.X.+.+.+.+.+.+.+.+.+.+.+.+.X.X.X.X.+.+.X.X.X.{ X.{ | +.+.+.+.X.X.X.X.X.X.X.+.a.a.a.+.+.a.+.X.X.o.s.+.+.+.+.X.| | | O.o.| ] | +.s.s.f.O.X.X.X.X.+.X.o.O.f.).).f.O.f.f.f.f.f.O.O.O.O.s.O.O.+.+.X.X.+.{ { { { ` ` ` ` ` ` { { { } } ` ` ` ` } } } { { X.X.X.X.X.X.o.X.o.o.o.o.o.O.O.O.O.O.o.O.O.O.O.O.O.O.O.O.O.O.O.o.o.o.o.o.o.o.o.o.o.o.O.O.O.O.O.o.X.+.+.+.o.X.` S H X.` } X.X.X.X.X.+.X.' +.X.} X.X.X.X.X.",
"M q q y S k b W T :.6.r.;X;X:X:X,X,X>Xr.4.4.4.4.:.4._.-X-X-X-X-XOXOX].].OXOXOXOXOXOXOXOXOXOXOXOXOXOXOXOXOXOX$X$X|.|.oX`.$X$X$X$X$XOXOXOX].].OXOXOX&XJ ; 8 4 + + - < f S D J | G 5 * 3 0 ).].S - 4 4 4 4 4 8 4 9 8 9 0 M M M 9 4 4 0 S M q 5 q y J ] O... . .2.3.2.3.3.3.3.4.4.2.:.}.<X>X:.4.=.e p p p p e , & % % % % $ % 6 6 , % % = r t t u u t t r t t u u u u u u u u u i b =.*.*.*.>.y.;X;X{.W L G  .D D D D k b L W W L W T :.:.r.r.y.;X;X{.2.O.f.s.s.f.s.O.O.s.f.f.f.x.).x.f.f.f.f.s.+.+.y 0 6 6 t u u u W i b ;X:X;X;X:X:X:X;X3.3.x.f.O.O.s.s.O.O.O.O.X.s.s.O.O.o.o.o.o.o.O.x.x.x.).).).).).f.O.+.X.X.X.+.X.X.X.X.X.X.X.+.+.+.+.+.+.+.+.+.+.X.X.X.+.+.+.X.X.X.X.X.X.X.X.| X.+.+.+.+.+.X.X.X.X.X.X.X.X.X.} { X.s.`.`.x.s.X.X.| | | | X.O.).).O.O.O.f.x.).).x.f.O.X.X.+.+.).).).x.f.O.O.O.O.O.O.O.O.s.s.s.O.O.X.X.X.X.X.X.{ ` ` ` ` ` ` ` ` ` ` } ` ` ` } } } { { { { { { X.X.X.X.X.o.o.o.o.o.o.o.o.O.O.O.O.O.O.O.O.O.O.O.O.O.O.O.O.O.o.o.X.o.o.o.o.o.o.o.o.o.o.o.o.o.X.o.X.+.+.X.X.X.` H K s.s.s.+.+.+.X.X.X.` H ` X.X.X.X.X.X.X.",
"M q q S D k b W W :.6.y.;X;X:X,X,X,X;X6.4.4.;.4.r.{.w.{.].OX-X].OXOX].].OXOXOXOXOXOXOXOXOXOXOXOXOXOXOXOXOX$X'.'.`.`.`.`.`.`.$X$X].$XOX].].].OXOXOX$XX.' H 8 + 4 3 @ 0 D J J | / 0 # 4 # K =XO.4 4 4 8 4 4 8 8 9 H H M 9 M V M M q M H K V > % 0 J ] O... . .2.3.2.2.3.3.2.4.2.2.:.:.4.r.W W W , e p p p p p p e & = * . . % * % & & & = r u t r t r r r t u u u u u u u u u u i b =.*.*.>.y.;X:X6.W Y E E V u y D j b L b b W W T :.4.r.r.y.;X;Xw...O.f.O.O.f.s.s.s.f.f.f.x.x.).).).f.f.f.f.s.O.S 7 6 r r t u u u b b >.y.:X:X,X:X:X<X{.O.f.X.X.O.f.f.f.f.O.O.X.X.X.X.X.X.X.o.o.O.3.).).).).).x.f.O.O.+.X.X.X.X.+.+.X.X.X.X.+.+.X.X.X.+.+.X.X.X.+.+.X.X.X.X.X.X.{ X.X.X.X.X.X.X.+.+.+.+.+.+.+.+.X.X.X.X.X.X.X.X.+.O.f.`.'.'.[.).x.f.x.x.x.O.O.x._.).).x.x.f.x.x.x.f.O.X.| X.O.f.).f.f.f.O.O.O.O.x.f.f.f.O.O.O.+.+.X.X.| ` ` ` ` ` ` ` ` ` ` ` { } ` ` ` ` { { X.X.X.X.{ X.X.X.| X.X.X.X.X.o.o.o.o.o.o.o.o.o.o.o.o.o.o.o.O.O.O.O.O.O.O.O.f.f.f.f.x.f.f.O.O.O.o.o.o.o.o.X.X.X.X.X.X.X.X.X.X.X.` H H +.s.s.+.+.O.X.+.X.` H } +.O.X.+.+.X.X.",
"M q 0 S D y k W T :.6.r.;X>X:X,X,X,Xr.4.4.e.r.}.>X<X}.{.].-XOX$XOXOXOXOXOXOXOXOXOXOXOXOX$X$X$XOXOXOXOXOXOX$X`.`.`.`.`.`.`.`.'.'.].].OXOXOXOXOXOX$Xs.s.s.H 4 > 4 @ * f G E J / / f # 4 4 3 O.=XK < - 4 8 4 8 8 9 X.X.H 8 M M 9 M K K S M S 0 % % y D  .O... ...2.....2.2.2.2.2.2.4.;.;.( y D D % & & e p p p p p r , , & & & & & , & & , r r r r r r r r t u u u u u u u u u u b =.:.>.r.y.:X:X:X6.W Y R G V G y D j D L b b W T T :.>.r.r.y.;Xr.2...f.f.O.O.f.s.f.f.f.f.f.f.O.O.x.f.f.f.f.f.f.f.K q 6 t t t u u j b i b :.>.r.;X;X:X<X{.o.+.` | o.O.O.O.O.o.o.X.X.X.X.X.o.o.x.x.).).).).x.O.O.o.X.X.X.X.X.X.X.+.X.X.X.X.X.X.X.X.X.X.X.X.X.X.X.X.{ { { { { X.X.X.X.X.X.X.+.+.O.s.f.f.s.+.+.+.X.X.X.X.X.X.X.+.s.s.).).).).).).f.O.O.O.3.).).).).'._._._.).x.x.x.x.O.o.| | | O.f.).).).).).).).).).x.x.f.O.o.X.X.X.X.X.| } ` ` ` ` ` ` ` ` ` ` ` ` ` ` ` } { X.X.X.X.X.X.X.X.X.X.| } | X.X.X.o.o.O.o.o.o.o.o.o.o.o.X.o.o.o.O.O.O.O.O.O.O.x.x.x.x.x.f.f.O.o.o.X.X.X.o.X.X.X.X.X.X.X.X.X.X.X.X.X.| ` S ` +.X.X.+.+.+.+.X.H M X.O.O.s.s.a.+.+.",
"0 0 0 S D S u L W :.6.}.;X>X<X,X,X,Xr.4.w.}.>XIXIX,X<X{.{.-X$XOXOXOXOXOXOXOXOXOXOXOX$X$X$X$X$X$X$X$XOX$X$X`.`.`.`.`.`.`.oX$X$X`.].].$X$XOXOXOXOX`.s.X.H 4 - 5 ; 3 7 J E  .R ^ / D * % 5 - q OX'.8 @ < 4 4 8 8 8 S H M 8 M M 0 M K J 0 - 0 K V 5 % q D E E | ....2...............( ;.2...U f 6 # % % & , e r p p r e e , , , & , , , & & , , r r r r r t t u u u u u u u u u i b :.6.y.;X:X:X:X:X4.b f D V y D k k D D D L W T T ~ 4.>.r.r.;X;Xr...O.f.f.O.O.f.f.f.f.f.f.f.f.f.f.O.O.O.O.O.O.f.).| y 6 t t t u u D W W T =.b =.:.r.y.;Xw.] X.} X.o.O.f.O.X.X.X.X.X.o.o.O.O.x.'.'._.).).f.O.o.X.| X.X.X.X.X.X.X.{ X.X.X.X.X.X.X.X.X.X.X.X.X.X.X.X.} } X.X.+.+.+.s.+.+.O.s.s.f.f.f.f.f.O.O.+.X.X.X.| X.X.X.O.s.s.+.| | o.x.].=X-X-X).O.O.O.3.x._._._.).).x.x.x.3.O.o.X.O.+.O.f.).).).).).).).f.f.O.o.o.o.o.X.X.X.X.} } } ` ` ` } } { { { ` ` ` ` ` ` ` } X.X.X.X.X.X.X.X.X.X.X.X.| | | X.X.o.o.O.O.O.O.O.o.o.o.o.o.X.o.o.o.O.O.O.O.O.O.f.f.f.f.O.O.X.X.X.| X.X.X.X.X.X.| ] | | | | X.X.X.X.X.X.X.| K ` | X.+.+.+.+.X.| M 8 X.+.X.).s.s.O.+.",
"0 0 0 S S S k D W ( 4.}.;X>X<X,X,X<X{.4.4.{.>X,XIX,XIX}.{.].].-XOXOXOXOXOXOXOX$X].].].'.'.'.].].'.].$X$X`.`.'.`.`.`.`.`.`.`.`.`.].'.'.'.'.].].].s.| S 4 3 4 > q y G ^ E ^ R / R J 7 @ @ 5 - ` =XJ 4 - 4 4 8 8 8 - 8 8 8 M S S H 0 0 4 ; 5 0 S J y q 6 y G | .. .2.2..... . . ... .^ E ....S # O # $   . % , r r , , , , , , , & & , , , , , r r r t u u t u u u u u u u u k W :.6.r.;X:X:X:X:X>X:.u 7 R E y V D D D D D D W T :.:.4.r.r.y.;X;Xe. .O.s.s.O.O.f.f.O.f.f.f.x.x.x.x.O.O.f.f.f.f.f.f.3.K 7 t t t u u u u u p W p i b :.>.r.2.| o.X.O.O.O.O.o.| | | | ] | o.O.x.).'.'.).).O.O.o.X.X.| | X.{ X.X.{ { ` ` ` { X.X.X.X.X.X.X.X.X.X.X.X.X.+.+.+.s.s.s.s.s.o.o.O.O.O.O.O.O.O.o.o.+.X.X.X.X.| X.X.s.f.f.O.X.f.f.f.x.'.].].].].'.).).).).).).3.O.O.O.O.O.o.| ] o.f.f.O.o.O.O.O.X.o.o.o.o.o.o.| | | | | | | X.` ` ` ` ` } } } { { { { ` ` ` ` ` } { X.X.X.X.X.X.X.X.X.X.X.| | | X.X.X.X.o.o.O.O.O.O.o.o.o.o.o.o.o.o.o.o.o.o.o.o.o.o.o.o.+.X.X.X.X.X.X.X.X.X.X.X.| ] ` ] ] ] ] } } } | X.X.X.X.K H ` X.X.+.X.+.o.X.S 9 O.O.X.O.O.O.+.+.",
"0 q 5 q 0 y f k W W 4.r.;X>X>X<X,X<X>Xr.4.4.r.{.<X,XIX<X{.{.].OXOX$X].].].].].].'.`.`.`.`.`.'.$X$XOXOXOXoXoX`.`.`.`.`.`.`.`.`.`.`.`.`.'.'.'.'.'.] S q 4 5 5 4 K G R ^ E ^ U R G | D % @ 4 4 8 `.].S - 4 4 8 4 4 8 8 8 4 8 9 0 0 0 4 3 5 > # V O.O.S > 5 y E  . ....... . . . . . . . .E |  .S @ O X     $ % % = * % = 6 6 , , , , , , , , , , r r r t u u t t t u u u u L L T :.6.r.}.;X;X;X;X}.T d f ..3.E R R J D S D D W ^ :.4.r.r.r.y.;X}.;. .O.s.s.O.O.O.f.O.x.x.O.3.x.x.O.O.x.x.).).).x.O.f.| S r r y t t r , u 4.,X=.p b =.6.r.4.3.O.O.O.O.O.O.o.| | | | | | o.O.).).)._.O.o.o.o.X.X.{ { ` ` ` { { X.{ { ` ` } { X.X.X.X.X.X.X.X.X.X.+.s.f.f.f.f.s.s.O.+.o.o.o.o.o.o.o.o.O.O.o.o.X.X.X.X.X.X.O.f.).f.O.X.O.x.x.O.o.O.).).x.x.).)._.).3.3.O.O.O.O.O.o.o.o.| o.O.O.X.| | | X.| | o.o.o.o.o.| X.| | | | ] ] ` } } } { } ` ` ` ` ` ` ` ` ` ` ` ` { X.X.X.X.X.X.X.X.X.X.X.X.X.| X.X.X.o.o.o.o.o.o.o.o.o.o.o.o.o.O.O.O.o.X.X.o.X.X.X.X.X.X.+.O.X.X.| | { } } ` X.{ { { X.X.X.] } ` ` ` ` { X.X.K H | X.| X.X.+.O.X.H M X.f.f.X.O.+.+.+.",
"0 5 3 3 q y y y W W :.4.{.;X>X>X<X>X,X}.4.4.4.4.>X,X,X,X}.{.-X$X$X'.'.'.'.'.'.'.'.`.`.'.`.'.$X$XOX-X-XOXOXoX`.`.`.`.`.`.`.`.`.`.).`.'.'.$X'.'.).K 0 0 5 + 4 0 J R R E R  ./ ^ /  .| 5 q + 5 - S uXK - - 4 4 - - ; ; ; ; ; 4 8 4 3 3 4 3 @ q | ).'.| y 5 5 f ^ ..) )  . . . .( ^ ^ R E ^ E | J q O O O X     . . $ $ 6 G D 6 % , , , , , , & & & , , r t t t t u u u u u j b W =.:.6.r.r.y.r.r.r.k k f /  . . .^ E J D S D G W ( 4.r.r.y.u.;X{.:.o.O.O.O.O.O.O.f.O.f.f.O.O.x.x.O.O.O.x.).).'.).O.o.o.J 6 r y r , , , r W IX6.u i :.r.{.w._.).).).).).).x.x.).).f.).x.).).)._._._.o.| | | | ] ` { X.{ ` { { { { ` ` ` { { X.X.X.X.X.X.X.X.X.+.f.f.s.O.s.s.s.+.+.o.o.o.X.o.o.o.O.O.O.O.O.O.X.| X.X.X.X.O.f.x.x.f.f.O.O.O.O.x.).).x.).).).x.O.o. . .o.o.O.O.o.o.o.o.O.O.o.| | o.o.| o.| | o.o.o.| | | | | | | | ] ] X.X.X.X.{ { ` ' ' ' ' ` ` ` { { ` ` { X.X.X.X.X.X.X.X.X.X.X.X.X.X.X.X.X.X.o.o.o.X.o.o.o.o.o.o.o.s.f.f.O.X.X.| | o.X.X.X.X.+.s.f.` } | | { X.X.X.` ` ` ` { { ` ` { ` ` ` ` ` ` { ] ` s.X.` X.X.+.X.J S 8 K ).OXf.O.O.+.+.",
"0 q < @ 4 7 y k b W W :.r.}.;X;X>X<X<X{.4.4.4.4.4.<X,X,X<X_.-XOX$X].'.'.'.'.`.'.`.'.'.'.'.].$XOXOXOXOX'.`.`.`.`.`.`.`.`.`.`.`.`.'.'.].].].OX'.o.K 0 M - @ 4 3 K E J R ( ( E / .. ./ 0 > - 4 4 - ].[.4 - @ - @ + @ ; - < 3 4 3 3 - 4 > > 5 0 K ] E D y 7 3 3 y ]  . ...E ..E E  .^  .^ J G | | J 0 O O   O X O   # 0 S D S 6 % % , , = 6 , & & & & % = 6 t u u t u r u u u i b i b =.5.5.:.r.4.c t y D J ] | E G J G J R E E G D L :.}.;X;X;Xw.2.O.o.O.O.f.f.f.O.f.f.f.O.O.O.O.O.O.O.x.).).f.X.X.| | J V q 7 7 6 3 5 , u _.:.u u :.r.}.w.w._.3._.).).x.x.).)._._._._.[.'.).f.o.o.| | | | X.{ { { { { { { X.X.X.{ { X.X.X.X.X.X.X.X.O.s.O.O.s.f.s.O.X.X.X.X.O.f.f.O.3.x.x.x.x.x.x.x.O.X.X.X.X.X.X.X.X.o.f.).).x.f.O.f.f.O.o.o.O.3.).3.O.O.o.O.O.O.O.O.O.O.X.| o.O.O.o.X.X.X.X.+.X.o.o.X.X.X.X.X.X.| | | | | X.{ X.X.X.X.{ ` ' ' ` ` ' ' ' ` ` ` ` ` ` X.X.X.X.X.o.o.o.o.X.o.o.X.X.X.X.X.X.| | | |  .o.O.o.O.O.O.o.f.f.f.f.+.X.X.X.X.X.X.{ { X.X.+.X.X.X.{ { { { { X.X.X.X.{ { { ` ' X.` ` ` H H ` ] ` } ` J ` | s.+.q q 0 0 ` f.B.+.+.+.+.",
"4 5 4 @ 3 6 t y j L W ( 4.r.}.;X>X<X>Xr.4.4.4.4.4.{.,X,X<X>X'.].].].'.'.'.].].'.'.'.$X$XOXOXOXOXOXOX].`.`.`.`.`.`.`.`.`.`.`.'.'.'.].].].'.].).| S 5 4 5 4 @ 3 0 ^ / / / ) ....( J D q - 3 4 < < ` -XM ; + + # < - - < 3 3 3 3 3 4 3 3 3 5 q V S V 0 0 0 q 5 5 y |  ...E  .R R E  .E G S S D J J J 0 X O   O X # 0 S K J J 7 % % , , 6 6 = % & & % & % % = r r r r u u u u i i i b i T :.T T k = 7 t y D K G D S J J ] [ | | ^ ^ L b T 4.}.;Xw.2.O.O.s.f.f.O.f.x.O.O.O.O.O.O.O.O.O.O.O.f.O.X.| | ` | ` S 0 6 6 , % 3 > , W u u W :.r.}._._._.)._._.).).).).).).).O.O.O.O.O.o.| | | | | X.X.{ { { { { { { X.X.p.j.j.j.j.+.+.+.+.+.o.O.O.o.+.+.+.X.X.| | ] | X.O.f.x.x.x.x.x.x.x.x.O.O.o.X.X.X.+.X.X.X.O.f.f.O.o.o.o.o.o.o. .o.o.O.O.O.o.o.O.O.O.O.O.o.O.O.X.X.o.O.| | | X.X.X.O.O.o.o.X.X.X.X.X.X.X.| | X.X.X.{ { X.X.{ ` ` ` ` ` ` ' ' ` ` { { { ` ` ` X.X.o.o.o.O.+.o.X.o.X.| ] | | | X.| X.o.o.O.O.x.x.x.x.x.O.O.s.f.s.+.X.X.X.] | X.{ ` ` { X.X.{ { { ` ` ` ` { { { { { { { ` X.` ' ` ' H { { ] H ` ` ` ` H X.| 0 0 H K K H K +.+.X.X.",
"Z Z 4 # > q y D k L W T :.6.r.}.;X>X>Xr.:.:.4.:.4.4.>X,X<X<X_.'.].OXOX].OX-XOX$X$X$XOXOXOXOXOXOX'.'.'.`.`.`.'.`.`.`.`.'.'.'.'.'.'.'.].'.'.).O.J 0 5 S | K @ @ q G R E ^ 2.2...U D y 5 3 4 - ; < 4 =X} # @ @ @ 4 3 3 3 3 3 3 > > > - - 3 5 5 5 5 q q q 0 0 5 5 5 y G | E E E | E R D y D S V V S | J 3 X     X 0 J ` ] ]  .0 > % , 6 6 r 6 * % & % % . . % % = , = t r r u u u i i i b b r r = . # 5 0 f f S D G J ] o.O.3.2... .Y k k b :.2.2.3.f.O.O.f.x.f.O.f.O.O.O.O.O.O.O.O.O.O.o.o.| | | | ` | | ] S q 6 , # 5 5 , y u u b :.}.}.w._._.3.).3.3.x.x.).x.O.o.o.o.o.o.o.o.X.| | | | | } { { { { { { X.X.+.s.s.X.X.X.X.X.X.X.X.X.X.X.X.X.X.X.X.| | | ] ] X.o.f.x.x.x.3.O.O.o.o.O.O.o.o.X.o.X.X.X.X.O.x.O.o.| | o.o.o.o.o.o.O.O.o.o.o.o.O.O.o.o.o.o.o.X.| | X.o.| | | X.X.X.X.X.| o.o.o.o.o.o.o.| | X.X.X.X.X.{ X.{ } ` ` ` ` { ` ` ` ` { { { { ` ` ` X.X.+.s.f.f.O.o.o.X.X.X.| X.X.X.| | X.o.o.O.O.x.x.f.O.o.o.X.X.O.O.X.X.X.X.X.X.X.X.X.` ` ` { { ` ` ` ` ` ` ` ` ` ` { { { { ` H M M M X.`.j.` H ' X.X.` H K ' V M V H H K s.X.X.X.X.",
"0 0 4 0 o.w.E t k L W W :.4.r.}.;X;X>X;X4.;.4.4.4.4.r.<X<X<X=X_.].-X-X-X-X-XOX$X$X$XOXOX$X$X'.].`.`.`.`.`.`.'.`.'.'.'.'.'.].'.'.'.'.'.'.'.'.x.| S J O.OXf.0 4 5 y D ^ 2.2...U h f y 5 - ; @ + ; + OX).- 4 4 3 3 4 4 4 4 3 3 3 > > - - 4 5 5 5 5 3 4 5 q q 5 3 > 6 V E | E E ] R S y y D D y 0 V | ` V   X   X S | | | | O.0 > > = 6 6 r 6 = = = = % % . % % = = = = , r r p r r r i T b r = = = 3 @ @ 3 0 S S S ] |  . . .3.3.2... .( ~ L D J o.O.O.O.).).f.O.O.f.O.O.O.O.O.O.O.O.O.o.o.| | o.O.f.f.x.x.| S 6 6 3 3 > > 5 t u b :.{.{.2.3.....3. .o.O.O.3.O.o. .o.X.| X.X.X.X.X.| | | } ` ` { { { { X.X.X.X.X.X.X.X.X.X.X.X.X.X.| | ] | X.X.X.X.X.X.X.| | X.X.X.o.o.| | | | o.o.O.O.o.o.| X.X.X.X.X.O.x.f.o.| o.o.o.o.o.o.O.O.O.o.o.o.O.O.O.o.o.o.| | | | | o.o.| | | X.o.o.X.X.| | | X.o.X.X.X.| X.X.X.X.X.X.X.{ } ` ` ` ` ` { ` ` ` { { X.X.X.X.] ] X.s.f.f.f.O.O.o.O.O.o.o.O.X.X.X.X.| | X.o.o.o.o.X.X.| ] ` | X.X.X.X.X.{ { X.X.X.X.{ ` ` ` ` ` ` ` ' ` ` ` ` ` ` ` ` ` ` ` ' M N 8 m ` f.{ K ` ` { X.X.' M M M V 0 0 K ] O.X.X.X.+.",
"0 J o.).].[. .D k D W W ( :.4.r.;X;X>X>Xr.4.:.4.4.4.:.}.,X<X<X{.{.{.-X-X].$X$X].'.`.'.`.'.`.'.'.`.`.`.`.`.`.`.`.'.'.'.'.].].].].].'.'.'.'.'.'.x.).).[.`.'.o.0 3 0 G ..3...U h f f f 5 + O + + @ < o.=X0 5 5 4 3 4 4 3 3 3 3 3 > 3 > > 3 5 5 5 5 5 5 q 6 5 % % % % 6 y G J D G S S V y V V 0 0 0 J J J $ # # . S o.| o. .o.6 % 3 = 6 6 6 6 6 6 6 % % % & % = = r r = r p e p i e & p b :.b = & 6 7 6 5 4 4 9 V K | | ] K D E 3._.3.3.3.2. .E J J ` | O.).).O.x.).x.3.O.O.O.O.O.O.o.o.o.o.o.o.f.).'.).).'.x.J 0 5 3 @ - > % 6 k W :.r.3. . . . . .|  .O.O.O.O.O.o.X.X.| | X.X.X.X.| X.| ` ` ` ` { } } } | X.o.o.X.o.X.O.O.O.o.X.X.X.| | | | | | ] X.X.| X.X.X.| | ] | | o.o.O.x.).f.O.o.| | o.o.X.o.o.O.f.O.o.o.O.o.o.o.o.o.o.o.o.....o.O.O.O.o.o.O.X.X.X.| X.O.O.| | | X.o.o.o.o.o.o.o.o.o.X.| X.| X.X.X.X.X.X.X.` ` ` ` ` ` ` ` ` ` } } X.X.X.X.X.X.| X.s.f.f.f.O.o.o.O.O.o.O.O.O.O.O.o.X.| X.X.| ] ] ] | | | | ` } } ` ` ` ` { ` } { ` ` ` ` ` ` ` ` ` ` ` ` ` ' ` ` ` ` ` ` ` ` m 8 m M M H X.K | X.X.X.X.' 0 5 0 D J G | o.| X.o.o.O.",
"].].].].-X-X3.D k D L W ^ :.4.r.}.;X;X>X}.4.:.4.4.4.:.4.<X<X<X>X{.{.'.'.'.'.'.'.'.'.'.'.'.'.'.`.'.`.`.'.`.`.`.`.'.'.'.'.].].'.'.].'.'.'.'.'.'.).'.].`.f.'.].J 5 q J ..^ G h h f f f 5 # # < 3 3 5 S =XJ 3 3 3 4 3 3 3 3 > 3 > > > % % % % % 3 5 6 5 , & & & * 6 t t * y S S S y S S S y 0 0 0 0 S J | V # # . J o.o.O. .E 3 % 3 = 6 6 6 6 r r r = = = = = r r r r , p e e b *.p e b >.;Xr.=.p & = r r y q 5 9 V K J J K V S E ..O.3....... .| J J J ] o.x.).).x.3.O.O.O.o.o.X.| | | | o.X.O.f.).).x.x.).x.o.J V q @ - @ % 6 k b ~ w.3. ... .o. .o.o.o.O.O.O.o.o.| | | ] ] | | X.X.| } ` ` ` ` } } } | | | o.O.O.O.O.O.O.f.O.O.o.X.X.| | X.X.X.X.X.| X.X.X.X.X.| | | o.O.O.O.f.x.O.O.o.| | o.o.o.o.o.o.o.o.o.o.o.o.o.o.o.o.o.O.O.o... .o.o.O.O.O.O.X.X.| | o.f.O.X.o.X.o.o.o.o.o.o.o.o.o.o.o.o.o.X.o.X.X.X.X.} } { ` ` ` ` ` ` ` ` ` } X.X.X.X.X.X.{ ] X.s.s.s.s.O.X.X.X.X.X.X.o.O.O.O.O.o.X.X.X.X.` ` ` | | | X.| } ` ` ` ` { { ` ` ` ' ` ` ` ` ' ' ' ' ' ' ` ` ' ` ` ` ` ` ` ` ' Z 8 4 9 0 S f.E | | X.` H V 0 % y  ._...^ o.| | X.X.O.",
"-X=X=X=X=X=X{...k D G W W ( :.4.r.}.;X;X;Xr.4.4.4.4.4.;.{.<X<X>X}.{._.'.'.'.`.'.'.`.`.`.'.'.'.`.'.`.`.'.'.`.`.'.'.'.].].].].].'.'.).`.'.).'.'.'.).'.`.`.`.].O.9 3 0 G D f h D f 7 0 q 4 5 5 4 5 5 q =X).@ 3 @ 4 3 3 3 3 > > > > % % % % % % % % = % & & , u W :.{.4.t 7 0 V 0 5 0 V S S S S V 0 0 S J E 5 O q  .O.O.3. .f % 6 * 6 6 6 6 6 t t r t t r r r r r r r r p e p *.y.*.>.y.u.u.y.y.6.:.i i u j D y q 5 0 V S K S y f D R ^ E E ^ | o.| ] J K J | x.x.x.3.3.O.O.X.X.X.| ] | | | o.o.O.f.x.x.O.o.O.x.f.o.E V q o @ 6 D k ~ w.3...O.o.O.o.o.o.o.o.o.o.o.o.| | | | X.| X.X.{ } | { { { { { X.| X.o.O.x.).).).).).).).x.f.f.o.o.| X.X.X.X.X.X.X.X.X.X.X.X.X.o.o.o.O.O.O.o.o.o.o.o.o.o.o.o.o.o.o.o.o.o.o.o.| o.o.o.o.o.O.O.O.o.o...o.O.O.O.o.X.| | | | X.O.O.o.o.o.o.o.o.o.o.| | | o.o.o.o.o.o.o.X.X.X.X.X.X.X.{ { ` ` ` ` ` ` ` | X.X.X.X.| X.X.| X.X.X.X.X.X.X.X.| X.] ] X.O.O.O.O.O.o.X.X.X.X.` ` | ` ` ` ` ` ` ` ` ` ` { ` ` ` ` ` ` ' ` ' ' ' ' ` ' ' ' ` ` ` ` ` ` ` ` { ` H < 4 q 0 / E | ] X.K 9 q 0 y ..{.=X{... .| | X.X.O.",
"=X-X=X=X-X=X=X3.k D L W W W :.4.6.}.}.;X>X;X4.4.4.4.:.;.4.>X,X<X=X{._.'.'.'.`.'.'.`.`.`.`.'.'.'.'.`.`.'.'.`.`.'.].].].].].].].].'.).'.'.'.'.'.'.].'.).$Xf.).`.5 - 4 7 D G S y 0 7 7 q q 0 q 3 5 4 5 ].].@ 5 @ 3 5 3 3 > % % % % > > > 3 6 6 6 6 6 = u W :.r.;X<X<X}.t % 5 0 0 > 5 0 V S K J K S 0 5 0 J D > J o...3.3.| 7 % 6 * 6 6 6 6 7 t t r t t r r r r r p y t p p i >.y.y.y.;Xu.u.u.u.y.y.r.r.r.4.L t y S q 5 q S K S f y y D D E ^ E | | ] | ] K S E O.).).).).x.O.O.+.X.| | | o.o.o.O.f.O.O.| K K | s.O.3.O.O.S V y G u ( _.3...O.o.3.o.O.O.O.O.O.O.o.o.| | | | X.X.X.X.{ { { X.X.X.X.X.| X.O.x.).'._._.'.).).x.f.O.O.O.O.o.X.X.X.| ] ] | | | | ] ] | | O.o.o.O.O.f.O.o.X.o.O.o.o.o.o.o.o.o.o.o.| o.o. .o.o.o.o.o.o.o.O.O.O...O.O.O.o.o.o.X.X.| | X.O.O.| | | X.o.o.o.o.| | | | | | | | X.| | X.X.X.X.X.X.X.{ ` ` ` } } ` } | X.X.X.X.| X.X.| | X.X.X.X.X.] ] ] ] ` { X.o.O.O.O.O.o.X.X.X.] ` | X.} ` ` ` ` ` ` ` ` ` ` ` ` ` ' ' ' ' ' ' ' ' ' ` ` ' ' ` ` ` ` ` ` ' ' ` ' ' M q q 5 f G E ` ] H - 5 0 f ( Q P _ (  .| | | o.o.",
"-X-X=X=X=X=X=X}.Y F F W W Y T :.4.r.{.}.;X;X}.r.4.4.4.:.4.r.<X<X<X}._.).'.'.`.`.`.'.'.$X].].].'.'.'.'.'.'.'.`.`.'.'.'.'.).).).).).).).x.x.x.).)._.'.).'.).).o.o < q K S f y 0 y q q q 0 5 5 3 5 % % 3.AXJ @ 5 5 * * % % % > > > % 5 6 6 = = r u b =.4.r.}.;X;X;X;X>XT = % 3 - < - 3 5 0 S K ` | 0 5 4 0 S J | 3.4.3.3.J 6 % 6 6 6 6 6 6 6 t t t t t r t t r p p u u p p i -.u.u.u.u.u.u.:Xu.y.u.y.u.y.u.y.u = y D y 3 % 0 S S D E E J J J E | | |  .| E E J J | O.).O.| o.O.O.O.o.O.O.O.O.O.O.O.] V 5 4 M ` | o.o.O.'.).o.E E y D 3.c.3.3.O.3.O...o.O.3.x.O.O.O.X.| | | X.+.+.X.X.X.| X.O.O.f.x.f.f.'.].).)._.)._.).).x.O.o.O.o.o.o.+.X.| ` ` X.| ` ] | | | | o.x.O.o.o.o.O.o.o.o.O.O.O.o.o.o.| | o.O.X.| o.o.o.o.o.o.O.O.o.o.o.o.o.X.o.o.| | | | | | | | O.O.o.| | | | | X.o.X.X.X.X.X.X.| X.X.| X.X.X.| X.X.X.] ] ] { | | | | | | | | | | | | X.X.X.] | ] | ] X.X.X.] ` ] X.X.o.O.O.o.o.O.o.X.X.X.` ` ` ` ` ` ` ` ` ` ` ` ` ` ' ` ` ' ' ' ` ' ' ` ' ' ` ` ` ` ` ` ` ` ` { { ` { Z H K Z S K G @./ @.| S - 5 y G G 7 * * t Q ) J  .O.o.",
"-X-X-X-X-X-X-X-X( L F Y W L T ( 4.4.r.{.;X>X;X}.:.:.:.:.:.4.>X,X<X{.3.).].'.`.'.`.`.'.'.'.'.'.'.'.'.'.'.'.).).'.'.'.'.).).x.O.O.f.f.f.x.x.x.x.x.).).x.).).).O.- - 4 S S 0 y 0 y 5 7 3 5 5 5 % @ > 3 ].JX=Xy q @ 5 * % > % > , 6 6 6 6 r u b T =.:.4.r.r.}.;X:X>X>X>X4.= % @ 4 @ @ @ > 4 q M K | K 0 5 5 q K | J i C D y 6 6 6 = = = 6 6 r r t t t t t u u t u u u b i p i -.u.u.y.u.u.u.u.u.u.u.y.u.u.u.y.:.r = 5 y S 0 5 3 7 f S J J D K / | E E | |  .| J S D D ] o.f.x.o.| o.o.O.f.f.o.| J J > > > 8 0 S K ` | o.O.o.)._.D t R 2.3.3.3.o.3.O.3.3.3.x.x.O.o.X.| | | X.X.O.O.O.+.s.f.f.).].-X-X=X].'.'.).).).3.x.O...O.o.o.o.| | | | | | | | | | | | | | | X.O.O.O.o.o.o.o. .| ] | o.o.o.o.o.o.o.o.o.| | | o.o.O.o.o.o.o.o.| | X.| | ] ` ` | | | o.o.o.O.O.O.| | | | | | | | | X.o.o.o.X.| X.X.X.X.X.X.| | X.| ] ] ] ] | | | | ] | | X.| | | | ] ] ] ] | | X.X.X.X.| ] ` ` ` | o.o.O.O.O.O.X.X.{ ` ` ` ` ` ` ` ` ` ` ` ` ` ` ` ' ` ' ' ' ` ' ' ' ' ` ' ` ` ` ` ` ` { { ` ' ' ` H m H } K a x @.@./ J K M 5 0 y D 7 % * 7 z e.{./ D ^ ..",
"].-X-X-X-X-X-X].2.Y F Y W L T ( :.4.r.r.}.;X;X;Xw.:.:.:.:.4.;X<X}.3. .3.'.].'.'.'.'.'.'.'.'.'.'.[.'.).).).).).).x.x.x.).).).x.f.O.f.x.x.x.x.x.x.x.).x.).).[.).0 @ 3 0 0 0 y 0 7 3 5 3 0 0 + > 0 | | =X=X=X0 5 5 3 * 3 3 > > 6 6 6 r r u b T :.4.6.6.6.r.y.;X:X:X:X;X{.k * % * + # # # # ; 5 V J E S 0 5 5 S J J i i p r 6 = * 6 6 6 6 r t r t t u t u u u u u i i b i p i -.y.u.y.y.u.u.u.u.u.u.u.u.u.:X;X}.k & 3 5 V K S 0 3 % q S G S S J  .O. . . .o.O.] K K ] J K K K S M M S ` J M M K S > o # 4 8 8 9 V K J ` ] | o.o.y [  ...o.3.O.o.O.O.O.O.O.x.).f.o.o.| | | X.o.O.O.O.| O.O.O.).-X=X-X-X).3.)._.).).).).O. . .| | ] ` | | ` ` ] | ] ] | | X.X.o.o.O.o.O.O.o.o.| | | | | | o.| | | | ] | | | | | o.X.o.| | | | o.o.o.| ` ` ` J J J ] | X.o.O.o.O.O.O.o.o.o.o.o.o.o.X.X.| o.o.o.X.X.| X.X.X.X.X.| | | | X.X.X.X.X.X.X.| | | X.X.| | | | ] ] | X.| X.X.X.X.X.| ] ` ] | X.| o.o.o.o.o.X.| ` ` ` ` ` ` ` ` ` ` ` ` ` ` ` ` ` ` ` ` ' ' ` ` ` ` ' ` ` ` ` ` ` ` ` { ` ` ` { H Z H M 5 a @.0.[.0.S 5 4 5 S D D 6 * f F Q e.w.{...(  .",
"].-X-X-X].].].].w.E D L Y L W ~ :.4.r.r.r.;X;X;X}.4.:.:.:.:.r.r.4.( E o.x.'.'.'.'.'.'.'.'.'.'.'.'.).).'.'.).).'.x.x.x.).'.'.'.).).).).).).).).).).'.'.'.'.].'.J < 3 0 0 0 0 7 7 q 5 5 q 5 5 J O. .K V 4 0 % > 5 * * 3 3 5 6 6 r r r i b T :.:.>.>.>.>.6.y.y.;X:X:X;X}.;.= * # % # # + # # @ 5 0 J | S q 0 q 0 E W C r , 6 % % t 6 6 6 6 r r t u t t u u u u u i i #.#.e i #.7.u.u.>.y.u.:Xu.u.u.:Xu.u.:X;X;X:.p 7 % % 0 S S V q 3 5 y K K K | x.O.o.| o.o.| | | J ] K q 4 4 8 0 0 4 4 V K M > O 4 4 4 4 8 9 M V H H S H 0 0 ] '.3. . .3.O.O.O.O.o.O.3.).).f.o.o.X.X.X.X.O.O.O.f.).].[.).[.].]._._.w.e.w.3.3.....| | | ] J ] | | O.o.| | | | | | | X.O.O.O.x.O.o.o.O.o.o.| |  .o.o.o.o.| | | | | ] ` ` ] | | | | | O.f.f.O.o.| J ` ` | | | | | | X.O.O.O.O.O.O.O.O.O.o.o.o.o.o.o.o.o.o.o.| X.X.X.| X.X.| | | o.o.o.o.X.X.X.X.X.X.| X.X.X.X.| | | | | | | | | | | X.X.| ] ] | | X.| | o.o.o.X.| ` ` ` ` ` ` ` ` ` ` ` ` ` ` ` ` ` ` ` ` ` ` ' ' ` ` ` ` ` ` ` ` ` ` ` ` ` ` { ` ` H M M < 2 x @.@.@._ _ @.S y y y 7 * 6 h G ( ( ! 2.w.e.( ",
"].-X-X].].].].'._.| G L L L W T :.4.e.r.r.r.;X;X;Xr.r.4.:.( :.:.:.(  . .O.).'.'.'.'.'.'._._.'._._.'._._.'.).).'.).).).).'.'.'.).[.'.).).).'.'.'._.'.'.'.).'.).o.5 3 q 0 0 0 7 q 5 q 7 5 3 J O.y @ + @ 3 5 q % % * % > 6 6 r u u i b T =.=.:.:.:.>.>.>.>.6.y.y.;X:Xu.y.;.= * # % @ # # # # # @ 3 S J K M S q 5 V [ J 6 % % 6 6 6 7 7 r r r t t t u u u u u u u b b =.>.i p i #.y.u.y.>.y.u.u.u.:X:X:X:Xu.u.u.y.=.= , 5 % % 0 K S q 3 3 0 S K J | | | | o.o. .| | | K 5 # 4 9 q 4 9 @ @ 0 M 4 + # ; ; ; < 8 9 9 9 H K M ; q ` ).c.).o.O.O.O.O.O.O.3.)._.'.).f.o.| | | | | | o.o.O.o.o.O.3.)._._._.w.w... . ... .E E o.3.o.] | o.o.O.O.O.O.o.o.o.o.O.O.O.O.x.x.3.o.O.o.o. .o.O.O.3.x.f.O.o.| o.O.O.o.o.o.o.| | ] ] o.f.).).f.O.| ] ] | o.O.O.O.o.o.| o.).).).x.O.o.o.o.o.o.o.o.o.o.o.o.o.X.| | | X.| | | | X.X.o.o.o.o.o.X.o.o.o.o.X.X.+.X.X.X.o.o.o.o.X.| | | | | X.| | ] | | | | | | o.o.o.| ] ` ` ` ` ` ` ` ` ` ` ` ` ` ` ` ` ` ` ` ` ` ' ' ` ` ` ' ' ` ` ` ` ` ` ` ` ` { X.` H m < < 2 a x a a x a a 0 0 y f S 5 % * 6 6 7 t t t 2.}.}.",
"].-X-X].].].'.'.'. .J D L L W W T :.4.r.r.r.;X;X>X;X>X}.4.:.:.:.:.2. .[  .3.).).).'.'._._.'._._.'.'.'.'.'.).x.).).).).'.'.'.'.'.).).'.'.'.'.'.'._._._.'.x.x.x.O.0 - 4 0 0 0 5 5 5 5 q 0 q O.O.3 3 + 5 3 @ # q | 6 5 6 r u u b T #.=.:.:.=.=.*.:.>.>.>.>.>.>.y.u.:X;Xr.k = % % # - # # + # # # @ 4 0 J J S 0 0 5 0 K S 3 $ % 6 , 7 7 t t y y t t u u u u u u b b :.>.y.#.p p i -.y.u.>.>.u.:X:X:X:X:X:Xu.u.y.;X6.i p & = * 5 q y S V 5 @ 3 V K J J J | o.o. .| J M q 4 3 4 ; ; 4 ; - @ X   + ; + + ; - 4 4 8 8 9 S ` | 0 J O.o.x.'.x.O.O.o.O.O.3.3.).).).).f.o.o.| X.X.X.o.o.O.O.[.).)._._.3.O...3._._.....3.O... .).].). .| o.| | o.O.O.O.O.O.O.x.O.O.o.O.O.O.o.O.o. .o.o.O.3.x.x.f.O.o.o.o.O.O.f.f.O.O.O.o.| | X.O.f.f.O.X.o.| | | | o.o.o.o.o.| o.O.O.O.O.o.o.o. .o.o.o.o.o.o.X.o.o.| | | | | | | | | o.| | | o.o.X.X.o.o.O.o.o.o.O.o.o.X.o.o.O.O.O.O.O.O.O.O.o.o.o.o.o.o.X.|  .| o.o.o.| | ] ` ` ` ` ` ` ` ` ` ` ` ` ` ` ` ` ` ` ` ` ` ' ' ' ' ' ' ` ` ` ` ` ` { ` ` { ` H 9 8 4 < w 2 x x x x a 7 * q 0 5 5 5 % % % # $ % t t t ( w.",
"].-X-X-X].'.'.'.].O.R D D F Y L T T 4.4.r.r.}.;X;X;X<X;X}.4.:.:.;.;. .| [  .3.x.).).).'.'.'._.).).).).'.).x.x.x.x.x.).'.'.'.'.'.).).).).).).'.'._._._.).x.).x.).K 3 @ 5 0 0 5 q 0 q 5 0 0 [.[.O.V 3 3 3 5 5 S -Xy r r u i b T =.=.:.=.*.*.*.*.:.>.>.>.>.>.>.y.u.;X;X:.= % % 3 # # # + # # # # @ O 3 H J S S H 0 5 S J S 3 % % % * 6 6 6 r t y y u u u u i b =.:.>.y.>.>.i p p i -.7.7.>.7.:X:X:X:X:X:Xu.u.u.u.y.y.b = & = % % 7 S S S 3 # 3 0 S K J | | | | ] S > @ 3 M K M - o O o + - @ X O ; - > 3 > > 4 q M M ` f.| | ] J x.x.c.).O.o.O.o.O.o.o.O.O.O.x.O.o.s.O.s.f.x.x.x.x.).).)._.).3.....).-X-X_._.).3.). ...3.3.o.o.o.o.| o.o.O.O.O.O.O.O.O.o.o.O.O.O.o.o.o.o.o.o.o.O.O.O.O.O.o.o.o.o.o.o.o.o.| o.O.o.| O.X.X.X.| ` ` ` | | | | | | | | | o.| | | |  .o. . .o.o.o.o.o.o.| | | | | | | | | | | o.o.o.| | o.O.o.o.| o.o.o.o.o.o.o.o.o.o.o.o.o.o.O.O.O.O.O.O.O.O.o.O.o.o.|  .| | o.o.X.| X.} ` ` ` ` ` ` ` ` ` ` ` ` ` ` ` ` ` ` ` ` ` ' ' ' ' ' ` ` ` ` ` ` ` { { ' M 9 1 ; 4 8 w 2 x a a x x K 7 5 q 5 5 > # > 3 5 * 6  .( * = y ",
"].-X-X].].'.'.'.].O.E G k F L L T T :.4.r.r.}.;X;X;X;X;X<X;X4.:.:.;. ... .]  .3.).).).).x.x.3.3.O.x.x.).).x.x.x.x.x.'.'.'.).x.x.x.x.O.O.3.).'.'.'._._._._.'.).'. .5 @ 5 0 0 5 7 0 f 0 q 0 ].O.O.5 5 3 4 3 5 q =Xk u t u b b =.=.*.=.=.*.:.>.>.>.>.>.>.>.>.>.6.y.y.y.k & % % + @ # # # - - # # # - ; 4 S J H M Z y q V E S % $ $ # $ $ % % 6 t y t t u u b =.>.y.r.u.>.u.#.p p p p #.7.7.>.u.:X:X:X:X:Xu.u.:Xu.u.u.r.:.r = * * 3 5 0 S S q > @ @ 0 H ] | | | S > 5 q 0 M S 0 < o # @ # o O @ @ + # # - > 4 8 q q M K | O.J ] o.| s.'.'.O.O.O.|  . . .| | O.x.O.X.X.X.X.o.o.o... .o.O.).).3.O.......x.3.3.x.3.3.x.).O.o.O.O.O.O.O.x.O.O.O.O.O.O.3.O.o.o.3.x.3.3.3...O.O.o. . . . .o.o.o.o.O.O.O.o.o.o.| | o.f.O.o.| ` ` ` | ` ` ` ] | | | | | | | | | | | o. .o. . .o.| | | | | | | | | | | | | | | | | o.o.o.| | O.O.O.o.| o.o.| | | | | | | | | | | | | | | o.o.o.o.o.o.o.o.o.| | | | o.o.X.X.X.X.{ ` ` ` ` ` ` ` ` ` ` ` ` ` ` ` ` ` ` ` ` ' ' ' ' ' ' ` ` ` ` ] ` ` { H 8 : 8 < - < w < 2 2 2 5 w * w 0 J 0 @ > 4 5 > 5 3 7 O./ 5 * 7 ",
"-X].].'.'.'.-X-X]._.^ D L L D W W T :.4.w.r.}.;X;X;X;X;X<X;X:.;.;.;.;. . .[  . .3.3.x.3.O.O.3.x.x.x.).).).x.x.x.).).).).x.x.x.).3.3.x.x.x.x._._._._._._._._.).).).q 3 @ 5 q 0 S S 7 0 q 0 O.S S * 5 ; 8 4 % ^ w.u u i i b #.=.-.-.-.>.>.>.>.>.>.>.>.>.>.>.>.>.r.y.6.= % % # # O O O # @ ; ; @ @ @ @ @ 4 M J K S S V q 0 E J 5 $ $ % #   % 3 O 3 6 y u b 6.y.y.y.y.y.u.u.y.#.e i p i 8.7.y.y.:X:X:X:X:X:Xu.u.u.u.u.u.u.>.i & % 3 5 5 q 0 S 0 5 % # 4 0 K | J > @ q 0 0 q 3 @ ; @ - # X @ # O 5 0 K J J S K q q 0 M J | o.J K ` X.o.x.s.H J 3.O.3.O.O.o.o.o.o.O.X.O.O.o.o.o.o.o.o.o.o. . ...O.3.3.O.......O.3.3.3.x.3.O.o.| | | o.o.| |  .| |  .| | o.3.).).).3.O.3.3.3.O.o. . .| |  .o.O.O.O.o.| | | o.| | | | ] ` ` ` ` J J ` ` J J J J | | | | | | | | |  . . . . . . . . . .| X.o.o.o.| | | | | | | | o.o.o.o.o.f.f.O.O.| | | o.o.| | | | | | | |  . .|  .| | | | | o.o.o.o.O.O.O.o.o.X.| | | | X.X.X.X.X.| ` } ` ` ` ` ` ` ` ` ` ` ` ` ` ' ' ' ' ' ' ` ` ` ` { { { ` 8 1 1 : 4 < ; < < < < < w < w < S K 0 5 5 5 q 0 f y f G K q 5 4 ",
"[._._.].=X=X=X-X].'. .D D F D F L T ( :.4.r.r.}.;X;X;X;X<X{.:.;.;.;.;. . .[ ^ ^ o.3.3.3.x.x.x.).x.).).).x.x.x.f.).)._.'._._._.).).).).).).).).).c._.).c._._.).'.x.K 3 @ q q f J G f q 4 5 J 5 @ % 5 3 + $ D 4.b u u i b #.#.-.>.>.>.>.>.>.>.>.>.>.>.>.>.>.>.>.>.6.:.& % % # O o O O + # @ ; @ ; @ @ + # 5 S K J S S S 0 0 G G q # $ # $ O @ # % % 6 t W r.;Xy.y.u.y.u.;X;X>.i e p i i -.7.u.:X:X:X:X:X:X:X;Xu.u.:Xy.y.y.>.u = * 6 5 5 5 q S V 0 3 @ @ 5 S 5 o o - 3 4 q H M 4 + O @ # @ > q E w.O.3.O.x.O.| V 8 M H | O.| K K ` | ] ` q D .... .....O.O.O.O.O.o.O.O.o.o.o. . . . . . . . .o...O.O.......O.3.3.c.3.3.O.o.o.o.o.o.o.| | | ] ] | | | o.O.O.3.3.3.O.O.o.o. . . .| |  .o.O.O.o.o.| |  . .| | | ] ] ` ` ` ` ` ` J ` | | | J J | | ] | | | | | | |  . .| | |  . . . . .| o.o.o.o.o. . .o.X.| | | | | o.O.).).3.O.O.o.o. . . .o.o.| | | | | | | |  .| | o.| o.o.o.o.o.o.o.o.o.O.O.f.O.O.X.| | | X.X.X.X.X.X.X.X.` ` ` ` ` ` ` ` ` ` ` ` ' ' ' ' ` ` ` ` X.` ` ' 8 1 8 8 1 < < < < < < < w < < 5 K K 0 4 5 8 q 0 f y f G q 3 5 4 ",
"=X=X=X=X=X=X].'.'.'...L D D D D j W T :.4.w.r.}.;X;X;X>X>X4.:.;.;.;.;.;. . .^ E | o.3.x.x.x.).).).).).).x.f.f.x.).'._.'.'._._.)._.).).).).).3.3.3._._.c._._.).).'.O.3 @ 5 q S K f y q q 0 J f 5 * 5 @ # y 4.*.i #.#.#.#.-.-.>.>.>.>.y.r.>.>.>.>.>.y.>.>.-.-.-.*.>.i & $ % O O $ O O O + # @ @ - @ @ # o # 5 S J J K K S q y J J 0 O O # O # @ % 5 5 6 t T 6.;X;Xy.;Xu.u.:X:X>.i i p i 8.7.:X:X:X:X:X:X:X:X:X:X:X:Xu.u.;Xy.>.b p % 6 5 3 4 q 0 0 0 9 3 @ 8 + + + # O + < H S Z S | J V S K | O...).3.3.| 3.O.O.| - 5 S | | K S J ` K H q K O.O.......O.O.O.O.O.X.o.o.o.o. . . . . . . ................... ...3.3.3.3.3.O.O.O.O.O.O.| | | o.O.O.| |  . . . .o.O.O. . . . . . . . . .O.O.O.o.|  .o.| | | | ` ` ` ` ` ` ` ` J ` ` | | | | J ] ` ] | | | | | | | | | | | |  . . . . .| | | o.o.o.O.O.O.O. . . .|  .o.3.).).O.O.O.o.o. .o.O.O.o.o.o.o.o.|  .|  . . . .| | o.o.o.o.| | | | | o.O.O.O.O.f.f.+.X.| ` ` ` } X.O.O.+.X.` ` ` ` ' ` ` ` ` ` ` ` ` ' ` ` ` ` ] ` ` ` 9 4 1 : ; 1 < < < < < < < < < 5 S H 0 4 4 5 5 0 0 y f D | E S 5 ",
"=X=X=X=X-X'.'.].'.'.3.R k D F D F W T ( ;.4.r.}.y.;X;X>X}.:.;.2.;.;.;.2.2.2. .[ [  .3.x.x.x.x.).'.).).x.x.f.f.x._.'._._._._.).).).x.x.).).x.3.3._._._._._._._._.'.).q > @ 5 S S 7 0 5 q 5 0 S D 5 % 3 y 2.5.=.-.&.&.&.7.7.7.>.>.>.>.>.y.y.y.y.y.y.y.y.r.>.-.*.>.4.r % $ @ O O O O + O O + # @ ; # # # + o + 5 M J | J S S 0 f / | 0 @ @ % 3 3 5 0 0 y t t b :.:.>.y.y.u.:X:Xy.#.p p i i -.y.:X:X:X:X:X:X:X:X:X:Xu.;Xu.u.u.;Xr.b = * = 6 5 @ > q q S 0 5 < o + + < + o # K S M S ` J S J ..)._.3... .3. ...x.'.x.5 @ @ 0 H J S V V M S S S O.o.O.O.O.O.o.o.o.o.| o.o. . . . .o.o. . .....2.3.3.3.2.2.2... .....2.3.3.3.O.o.o.O.O.O.| | o.3.).3. .| |  . . ...o.o. . . . . . . . . ...O.O.o.| | o.| | ] ] ` ` ` ` ` ` J ` J J J J J | | ` ] J E | | | | | | | | | | | | | | | | | | | | |  . .O.3.w.O.O... . .....O.).3...O.O... . ...o.o. . . .o.o.o.o.|  .|  .| | | | | | | | | | | | | | | o.o.O.+.X.X.X.| | ` ` ` | O.f.s.X.` ` ` ` ` ` ` ` ` ` ` ` ` ` ` ` ` ` ` X.` H 9 4 ; : : ; < < < < < < < < < 9 0 5 4 4 4 5 q 0 0 0 S E E ^ J ",
"].].'._.'.'.].].'.'.3.R k D L D L Y T T :.4.r.r.r.;X;X>Xw.;.4.;.;.;.;.4.4.2.;.( ^  .3.x.c.)._._.'.).x.x.f.f.x.x._._._._._.c.x.3.3.3.3.x.x.3.x._.[.].].{.{.{._._.x.3.J V O 3 V 0 q 5 * 5 5 0 J .._.O.e...( ,.=.%.&.&.&.&.&.&.7.7.7.7.u.u.u.u.u.y.u.u.u.u.y.>.:.:.:.& % # % O O # + + + O O O # @ # O # # + o + - 0 ] | J K S f S o.| 0 @ 5 0 q Z 0 Z S f t r u u b b b :.y.,X,Xy.i p p i #.#.:X:X:X:X:X:X:X:X:X:X:Xu.u.u.u.u.u.y.T u & % 6 * @ - % 0 0 0 < @ + @ o @ < < S S S | K S D | 3.w.3.2.3.3...)...=X-X]. .S O o 8 S S 0 0 V V K S O.o.O.O...o. . . . . . . . . . . ..... .......2.3.3.3.3.3.3.3.3.3.3.2.3.2.3.......o.o.| |  .o.o.O.o. .|  . . ...o...o....... . . . . . . . . . .| | | J J ` ] ] ] ] ] ` ` J J J J J J J ` J J ] ` J J | | | | | | | | ^ ^ | | | | | | | | / / / |  ...w.e.3.w.3.O.....3._.w.3.3.3.O... . ... . . . . . .o.o.o.|  .| | | | | | | | | |  .| | | | X.o.o.| | | X.o.X.X.X.X.| ` | X.O.O.O.| | | | | ` ` ` ` ` ` ` ` ` ` ` ` ` X.| ` H M 8 4 ; ; < < < < < < < < < < 4 4 4 < 4 3 4 q q q 0 7 y D E ",
"'.'.).).'.'.'.).`.).3.E k D L D F W I T :.4.w.r.r.;X;X{.;.;.2.;.2.2.;.;.2.;.:.;.^ ^  ...3._._.'.'.).x.x.x.x.x.x.)._._._._._.).x.).x.x.x.x.x._._.].]._._._._.3.3.3.3.).o.5 > q 8 5 * @ 4 @ O * y ^ R G 6 & e e e e i %.&.&.&.&.8.&.&.7.7.u.:X:X:X:X:X:X:X:Xy.>.:.b & * 5 > % + # @ # O O O O # # # + + + # + O O > 0 ] o.J K K S J O.| 5 q S S S Z Z Z y y y y y k j k W :.y.:X:X>.p i i i #.6.:X:X:X:X:X:X:X:X:X:Xu.:X:Xu.u.u.u.r.:.i & & % % # % % q q < < + < o ; 4 < 0 J J o.0 y D O.[._._.3.2.2.3._.-XAX{.4._...S ; o < 0 M V J 0 K S o.o.O.o... . . . . . ..... . . . . . .......2.3.3.3.3.3.3.3.3.3.3.3.3.3.3.3.3.2...o.o. .|  . . .O.O.o. ..... .....O...o.o.o.o. . . . . . . .| | | J J J J J | ` ` J J ` ` J J J J J K J J J J | ` J J E | | | | | | | ^ ^ ^ ^ ^ | J J | ^ | | ^ / ^ ^  . .O.w._.3... .O.3.3...O.O..... . . . . . . . .| | |  .|  .| | | | | | o.o.O.O.o.o.o.o.o.o.X.o.X.X.X.| | | | | | | | | | | o.O.X.X.X.X.X.X.| ` ` ` ` | | ] ] ] | ` ` ` | ` ` H 9 8 4 < - ; < < < < 4 3 < < < 3 < 4 < 3 5 5 5 5 y y t S ",
").).'.'.'.'.'.'.'.'.)...D k L D j L L T :.;.4.r.r.}.}.4.:.;.;.:.;.2.2.2.;.;.:.;.;.( E ^ 3.).'.{.'.).x.).).x.c._._._._.{.{._._._._.).).).).)._._.[._.3.3.3.3.3.2.3.3.].).D 3 3 > # # % 5 5 5 7 f R / D 6 % . . & . & & e p i 8.&.&.&.&.&.8.&.7.7.7.7.7.7.7.-.#.i r % = 7 3 % # O @ # + O O + # # @ # + + # # # + ; + 0 | | J J J S | o.S 0 S V 0 S S V 0 S y q q 0 y D W =.4.r.:X;Xi i p i #.#.:X:X:X:X:X:X:X:X:X:X:X:X:Xu.u.u.y.u.y.>.b r = * % + - K < w w + + < < + < S O.J S y J .._.3.2.2.2.v.4._.| 3._.v.6.v.c...K 8 < 5 0 M ] 0 S S J o. .o.o. . . . . . ......... . ... .....2.2.3.2.4.4.4.4.3.3.3.3.3.3.3.3.3.3.3.3.3..... .|  .o.3.3.o. ... . . . . . . . . . . . . . . . .| | | | | J J J J J J J J J ` J J J J J J J J ` J J ` ` J J J E E E | | | | ] / ^ ^ ^ ` ` ` / | | | | | | | | / | ..3.3.3.O........... . ............... . .| |  . . . .| | | | | | o.O.O.).o.o.o.o.o.o.o.| X.| | | | | X.X.` | X.X.| | | | O.O.O.O.O.O.s.s.+.+.O.O.O.o.X.X.X.X.X.] +.X.X.X.K J H 8 - < < < < < 4 4 < < 4 3 < 4 < < 3 3 % 3 6 y y D ",
"'.'.'.'.'.'.'.'.'.'.].3.U k D D j L L I ~ :.4.r.{.r.{.:.:.;.;.2.;.;.2.2.;.2.4.4.3. .Q ^ 2._.{.-X]._.)._._._._._.].{.{.{.{._._.{.[._.).).).)._._.).3. . .3._.c.).3.3._.3.| 5 3 @ @ @ 4 % % 7 D ^ G D / G % . % . O # # $ & & e p 8.8.&.&.&.8.8.8.8.&.8.8.8.8.8.i & % * 7 % % O X # + O O O # # # # # # O O + + + o - > 0 | O.^ J K S J K S V 0 q q 0 5 3 0 0 0 K K S V y W =.=.6.;X>.e i i i #.7.:X:X:X:X:X:X:X:X:X:X:X:X:X:Xu.u.u.u.u.r.:.d = % w M [.9 2 2 2 w + w + + < o.| o...3.O.3.3.3.2.( 6.v.-X.. .4.6.>Xv.v.3.x.| S q 5 0 | V V K S o. .o.o.o.o..... . . . . .............2.3.3.3.4.4.4.4.3.3.3.3.3.3.3.2.3.3.3.3.2..... ....... . . .| | |  . . . .| ^ | | | | | | | |  .| | ^ E | | | J J J J J J J ] ` ` J J ` ] J J ] ] J J J J J E J J E E | | E E J @.J ] | | | ] | | ^ ^ / | ..O.O. .| | ..3.3.3.3.3.3.3.3.....3.3.3.3.3.3.3.O. . . . . .| | | | | | | | | | | o. .| | | | o.o.o.X.X.| | X.| | | | | | | | | | | | | | | X.O.f.f.f.).).).).f.f.O.O.O.f.s.).f.f.+.O.B.X.M < < 4 ; < w < < < < 3 3 < 4 4 < < @ @ % , 7 t V ",
"'.'.'.'.'.'.).'.].).).3.E f k Y L L L I T :.4.w.{.r.4.:.:.;.;.;.;.4.;.;.{.;X;X<X;X4.~ T ( ( _.{.{.{.{.}.{.{.}.{.{.{._._._._._._._._.).).x.f.O.O. .3.3.3.'._.c.c._.3.3.). .0 # @ # 5 % # 7 D R / R G G U G = % %   $ O O O O O % e e i 8.8.8.8.8.8.8.8.8.8.8.8.p % % % % % # O O # # @ + O + @ > 4 > - @ + + # + # # + 3 0 | o.G S S q @ @ # # 3 3 V S S S M 0 H H S K K S u W :.4.r.=.p i i %.-.:X:X:X,X:X:X:X:X:X:X:X:X:X:X;Xu.u.y.y.y.y.r.:.u # 2 H.A A 0.H.A 2 2 # . 3 H X.o.3. ...3.O.3.3. .,._.3. .|  .v.b.7.b.5.4.x.'.3.D 0 | E y y y | | o........... . ... . .........3.3..._.-X_.2.3.2.4.3.3.2.2.2.2.2.2.2.3.3.2.3....... . .| | | | / | / / / | | / / / / | |  .| / E | ^ ^ ^ ^ / ^ ^ @.] ^ ^ @.J J J ] J J J J J J J J J ] | | ` ` ` J J J J ^ J J J J J ^ ^ J J J J J | | | ^ ^ | |  .| / |  ..... .O.....3.2.....3.3.3.O.O.3.w.3.O. .| | | | | | | | | | | | | |  .o. .| E .. .o.o.| o.o.| | | o.o.| | o.| | X.X.X.o.o.o.o.o.| | | o.o.o.O.O.O.O.o.| o.o.O.f.x.x.x.B.f.o.K 8 @ ; 4 3 3 3 3 3 3 4 4 Z M 0 3 @ 4 3 3 5 q 7 t ",
").).'.).).x.x.x.).x.).)...D k j L L Y I T ( 4.4.r.4.;.:.:.;.;.;.( ;.:.4.;X<X<X,X,X6.T T ( ~ 4.{.{.{.{.{.{._._.w._._._._._._._.'._._.).x.O.O.O.o.3.O.o.x.'._.c.c.3.c.3.[ V 6 > 5 3 @ % 7 G E R R G G G R D 6 = % $ $ $ X X $ O . . & e e p i 8.8.8.8.8.8.8.8.8.p % % % * % # O O + + + @ @ 3 4 5 0 5 - # O + @ # # # + @ 5 S | D 0 5 @ O @ 3 5 5 V 0 0 V S S V S 0 J J | 3.^ u ~ =.4.*.i p i i %.y.:X:X:X,X:X,X:X:X:X:X:X:X:X:X:Xu.y.y.y.y.y.r.:.* a H.9.9.H.H.H.A a # * Z | O.o. ...O.3.3.3.3.3.;.3...O. . .6.6.7.b.v.,.c.-X-X .0  . .D 0 q | o.....O.O.3.3.2.3.3.O.............3...2.w.2. .2. . .2.2.2.2.2.2.2...2.2....... . . . .^ / / / / / | / / | | | | | ^ | | |  .| / E / ^ ^ ^ ^ ^ / / E ^ ^ ^ J J J J J J J J J J J J J J E ` ` ` ` ` ] J J J | J J J J J J ] ] J J J J ^ ^ ^ J J J | / E / / J R |  ....... . . ...3...........3.3.O. . .| | | | |  .o. . .| | | | |  . .O...3.O.3.O.O.| |  . .o.o.o.o.o.o.| | | o.o.o.o.| | | o.o.o.| | | | | | | | ] ] | | o.o.o.| X.o.X.` S 8 < - @ - 3 3 5 0 Z H J } ] 0 4 0 K E D S 7 6 ",
").`.).).).x.).).'.'.'.]._.E f j L W Y Y T ( ;.4.4.;.:.( ( ( ;.;.( ;.2.;.>X<X,X,X,Xr.r.:.:.4.w.;.w.{.w.3._._.3.w.3.w._.).x.).)._.c.3.3.O.O.O.O.O.3.O.3.).).c._._.c.3.[ i r r 6 > 5 * 7 G E R R R G G h / F k r & % % . . X $ $ $ o   . & & e p p i 8.8.8.8.8.p e % * 6 6 3 # $ O # # @ - 3 4 5 4 5 - ; - ; - - o + O + @ # 0 | J 0 5 @ 3 3 4 5 q 0 5 5 q 0 0 0 0 0 0 | -X=X3.R D W T ,.i p i p i -.:X,X:X,X,X:X,X,X,X:X:X:X:X:X:Xu.u.u.u.y.y.y.r.= a H.(.(.J.H.H.@.a 9 M Z @.+.).3.w.O.O.3. .E ..^ ^ | o.o. .,.5.b.b.b.6.-X-Xw.y 3 ^  .J q O K | w._.[._._._._.w.w.w.w.w.3.3.3.3... . ... . .2.^ (  .2.2.2.2.2.2....... . . . . . .| / / / / ^ ^ / / / ^ | | | | / / / ^ ^ ^ / / ^ | | | | | ^ ^ ^ ^ ^ / ^ ^ ^ ^ ] J J J ] ] ] J J J J J J J J ` | J J ` ] ` J J J J J ` ] ] ` J J J ^ ^ J J J J  . .O.3. .E E E ^ O.w.3....................... . .| | | | | | | O.O.O. . . . . .| O.O. .3.3.).w._.O...3.3.O.O... . . .| E | | o.O.o.o.|  .o.o.o... . .| | | | | | ] ] ] | | ] ` | | | | ] K M 9 0 Z H K K J ` | ` | ] M q S K J | J y 6 ",
").).).'.'.'.'.'.'.].'.].]. .k D F L W W T ~ ( ;.( ( ( ( ( (  . .;.;.;.;.>X<X<X<X:X;X,X;X;X<X;X4.4.4.3.3._._.w._._._._.).3.3.x.).x.3.O.O.O.O.O.O.O.O.).).3.c._.3.4.W i p i u r > 3 7 G R G J R G G D h E R W u & , & & . . O $ $ o X     $ & e p i i i i p p e & * 5 7 7 5 % % # O O O # - - < < - @ ; 4 4 4 > + # O @ 3 # 5 K S J 0 3 3 5 5 q V 0 0 q 5 q 0 0 0 0 f ].=Xo.D E D R G E W i p p p 8.;X,X,X:X:X:X,X,X,X:X:X:X:X:X:X;Xu.u.u.y.y.y.>.7 @.H.(.(.H.n.A a Z Z Z K 0.B.+. .J 0 0 K J | O.| J E | o.o.| 2.6.6.b.>X>X3.0 % 6 ..e.3.J @ 0 | | O.3.3....... .....2.2... . . . . .|  . . .2.(  .2.2.2.2.2....... ... .^  .^ ^ / / | | ^ ^ / / E R E / ^ | ^ / / / / / ^ ^ / / ^ ^ | | | | ^ ^ | | | | | | | | | | | | | | / ^ J J J J J J J ] ` J J J ` ` ` J | ` J J J J J J J J ] ^ ] J J J E J  .O.O. . .^ ^ 3._._._.w.w.3.3.3.3... . . .| | | | | | | | | o. . .O.O. .| | |  .../  .O.3.3.3.3.3.3.......|  . . .| E E | |  .o.O.O.O.3.O. .O.O.o.o.o.o.o. .| | | | | o.| | | | | | | | ` J K J | | | ` ` ` } ` J S K ` K S | J S y ",
").).).).'.'.].]._._.)._._...D D j F L W W T ~ ~ ^ ( T ( ( ( :.:.;.;.;.4.>X<X,X,X:X;X,X,X,X,X,X;X4.4.w.{._.3.3.w.c.).).x.3.3.x.).).x.O.o.o.O.O.O.3.3.x.x.3.c.4.W b i p i i p r r * 7 D G D R E G G G J R Y W W r & , & & % . $ $ o X X o o O % , i i i p e e % % 3 5 7 7 5 * % % @ @ @ @ 3 4 5 5 5 3 3 3 - 4 8 8 @ # 4 0 5 5 0 5 J K 4 O 5 0 0 S S S S V K S 0 S ..-X=XO.y 0 D K J G D E W u p e i -.:X,X,X,X,X,X,X:X:X:X:X:X:X:X:Xu.u.y.y.u.y.:.a H.J.n.9.9.@.A K Z A A a A 0.B.f 5 q K |  .| E  .E ] | o.+.o.O.3.v.>X:X1.p . % f w.w._.w.y q  .E  ...............3.3.3.3.3.3.3.3.2. ... .( 2.2.2.2.2.2..... ...(  .( ^ ^ ^ ^ / ^ ^ / / / / / / / / R / ^ ^ ^ ^ ^ ^ / / ^ ^ ^ / / / / / / / / / | ^ ^ ^ ^ ^ ^ ^ | | | | | | ^ ^ E E E E E J J J J J J J J J J J ` J J J J J J K J J J ] ] J E E J K J  ... ..... . ...3.3.3.3.w.3.3.O......... . . . . .|  .|  .O.o.O._.[.3. .o.J  .O.^ | | ....3.3.3.3...2.3. .3.3.3.3... . .| ]  .O.O.3.3.3.O...o.o. .o.o. . .| | ] | | o.| | | | | | | | | | | | ` J J J ` ` ] ` ] J K ` ` ` J J D V ",
").).).).'.'.'.'._._.).'.'.3.U f j D F L W W W Y T T ( ( ( ( ( ( :.:.:.w.<X<X,X,X;X;X,X,X,X,X,X,X;Xr.4._.w.3.).3.3.3.3.3.3.3.3.x.x.O.o.X.o.O.O.3.x.3.3.3.4.W C i p p i i p p p p % 6 S G G D G R J G E D F Y ;.c & & , , & % $ $ . . $ O o o O % e e e e , % # # 3 5 5 5 * @ @ # @ @ @ % % 3 3 5 5 3 3 4 3 5 q q @ - 5 S S 0 q @ q K S 5 q S S y S S S K K S K O.-X=XO.f S D V K S J D E R G b e p i 6.:X:X,X,X:X:X:X:X:X:X:X:X:X:X;Xu.y.u.y.>.v 0.H.A A A Z @.@.Z @.H.H.0.a a @.| K K / ^ |  .| | | [ ]  .o.O.3.| 3.>Xb.:X*.u . L 3.2.3.w.G 5 E J E |  ..... . ...3.3...3.3.3.3.3.w.3.3.2.(  .2..... . . . . . .^ ^ ( ^ ^  .| ^  .| ^ / / / ^ | / / / / ^ ^ ^ ^  .^ ^ ^ ^ ^ ^ / ^ / / / / ^ ^ ^ ^ ^ ^ / ^ / / / / / / ^ ^ ^ ^ ^ | | | / E E J J E E J J J J J K J J ` | | J J J J J J J J J E E | |  .O. . ..... .^ R ^  . ...3.3.3.....O..... .| | | | | | | | | |  .w.w. .E E J o.3.| E / ..3.w.....3.3.w._._.w._._._._.3... . ..... .o.O.O.O.....o. .o.o.o.| | | ] ] | | | ] | | | | | ] | | X.| | ] ] ] ] ] ` J ] ` J J K ` ` J K S ",
"'._._._._.[.[.[.{.].].].'.).E k k j D F L Y W W Y Y E ( ^ ( ( :.:.:.:.r.>X>X,X,X;X:X,X,X,X,X,X,X,X;Xw.4.3._.).O.3.3.3.3.3.3.O.O.o.X.o.X.O.O.O.3.O.x.3. .W i p i i i i p p p p e 5 6 y G U S D E G G U F c ;.r.e.& & , , , % % % . . . O o X O O . % % % $ # @ % 5 5 5 @ + O O X     $ # % % * % * % * 5 5 5 q q 4 4 4 S J S 0 q @ 0 E J S S S 0 S S S K S | ].=XO./ D D S y y S S D G G J E W u p p >.:X:X:X:X:X:X:X:X:X:X:X:X:X;X;Xu.y.y.>.I s A A a A A a a a @.H.J.J.H.0.A A @.@.@.| | ^ | / |  .E |  . .3.4.-X3.4.=.7.1.=.r :.4.2.;.2...0 S / E E  ..... . .O.3.3.3.w._._.3.2.w.3.3.2.^ ^ ^  .( (  . .( ( ( ^  . .^ ^ ^ ^ / / / / / / / / / / / R R / / / / ^ ^ ^ / ^ ^ / / ^ ^ ^ / / ^ ^ | ^ ^ ^ ^ ^ ^ / / / / / ^ ^ ^ ^ ^ ^ | | | E E E E ^ ^ / E E | | J / | | | | | E J J J J J J J E E G J  ... . ..... . . .....2.2.2...O.O....... . ./ | | E E E E J |  .o.O. .| E | o.O...E  ...3.w...(  ...2.3.3.3.3.3.w.w.).).3..... . .|  ...o...O.o... . . .| | | | | ] ] | | | | | | | | ` ` ` ] ] ] | ] ` J J ] J ] ` ` ` H H ` ` H H ",
"].].[.{.{.{.{.{.{.].].'._._. .D k k j D L Y Y Y Y Y Y T T T ( :.:.:.:.}.>X>X<X,X;X:X,X:X,X,X,X,X:X<X}.4.3.2.....o...3.3.x.x.3.3.O.O.o.o.O.O.o.o.O.x. .V u i i i i p p p p p p p 6 5 % y R R D U / U h P ~ r.;Xt.e = , , , , % & O $ X $ X o O O o       $ $ % 6 5 5 3 + X           $ * 7 y y y y 6 * * 3 5 q q q q - 0 K S 0 0 q @ y ] S S S 0 5 4 S | O.=X=XO.S S G J D D K S S S G D K E W [ i b y.:X:X:X:X:X:X:X:X:X:X:X:X:X;X;Xy.r.r.:.d x A A A a 2 w 2 0.H.J.J.J.H.@.a @.@.@.J G ^ ^ R | } o./ ....( 6.6.,.u 6 p %.&.%.=.4.4.4.( .._.S 0 J S S E  . . . .|  . . .3._.3.....w.2.^ ^ ^  .^ ( ( (  . .( ^ ^ ^ ( ( / / J G D G G R / / J G G / J G G G G G G R R R E / ^ ^ ^ / / / / / / / / / ^ ^ ^ ^ ^ ^ / / / ^ ^ ^ ^ ^ ^ / / ^ / / / / | ^  .| | |  . . . . . .| E E E | ] J J J J J E E E / | | E ^  . .E ^  .^  ..... . ....... . . . ./ ^ / J J E | E J  .o. .J J | | O. .| E w._.w.../  .3... ...O....... .O.3.)._.3...^ R E  .....o.o. .| | | | | | | | | ] ] ] | | | | ] ` ` ` ] ] ] ` ` ` J ` ` | J J ` H H ' ' ' H ' J K ",
"{.{.{.].{.{.{.{.].]._._._._...R D D D L L L W W Y Y W W ~ ~ ~ ( T :.4.}.<X>X:X>Xy.:X,X,X,X,X,X,X,X,X:Xr.:.;.3.3.o.3.3.3.c.x.3.O.O.O.O.O.o.o.o.o.[ W i i i i i i p i i p p p p p , r % 5 G G D Y F P z e.i.i.i.i.d & e p & = & % % % $ $ O O O O O     $ $ $ % % 6 5 3 O           $ % r u T :.:.>.:.b = % * 3 % 5 5 5 5 0 S f 7 0 @ 5 K S q 4 @ # 3 q K f.B.J S S S S D J E J G D D S V S R ^ R W r.:X:X:X:X:X:X:X:X:X,X:X:X:X:Xu.y.r.r.b g x A A A Z 9 2 Z 0.H.J.J.H.0.0.0.0.0.0.0._ / G ^ ^ | / E J S 6 6 b ,.D & $ & p -.7.7.1.5.5.:.4.4.[ r G J S K [ | | |  .......O.3.3... .( ^ ^ ( ( ( Q Q ( ( ( ^ ^ ^ ^  .^ G S D D K K S K J J J G K J G G G G G G G G J G G J / ^ / / / / R R R / / ^ / ^ ^ ^ ^ ^ ^ ^ / / / / / / ^ ^ | ^ ^ ^ ^ ^ ^ ^ ^ ^ |  . . ./ R ^ ^ ^ ^ | | J J J J J J J E E ^ | E / | J E  .| ^ E ^  . .^ | ..( ^ (  . .R J R E ^ | | E E E | ^ E  .3.O.3.).w. .| | 2.w.3. . .^  .2.2... . . .^ | ^ ^  . . . .| | E E | O.O.O.O. .^ E ] | | | | | | | | | | | ` | | ` | ] ` ` J J K J ` ` J J J K K K K H H H H H H H ",
"{.{.{.].[.{.{.{._._._._._.3.2.^ k D D L L Y W W W W T W T ~ ~ ~ ( ( 4.;X>X>X:X;X;X:X,X,X,X,X,X,X,X,X:X;Xw.2.2.3.3.3.3.3.3.3.O.O.o.o.o.o.O.O.[ C i i p p i i i i p p p p p p p p p , , 5 y G U D l v n i.;Xi.i.i.:.& = & e & , & & % . $ O O O O + X     . % 6 6 t 5 $     X     $ % 6 r u b :.:.>.>.:.T u = % % # 3 > # 3 S D y q 0 @ q ] S O 5 5 5 5 0 J J u u W W D D J D D W S D G S S G E R i T 6.:X,X:X;X:X:X:X:X:X;X:X:X;Xy.u.>.v ! @.@.A @.K Z S } B.H.H.J.H.0.0.0.0.@.D @.@._ 0._ @.S @.S 0 5 3 # $ , r r % . & i -.-.7.7.7.1.5.5.4.;.D f D K J ]  . .........O.3..... .^ ^ ^ ^ / / ( Q Q Q / / / / / / / G D S S S K K S S S S D D G J R J J J R R J G J G G J / / E E / R J J R R R / R R / / ^ ^ ^ ^ ^ ^ ^ ^ / / / ^ ^ ^ ^ ^ ^ ^ ^ ^ / / / |  .| ^ / J J / ^ J J J J J J J J E / |  ./ E / ^ E |  .E J R ^  .| E ^  .^ / R E ^  . . ./ |  . .| ^ ^ | | |  .O.O.3.).O. .....2.3... . ...2.3.3.2. ..... . .^ E | | / E E | ..o.....3.)... .| E ] ] | ] | | | ` ` ` ` | ` | | ` | | ` ` ` ` J J ` ` J J K K H H H H H H K H H H ",
"_._._._._._._._._._._._._.w.3.3.D k D D j L Y L W W W T T T T T :.T r.;X;X>X;Xr.;X<X,X,X,X,X,X,X,X,X,X<X;X4.2.3.3.3.3.3.3.3.3.3.O.o.o.O.O.[ W u i i i i i i i i i p p p p p p p p p r , = f R U ~ r.;Xi.i.i.i.i.t.s & & p & = & & & . . X O O O O $ $   $ 7 G G J q           $ % 6 t u i b =.:.>.>.r.r.:.u % = # % # $ # q S S 0 0 5 4 S K 0 @ + @ # @ > 6 C 6.6.<.W y S D D W D K K S S S D f D L W 4.;X>X:X:X:X:X:X:X:X:Xu.u.y.>.b ! H.H.0.@.@.K K K @.} @.A @.@.0.0.@.G J ^ @.G / _ 0...S 9 7 3 + + + # # * 7 . . k 5.-.#.-.7.7.7.7.7.5.4.( * q J ] J R G E ..........^ ^ ^ ^ ^ ^ ( ( ( / ^ Q Q / / J J J J D S S S S S K K D S f f D K G J J G G J J J G D J G D G J R R R E E R R R R R E R R R R / ^ ^ ^ / / / / / / / ^ ^ / / / ^ ^ ^ ^ ^ ^ ^ ^ ^ | | ^ ^ ^ / / | ^ E J J J J J ^ | ..O. . . . . .O.3. .| | | ^ / ^  .O....... . ..... ......... . . . . . .....O.3.3. .| 3.3.3.3.3.2.3.3.3.3.2.....2.3.3.3. .E ^ ^ ^ | E  .O.O...o.3.x.....O...o.| | | | | ] ` ` ` ` ` ` | | ` | | ` ` ` ` ` ` ` ` ` ` J K K H H H ' ' K K H H ",
"_._._._.[.].{.{.{.-X-X]._._._._.( D D L k D Y D W W W T T T T T :.:.{.;X;X;Xy.r.:X:X,X,X,X,X:X,X,X,X,X,X<X{.4.3.3.3.3.3.3.3.3.3.O.o.O.3.[ C i i i i i i p p p p i p p p p p p p p p r r % = F 2.t.;X,Xi.i.i.i.i.i.n = & & & & , , & % . $ X O O     $ # * f E ^  .7     X     # = r u u i b #.:.>.>.>.y.r.:.u = 6 % % % # @ 5 S S q 0 q 3 K | 5 @ > ; O   & i 7.b.b.<.i y S S y f S K K 0 0 S D S G y u :.{.}.;X;X:X:X:X:X:X;Xy.e.v _ H.J.H.} K Z S K S S Z a a a S @.| @.D J | | / @.@._ w.K w @ O o + + + @ 5 s $ t w.{.6.*.=.&.&.7.7.7.7.1.5.u = D ^ J D y J  . . .( / R R / ^ ^ ^ ^ ^ ^ ^ Q / / / R J K H S S S S S S S K K K K S S G J D D S D D G J J G D J G D G J J J E E E E E E R R R R R R R R / / / / / / / / ^ ^ ^ ^ / / / / / / /  . . .| / / ^ | ^ ^ | | | | | ^ J J J E /  .O.3.3.3... ...e.w.3.....| J G G G G R ^ ..2.2.......3.3.3.3.3.3.3.3.......O.3.3... . .3.3.3.3.3.3.3.2.2. . . ...3.w._.3. .E ^ |  .3.3.3.3.3.3.3.3.3...3.).).3.o.| | ] ] ` | ` ` ` ` | | | ` | | ` ` ` ` ` ` ` ` ` ` ` ` ' ' ' ' ' ' K H H H ",
"_.'.[.].].].].].{.-X{.{.{.{.{.{.3.L k G D D W L W W W W T T T T T 4.}.}.;X;Xr.y.:X:X:X:X,X,X:X,X,X,X,X,X,X;Xw.2.3.3.3.3.3.3.3.3.O.3.3.4.W i i i i i i i i i i i i i p p p p p p p p p r 6 % f e.t.t.i.i.i.i.q.i.i.t.d & & e & , , & & & . $ X O O $ $ % 6 y R ^ R 5     X   $ 5 r r u u i b #.#.>.>.>.>.y.>.b = r = % 3 % O * 0 K 0 0 0 0 S J J 0 0 5 @ % e i 8.7.7.b.1.=.j f a y S K V < @ q S J H 0 7 r r r u b 4.;Xu.;X:X;Xr.! 0.H.H.9.A H S S S S S H S M Z f S K J @.@.J J J ^ @. ./ 0.0 w O O + + o X O 3 7 h 2.r.r.4.6.:.*.-.-.7.7.7.7.7.1.p u D J J S J / | | / R R / / / / / / / / / / / / R G K H S S S S S S S K K K J K S D J K S S S D D J J J G G J G G J J J J E J J R J R J J J R R R J J R R E J J / / / ^ ^ / ^ / ^ / / / / / |  . .| / / / | ^ / ^ ^ ^ ^ E E E E J J E |  .O....... . ..... . ..... . . .^ J R ^ ..w.w.3.2.3.2.2...2.3.3.w.w.3.....3.3... ... .......2.....2.3.2.......3.3.3..... . . .....3.3.3.O...O.3.3... .O.3.3.O. .| | ` ` ` | | | | | | o.| | | | | | | | | | ` ` ` ` ` ` ` ` ` ` ' ' ' ' ' K ",
")._._._._.).).)._.).)._._._._._._.Y k D D j L L L L L L W T T T ( r.}.}.;Xr.r.;X:X:X:X<X,X,X:X,X,X,X,X,X,X<X{.;.2.2.3.3.x.x.3.3.3.x.4.W i i i i W W W W W W W W W W i i u p p p p p p e r = = h n n i.i.i.i.i.q.t.t.:.& & & & & & & & & % . $ O # $ # * 6 y R  .D *         # 6 r r u i b b #.#.#.>.>.>.y.y.:.b r r = = % % % 3 0 f 0 0 0 0 S | M M 0 5 3 r i i 8.7.7.b.7.=.G K D S 0 > o O < 3 9 9 M V 0 5 6 u f T }.;X;Xr.;.Q 0.H.0.A a M M S S S K S K S 9 Z 9 S K J @.] @.` J | | _ G 0.7 # @ # # # # O + @ y ( e.r.r.;.4.4.4.:.=.-.7.7.7.7.7.$.W D D D S K D J / / / ^ ^ / Q / / / / / / / / J G S S S S S S S H K K K K J J K S S G K D D K G J J J J G G J K K J J J J E J R R R J J J J J J J J J E E E J J J J E ^ ^ ^ ^ ^ ^ ^ ^ / ^ ^ / / ^ ^ / / / / / / / / ^ ^ E E / E E J J J / | ^  . . ... .^ ^ ....O.3.3.w.w.3... ...w._.3.2.2.2.........2.3.3.3.......3. . .3. . . ...3.2...3.2.2.2.3.3.3... . .O.3.w.w.3. . .^  ............. . . .| | | ] | ` ` ` ] ` | | | | o.o.X.o.o.X.o.X.o.o.| | | | | ` ` ` ` ` ` ` ' ' ' ' J ",
"3.x.3.3.3.3.x.x.3.3.3.3._._._._._. .D k D D D b c L L L W T T T ;.r.r.r.r.r.r.;X;X:X:X:X:X,X,X,X,X,X,X,X,X,X;Xe.(  ...2.3.x.x.3.4.[ C u i W W W W W W W Y W W W ^ W W W b i p p p p p , , = % % t s n t.i.i.i.i.q.t.t.u = & , & & , & & & $ $ X $ $ % 3 6 f R ^ y * $       % 6 r r u b b b b #.#.>.>.>.y.y.r.:.u t r 6 6 3 * % 4 0 0 q 5 0 0 q 0 0 0 q * , p p i 8.&.7.7.6.,.W y 5 # O 3 0 0 3 # > 9 q - 5 V V S t 4.}.}.e.0.H.H.0.A 2 Z S S H S S J H H S q K Z Z S K ^ ] K K } X.@.K x 0.7   O o o O O O + # x I :.r.r.;.:.4.e.:.=.=.-.7.7.7.7.1.*.W S f V S S D J / ^ / / / Q Q / / / R R G G D S f S S H H S S S K K K K K K J K K J J K J J J K K J G G D G K J J J J J J E E E E J J J J J J J J E / E / J J J J J J / / E / J J J J ^ ^ / / / E E E E E / / / / / / / / E E E E J J J R ^  . ...3...^ ^  . . .^ ^ |  . ...| /  ...2.2......... . . . . ..... . ..... ... .......2.2...2. ...2.3.2. .| ^  .3.w.w.w.O. . . ...3.3.2.3.3.3. .| / E ] | | | ] J ` ] | | | | | o.o.| o.o.o.o.o.o.| | o.o.| | | | ] ` ` ` ` ` ` ` ` ` ",
"x.x.x.).).).'.'._._._._._._._.{._.4.Y k D L D b c L L L T T T T 4.w.r.r.r.>.r.;X;X:X:X:X<X,X,X,X,X,X,X,X,X,X<X}.( (  . .O.O.3.3.W u p i T T T :.T T W W W T T T Y W W W W W u p p e p p , , % % * = s q.i.i.;Xi.q.#.t.:.= e & & & & & & % $ $ $ $ # * * 6 y D k t = $       % 6 = r u i b b b b #.#.>.>.>.y.r.r.b u r r r 3 % * @ 5 q 0 0 5 + X # @ q y q 6 p p i %.&.7.7.b.1.C % % # O - 5 4 X > > 0 9 < 9 H S q 7 w.r.r.[.0.9.A a 9 0 4 9 S S K K J S H S 4 S 9 M S K ^ J J X.} Z Z Z x +.2 o o + + @ + O # @ l c :.r.;.~ 4.:.( ( :.:.=.-.7.7.&.&.i r 0 q 0 D S S D E ^ R R ^ / / / / R G D D S f f V S S S H S K H S S S S S S K K J J J K J J K K K J J G D K G J J J J J J R J J J J J J J J J J E E E E E E E J J J J E E J J J J J E ^ ^ ^ / E E R J R R / / / E / ^ ^ / J E / / E E R J / ^ /  .e...^ ^ / ^  . . .|  ...3.3...^ ^ ( ( ^ ^  . ... . . . .^ .. .^  .2. .^  .3.3. .^ ^ E E ^  ..... .^ | | |  . . . . . ...............3.3.| ^ E | | | | ` | | | | | | | | | | | | | | | | | | | | | o.| | | | | | | | | } | ] ` ` ",
").).)._.].-X-X].-X]._.)._._.[._._._. .D D D k j j j L W T T T :.4.r.r.r.6.r.;X;X;X;X:X:X:X:X,X,X,X,X,X,X,X,X,X>X4.;. .2. .^ W u i T :.4.r.y.;X;X;Xy.6.:.W T ^ W W W W W W W W u r e e e , , % % # * = s ~ t.;Xi.i.q.q.t.d & & & & , & & , %   O $ % % = 6 y y t 6 #       $ % 6 = r r u b b b #.#.#.#.>.>.>.y.y.>.b p u r = * % @ @ 5 0 5 $   o $ $ # < q 0 6 6 p i %.&.7.7.7.1.y . $ # # 5 5 0 0 S J H M 9 q 5 % 6  .B.H.H.A a 0 M S 8 3 + 8 M S K K H K 0 4 S S 0 Z S K ] @.@.A A A A @.Z w   @ X # O O + # % v I v ;.2.;.) ) ^ ( ( ( :.*.=.i i p r 6 q 0 0 0 S 0 0 J J ^ ( / / / / J K S M M M M Z Z S S H S S S K K K S S S K K K K K K G J J G G K K K K K K K J J J J J J J J J J J J R R J J J R R R J J J ^ ^ E J J E E ^ / / E R R E / / / / R E E R E E E / / / E E ^ E E E J J J J J  ...w.w... . . . .| E E ^ | | ^ 3.w._.w.w.w.3. .| | E R ^  . .^ ..3... .3.3...2...w...R  . .E E  .........2.2..... . . . . . . . ... . .^  ..... .| | | | | | | | | J | | | | | | | | | | | | o.| | ] ] ] ] | | X.| | | | | | | } } } ` ",
").).)._._._._._._.).3.3.3.)._._.-X_.3.^ D k j b j j c L T T T :.4.4.e.4.>.r.;X;X;X;X;X:X:X:X:X:X,X,X,X,X,X,X,X,X;X4.;.2.2.Y T :.{.;X;X;X;X;X;X>X:X:X:X;X4.T W ~ W W W L Y E W W u r e , , , > % @ # % = s n i.i.i.i.q.t.e.= & & & & & & , % . $ % % % 5 7 t y r 6 $       $ % = = r r u i b b #.#.#.#.>.>.>.y.y.r.t.b p r r % . $ # 3 3 # O O $ $ $ O + - 5 6 6 r e p %.%.%.=.6.D . $   X 3 4 q 5 0 9 H f.| 5 @ 5 6 G S @.A a a S S S H S 4 ; < M S K K K M 4 Z 0 9 M S S @.@.A 9.A A A @.w o + @ X # O o @ # % ~ ~ ~ ;.;.) ( ) ( ( ( ..2.:.=.W r 6 6 q 5 5 9 0 0 V q S K R R / / R G G D S S S Z S Z Z S S H H K K K K H H S S S S S S S S D K K K K G K K K K K K J J J J J J J J J J J J R R J R R R R R R J / / ^ J J J E E / / / / R R R / / / / R E E R E J E E / E E / / / / J J J J J J G J R E J G J J E E E R E E E / G ^ .. .|  . . ...3.....3.3... .w.[.w.3.w.w......._.w... . .E | E  . . . ........... ....... ... ... . . .....O.| | | / | | | | | | | | | | o.o.o.| | |  .| | | | | | | | | | | | | | | | | | | ` ` ` ` ",
"'.'.'.'._.).3.3.3.3.3.2.2.3.)._.{._.3...D y D j j j j L W T T :.:.4.:.:.>.r.;X;X;X;X;X;X:X:X:X:X,X:X:X,X,X,X:X:X>Xr.4.4.4.4.r.}.}.;X;X;X:X:X:X:X,X:X,X,X;X4.=.T T T T Y L Y W W D u r e , , , % @ # $ % * = n ;Xi.i.i.q.t.b & & & , & & & & & % % % * 6 7 t r 6 * $         # = = r r u u i b b #.#.#.#.>.>.>.y.y.y.r.b p r r . $ O 3 4 @ @ @ + O O X   X + 3 5 6 6 , p p e i W t . O # @ 4 4 5 q 9 q q 8 @ @ 0 q q J S 0 8 5 y S S S K K q O - 8 Z S H K M 4 M 0 9 9 9 a @.@.A 0.A A 0.@.  $ O + X + + + + $ % :.e.;.;.:.( ( ( ) )  .......( T u 6 5 q 8 4 8 9 q S q 0 S J R ^ J G G D S S S S S S S S S S H H K K K K K S S S Z S S S S S K K K K K K J J J J K K J J K K J J J J J J J R R R R R R R E R R J ^ / / J J E / ^ R R / / / / / / / / / / E E E J J R E E E E E / / E J J J J J E E J J J J J J E J J R J G G J R R J G G E E E R G J R R  .....2...3...( ..3.2.3..._._.3... .^  .^ |  . . ................... . ... . . .........| / | | | | | |  . .o. .| |  .o.O. . .o.o.o.| | | | | | | | | | | | | | | | | | ] ` ` ` ",
").).'.'._.).3.3.O.3.3.).3.3.3.3._.3.3.3.R k j j j b j L L L T T T :.:.:.r.r.y.r.u.;X;X;X;X;X:X:X:X:X:X:X,X,X,X:X,Xr.4.4.r.}.;X;X;X:X:X:X:X:X,X,X,X,X,X,X,X:Xr.=.b L I Y L D D D L D u , , , , % > @ $ # # . t t.i.i.i.q.:.e.t & & & & & & & & % % % % 6 7 7 6 6 % .         $ % = = r r u i b b #.#.#.#.>.>.>.>.y.y.y.>.b p t & % $ % q q 3 % @ # + O X   X + @ 3 6 6 , , r r , 3   # @ 3 5 - @ S 5 o X # 3 q 0 S S S | J ] q , 0 S S S S q # - < 9 S K K S 8 M 5 q < a Z 0.0.0.A 9.0.H.A   @ . + X + # + # $ = :.r.r.4.;.) ) ( ( ( ( ( ( ( ^ ^ R y 5 5 8 8 8 4 5 V 0 0 S K R R G G D D S S S S H H H S S H H H S S S S S S S S Z S S S S K K J K K J J J J J J K K K K K K J J J J J J R / / R R R R R R R J J E / / J J | |  .R / ^ ^ / / / / / / / / E E E E R E E E E E E / / E J J J J E E / J J J J J J / E ^ ^ E E R R E E R E E R R E  . . .^ R R G G G G R G D R  ...3.3.w.w.3.3... . . . . . . . . . . . . ..... . . . . . . . . . . .| | | | | |  . . . .o. .| |  .O.O. . .o.O.O.o. . .| ] J ] | | | | | | | | | | | o.| | | ",
"x.).).).).3.3.3.3.3.)._._.).3.3.3._.3.3.2.E k j j b j L L L L T T T :.:.r.r.r.r.y.y.u.;X;X;X:X:X;X:X,X:X:X,X,X,X>Xr.:.r.;Xy.;X:X;X:X:X:X:X:X,X,X,X,X,X,X,X,X,Xy.:.T b W Y L D D D D y r , , , & % @ O # @ . $ d i.i.i.i.q.t.~ & & & , , & & % % % % % 6 7 7 6 6 $ $         . % = = r r u u i b b #.#.:.>.>.>.>.y.u.y.y.>.b p = * . # q 0 5 3 % @ @ + + O O X X X # % , , 6 > % 3 # O $ X O O # @ M q - 5 5 q J J J J x.f.O.0 O 5 H S D S S 3 o < q S S J K 0 0 5 < 2 a a A A a A 9.H.H.2   < O o X + O @ # . = >.r.r.:.( ( ( ( ( ) ( ^ ^ / R E E D q 5 4 q q > 5 0 M S V S R D G G K D S K K S S S S S S S H S M M S S S S S S Z S S S K K K J J J J J J J J J K K G K K K K J J J J J J E R J J R R R R R J J J E ^ / ^ |  . ./ ^ ^ / / / / / / / / / / / / ^ / / / / / R R / E R R J R E E E J G K J J J J J | | ^ ^ ^ E E E R E / ^ ^ ^  ...E | |  . . .^ ^ R ^ / R / ^ ^ ^ ^ ^ / R R R R R |  . . .| | ^ /  . . . ... . .|  . . . .| | |  . . .| | | | | |  . .| |  . .o.o. . .o.o.o.o.o.o.| | J J E | | | | | | | | | | | o.| | | ",
").).).).x.3.3.3.3.3.3.).).).x.3.3._._.3._. .D k j j b j L b L L T T :.:.>.r.r.r.y.y.y.;X;X;X;X;X;X:X:X,X,X,X<X;Xr.:.:.:.>.r.r.y.;X;X:X,X,X,X,X:X,X,X,X,X,X,X,X,X;Xr.:.b L L D D y f y t = , & & % % $ # 3 @ $ % n i.i.i.i.n ;.d & & & , & & % & % % % = 6 7 6 6 .           . # = = r r r u i b b #.#.=.:.>.>.>.y.y.y.u.y.>.b p = & . # > 5 5 % > @ # + # + O O   X . . % % # O * @ O X     X + @ 0 M 3 # 3 M J ] | O.f.).| Z ; - 0 S S S K 0 # # 4 M S H H Z a 2 2 2 A A A A 9.A 9.n.9.w   O + o O O o + O . t >.r.r.:.~ ( ) ( ;.( ( ^ E R U U G D S 0 5 5 5 4 4 5 M S S S  .E S K J K K K H S S S H S S S S S S S S S H H S S S S S K K K K K K K J J J J K K S K K J K K K K K J J J J R R J J J J R R R J J J E ^ / / / | / ^ ^ / R R R / / / / / / / / / / / / ^ / / R R R E R R E E E J J J J J E J K K K E E E E E ] / | | E E E | | E R E ^ ^ ^  . .^  . . . .^ / ^ ( ^ ( ^ ^ ^ R R E ^ ^ |  .| | | ^ /  . . .|  . .| ^  . . . .| | |  . . .| | | | | | |  .|  . . . . . .o.o.o. .|  . .| ] ] ] | | | ] | | | | | | | | | | | | ",
").x.3.3.x.).3.3.).).).).).).).).)._.3.3._.2.E k k k k j j b b L T T :.:.:.>.r.r.r.r.y.u.u.;X;X;X:X;X>X,X,X>Xr.>.:.:.:.b b b =.b =.:.:.r.>X,X,X,X,X,X,X,X,X,X,X,X,X:Xr.T j D D u y y y t 6 & & & % % # @ - @ # . = t.i.i.i.n :.~ r & & & & % % . % % % % 6 6 6 5 $           . . = = r r t t u i b b #.=.:.>.>.>.y.>.y.u.y.y.>.b u = % $ O 3 3 % > % # # # # # # O O .   X > > o + @ O O + O O O o 4 K S - q ` ` o.o.O.o.).o.J - @ 3 M S S S S q @ 4 0 0 a Z Z a A A A A A A 9.9.9.n.n.A w X O o o o O o ; O . u 6.>.r.~ ~ ( ) (  .( ^ ^ ^ E R R D D D y q 4 5 5 3 4 9 M K K o.3.0 S K J J K K H S S H S S S S S S S H K K K K H H K H K K K K K S K K K K K K K S K J J J J K K K K G G J R E J J J J R R R R J J E ^ J E ^ / ^ ^ / / R R R / / / / / / / / / / / / / / / R R R J E E / E E J J J J J J J K K S ] ] | ] ] | |  .E  ... .E R E E | ^ E E |  .^  . . . .^ ^  ..... .^  . .^ / ^ | |  . . . . . . . .| ^ / / ^ ^ /  . . . . .|  ... . .| | | | | | | | | | |  . .| | | o. .| |  . .| | | | | | | | | | | | | | | | | | o.o.",
"O.O.O.O.3.).).)._._._._.).).).)._.3.c._.3.3.2.G k u k j j b b b b b T :.:.:.r.r.r.r.y.y.u.;X;X;X:X;X:X<X;X6.:.:.:.:.T =.b b T T T T =.:.:.4.;X,X,X,X,X,X,X,X,X,X,X,X>X:.k j L u y y y t 6 = & & & % % @ O # # $ . d i.i.i.i.n n c = & % % % % % % % % % % 6 5 % . .         . . % = r r t t u u b b #.=.:.>.>.>.>.y.u.y.y.y.r.r.T u = % # + @ * > % % % % % # # X $ X O @ 4 5 4 + @ $ X O O O $ @ q H S M S J ` J o.O.O.x.3.E q + + S K S q Z 0 < 5 9 2 2 a A A 9.H.H.9.9.9.H.A 9.n.n.2 o . @ o o O X o ; O . d >.>.>.v Q ( ( ( ^ ^ / ^ ^ / E E G D S f q 3 4 4 3 4 4 8 H S | _.5 0 K K J K K H S K S S S S S S S S H K K K H H K K H K K K K S S S S K K K K K S K J J J J K K K J J J J E / E J J R R E E R R J J E J J / | | / / / E E E / ^ / / / / E E E E R / / / / R R R J E / / / E J J K K K J E E J J J J E J K K J E E | | |  ..... . . .| |  . ./ ^  . ...2...2.3..... . .3.3..... . . ............. . . .^ ^ |  .|  .| |  . . . ... . . . . . . .|  .| | | | | | | J | | | | | | | | | | | | | | | | | | | | ] | |  .o.o.o.",
"O.O.O.O.O.3.3.w._._._.w.3.3.3.3.3.w.w.3.3.3.....h k k j j j k b b b T T :.:.4.4.r.r.r.r.y.;X;X;X;X>X;Xr.:.:.:.:.:.:.v #.#.#.v T =.T T :.( T =.4.>X,X,X,X,X,X,X,X,X,X,Xr.b k u f u y t t 6 = & & % % % % # # O . $ $ n i.i.i.t.d ! r . . % % % % $ % * % * * * # $ $ X X         % = 6 r r r u u i b b #.#.:.>.>.>.>.y.y.y.y.y.y.r.#.p = & . $ 3 % % > % $ % # > > @ O # < 4 0 S 3 $ X X   + @ X O q M S K J K J ] ] X.O.f.f.| V % O < S S V 5 0 5 0 < Z A A 9.n.n.(.n.n.(.n.9.9.n.H.a   w   X @ + o + o o w . T >.>.:.I ~ Q / ( / / / R R / / R U G G f S @ 5 3 4 3 - 4 q M S O.B.S > V J K K K K S S S S S S S S S Z S S S H S K H S S H H H S S S K J J K K S K J J D D K K D J J K K J J J J J J J / / R R / ^ / R R / | / E / / E R J R R R E E R R R R R R R J J J J R E / ^ ^ | | ^ J J D J D K J | | | | J J J J J J J ] J ] | ] | ........| |  . .^ E / ..3.^ ^ ...... . .^ /  ............. . .^ ^  . .3...3.O.^ R E  . . . .| E ^  .O. . . .| |  . .| |  .| | ] ] | | | | | | | o.o. .| | | | | | | | | | | | | ] | | E J J | ",
"O.O.O.O.3.3.3.w.w.w.w.w.3.3.3.3.3.w.3.3.3.3.3.3.E F y k j k k b b b b T T :.:.4.>.r.r.r.r.;X;X;X;Xr.>.:.:.:.:.:.:.:.>.r.r.r.>.:.b :.:.( T :.:.=.:.4.;X,X,X,X,X,X,X,X,X;Xb k u f t t t t 6 * % & % % % % % $ O O $ # % n i.i.t.n s = = = % % % % % % * % % % % $ $ $ . X X       $ % 6 r r r r u u i b b #.#.>.>.>.>.y.y.y.y.y.y.y.>.#.r & % % # % $ > # 6 % % # > , 6 r 0 0 0 V 0 >     + O X O O 5 0 M S S V S K J | O.f.).o.S > X @ Z K S 4 8 4 < < Z 0.n.n.(.(.(.n.n.n.(.9.n.H.A w       w X X X ; + o O % ;.6.>.:.T / Q U Q / ^ / R E / E Y U R E D G 3 5 5 < - 4 @ 4 q M ] +.O.5 > 8 S K Z 0 S S S M 0 S H S S Z Z Z S S S H H S S S H H S S S K K K K S S K K K K K G G K J K K K J J J J J J J J J J J R J J J R / ^ / / / ^ ^ E R E E E E R R R R R R R / / R J J J J J J J J J J J J J J J J J J E ] E J J K K K J ` | J J J E E ^  . .| E ^  ... . ... ... .^ .. . .^  .^ E  . .........| R R R  . . .....3.3... .| E .. . . . .| ^ |  . .| / | | | |  . . .| ] E ] ] | | ] ] | |  .| | | | | | | | | | | | | | | | | E J J ] ",
"x.3.O.3.x.)._.w._._._._._._._._.w.w.w.3.3.).3.3.2.Y k k j j k k b b b b T T :.:.:.4.r.r.r.r.y.;Xr.:.:.:.:.:.:.:.:.r.;X;X;X;X;Xr.>.:.T =.:.:.:.:.=.=.4.;X,X,X,X,X,X,X:X:XT u u y y t t 7 6 % & & & & % % % $ O O O #   d t.i.t.n = = = 6 % $ % % % % % % % % # . $ $ $ $ X .     . % 6 r r r r t t u i b b #.>.>.>.>.y.y.y.y.y.y.y.y.r.b = & $   $ 3 % * * % % 6 6 u i i u t q q S 0 @   O X   - q S S S S M 0 0 M S J | O.).O.J Z @ o 0 Z 0 + ; < o < Z H.J.(.n.n.n.n.n.n.n.9.H.9.a o w $   w X o o + + o $ = 4.6.4.( T Q U G U R / / / E / E E R R R G G 5 0 S - @ 4 @ 4 3 0 ` O.'.q + @ 8 M Z Z Z S S S S S S S S Z S Z Z S S S S S S S H S S S S K K S S S K K K K K K J J J J J J J J J J J J J J J J G J J J J R / / ^ | | / ^  .^ / E / / E R R R R R R R / / R J J J J J J J J J J E / | E E J K K J J J S K K J ] ] J J J J E E E ^ |  . .^ ^  . .^  ...^ .. . ......... . .E  .^ .. ... .| E E ^  . . ... ...3.....| J  .3.| ^  .| ....O... .| |  . . . .|  .| ] | | | | | | ] | | | | ] ] ] | | | | | | | | | | | | | E ] E J ",
"x.3.3.3._._._._.{.{.{.{._._._._._._.w.w.w.w.w.3.3.( L k k j k k b k b b b T :.:.:.:.4.r.r.r.r.:.:.:.:.:.:.:.:.r.y.:X:X;Xu.;X:X:X;Xy.>.=.T :.:.T :.=.T :.}.,X,X,X,X,X:X,X:.u u y t t t 7 6 % & & & & & % % $ # + #   $ % d t.e.= = * * % % % % % % % % # # % # $ . . . . . . .     $ = 6 r r t t t u u i b #.:.>.>.>.y.y.y.y.y.y.>.y.y.>.b & . $ $ 5 % % * * * 7 u i C i i r 5 8 K J S > X + 3 q S H S M 0 q q 9 q 0 S J o.'.).| Z + o 8 8 8 + 4 0 8 Z Z 0.H.(.(.n.n.n.(.(.9.9.n.H.0.2   o # o o + o + + X # u 4.4.:.~ ^ ( / R / U / / / E E E Y R U U G G q 0 S S 4 @ @ < O > V o.'.J q @ + < 0 S S M M S S Z M S S S S Z Z S S S S S S S S S S S S H S H K K K K K K K K J J J J J J J J J J J J J J J J J J G J / / / / / ^ | / ^  .^ E E / ^ E E / E / R E / / R R R R R R R J J J J J E / | E | / J K J J J J K K K K J ] | J J |  . .^ E |  .| |  .| E /  . ... .^  . .3.3. .../ ../ ..|  . . ... .^ ^  . ... . . . ...| G G w. .G E  .).3..... . . . . . .| | | | | | | | | | |  .| | |  .| | | | | | | | | | | | | | | | | | | E ",
"3.3.3.3._._._.{.{.{.{.{.{.{._._._.w.w.3.3.3.3.3.3.3.) L y k k k k k k b b b T T :.:.:.4.>.4.:.=.:.:.:.:.:.:.r.;X:X:X:X:X:X:X:X:X,X,X;Xr.:.:.T T =.=.=.T :.r.:X,X,X:X:X,Xr.u u t t t 7 6 5 % % & & & & & % $ O + #   O   = ) ! = = * $ $ $ % * % % % % % % % # $ . . . . . . $ X   . % 6 r r t t t t u u i b =.:.>.>.y.y.y.y.y.y.y.y.y.y.:.p & . # # 3 % ( t 7 5 u i %.%.C r 5 Z J ] | S 4 q V M V S S M 0 0 0 0 8 q 0 S | f.O.} < o + 9 9 Z 0 K J J | } 0.H.n.(.(.n.(.n.9.A 9.9.n.J.A w o X   @ + O O # X % L 4.4.:.~ ^ ( ^ / / Y R / E E ~ Q Y E U R R J q * *  .S @ - 4 4 > q V c.-XV O ; - + 8 0 M Z M 0 M S Z S S S S S S S Z S S S S H H S S S K K K K K K K K K K K K J J J J J J J J J J J J J J J J J G J J / / R R E / / |  .^ / E ^ ^ ^ ^ ^ / / R R R R R R R R R R R R J J J J J E E / | | J J | ] J | J K K K J K K J E |  .| J J R R R ^  . . . ...^  ./ E E ^ .. . ...^ ..E ..|  ..... .| R R ^  ... .^ / ^  .| J G w. .J E  .3. .|  . . . . . . . . . . .| | ] E | | |  . . .o.o.o.o.| | |  .o.| | ] ] | | | | | | | | E ",
"3.3.3.3._._._.w._.{.{.{.{.{.{._._.w.3.w.w.w.w._.w._.3.Y y u u k u k k b b b b T T ~ :.:.:.:.T T T T :.:.>.y.;X;X;X;X:X:X:X:X:X:X:X:X:X,X;X>.:.:.=.:.=.T b :.}.,X,X:X:X:X;Xb u t t r 7 6 5 % % & & & & & & % # # $ $   5 G D y 6 * % % % $ % % % % % % % % # $ . . . . . . . . X     $ , r r r t t r r u u b b =.>.>.y.y.y.y.y.y.y.y.y.u.y.#.= . % . 6 h {.Q 7 0 y u i C i 6 q S K S J J V M S M M M S S M M M 0 5 4 q M H J K Z 2 2 2 a a A @.| ] |  .O.{ H.n.n.(.n.(.9.9.9.9.n.n.n.A a 2 o + # o o # #   % ( 6.;.~ ~ ( / / Q Y E / / / ~ ( T Y / U R R G y # O E | y 3 + - # @ > [ hXJ # @ - o # - 8 0 M Z S S Z Z S S Z Z S S Z S S S S H H S S S K K H S H K K K K K J K K J K J J J J G J J G J J J J J G G G J R / / / / / / ^  .^ / / ^ ^ ^ ^ ^ / R R R R / / / R R R R R R R R J J J J J E E J J J | E J K J J ] ] J K S J J E E J J R E J R /  . . . ... . . . .^  ...E ^  ./  ./ .. . . . .^ ^ ^  . . . . .| | ^  .| E ..O.E E  . ... .|  ...o...O... . . . . .| | E E ] ] | | | |  . .o.o.| | |  .o.| ] ] ] ] | | | ] E ] ] J ",
"3.3.3.c._._.w.w._._._.{.{.{.{._._.w.w.w._._._._._._.w.2.Y y u k u u d k k k b b b T T T b b T :.T :.:.r.y.;X;Xu.u.;X:X:X:X:X:X:X:X,X,X:X:X:Xr.=.:.T T T b =.r.,X,X,X:X:X:XT t t t 7 6 6 3 % % & % % & & & & % # $ # q J G 6 * 5 % % % % % % % % % % % % % # $ $ . . . . . . . X     . % 6 r r r t r r t u i b b #.>.>.y.>.y.y.y.y.y.y.u.u.r.b e % % * F e...* 0 0 q r r , % 4 0 V 0 0 V S V M 0 M 9 0 M q q 9 q 5 < 4 q 9 9 9 9 a a a A A 9.@.K K J ] | } H.H.(.n.n.n.9.9.9.9.J.J.n.A 2 a 2 9 + w + + + O * 4.4.;.~ Q Q ! Q ( I ~ / E / ( ( ( ~ ^ E R G G S % # D _...y 5 - + - @ y 3.S > + + ; + # @ 4 q M M M Z Z Z Z Z Z S S Z S S S S H H S S S S H S S H K K K K J J J K K K K J J G G J J G J J J G G G G J J R / / / / / / ^ ^ ^ / / / / / / ^ ^ / R R R / / / / / R R R R R J J J J J J J J J J J J J K J J J J J ` | | ] E J G G R E ^ ^ ^ / ^ ^ / E E  .....3.....2.^ ^ ( ^  .^  . .| ^ ^ ^  . . . .^  .|  . .E E |  .3.| J ^  . ...O. . . . .O.O... .| | | | | | | | ] ] ] | | | |  .o.| | | |  .| | | | ] ] | | | | | ] J J ",
"w.)._._._._._.w.w.w._._.{._._.w._.w.w.w._.w._._.w._._.w...j u k u u d d k k k b b b b b b b T T =.:.r.r.y.y.y.u.;X;X;X:X:X:X:X:X,X,X:X,X,X,X:X;X:.:.:.T T b :.}.:X,X:X:X:X:.t t t 7 6 5 % % . & % & & & & & % % - + ` J # $   O % $ % % % % % % % % % % % % $ . . . . . . . X X     . % 6 r r r t r r t t u i b #.>.>.>.>.>.>.y.y.y.y.>.y.u.r.:.= % . $ Q ) O 3 < 4 3 > 3 @ + @ 0 V q 4 0 M 0 M 0 q q 0 q q M 0 q 3 3 4 < < 2 Z 2 a A 9.n.H.} a Z M V S Z A (.(.n.(.9.9.9.9.9.J.(.H.9.A A A A Z 2 w X X @ 6 4.:.( Q Q Q ! / ( ! / Y Y Y ( ;.) ( ^ ^  .^ R D % $ & W D 6 0 - + + # > 0 5 @ + o + ; ; @ # # - q 0 Z Z S S Z Z S S Z Z S S S H H S S S H H S S K K K K K J J J K K K K J J J G J E J J J J G G J J J J R / / / E E R / / / E / E R E / ^ ^ / / / / / / / / / / R R R R R R J J J J E J J J J J J J J J J J ] | | o.| | ] J G R E R  . .^ ^ ^ ^ / /  . ...3.....3.^  . . . . . . ./ | ^ | ^ / /  . . .^  .^ J J | ..^ G E  . ... . . .| E E |  .| E | | | | | | | | | ] ] ] | | | | | | | |  .| | ] | | | | | | | | | | E J ",
"w.w._._._._._._.{._.w.w.w.w.w.w.w.3.3.w.w._.w.w._.w._.{.3.L u k k u u k k k k k b b b b b b T :.:.>.r.r.y.y.u.u.;X;X;X:X:X:X:X:X:X,X,X,X,X,X,X,X;X:.T W T T b :.;X,X;X:X:XT u t 7 7 6 * % . & & & % & & % . % % % y K 3   O   # % % & & & & & % * # $ # % . . & & . & . . . .     . . . % 6 t r r t r t u u i b #.=.>.>.>.>.>.>.>.>.y.y.y.u.u.u.:.p . . F / $ O @ @ < - @ @ @ @ 4 4 5 5 q 0 S H S M 9 0 0 q 9 0 9 ; 4 4 q 9 Z a 2 A 9.9.9.n.0.2 0 9 9 M 0 A J.n.(.(.9.9.9.n.(.(.J.(.J.9.9.H.9.A A a o   # y 4.( ( ( ~ Q ~ ( ( Q ( ^ E ~ ( ( ( ( ( Q ( Y Y J 5 # % % > @ H 4 ; ; ; @ - 4 - O O @ + @ @ @ @ @ @ @ 8 0 Z S S S S M S S S S S S S S S S S S S S S K S K K K J J K S K G J J J J G G G G G G G G J R J J J J R / / / / / / ^ / R R ^ ^ ^ ^ / / R R R E / / / R R R R U R R R R R E J J J J E J J K K K J K ^ J J J J | | | J D J |  ...E ^  . .( R .. ...e... .3.3. . . . ... . .^ ^  .E ^ E ^  .^ | | / | ^ J E ..3.E D | O.| E E  .| ^ ^ | | | ^ ^ E J J J E ]  . . . .| ] ] | o.o.|  .o.| | | o.| | | | |  . .| | | | ] ] ",
"w.w.w._._._._._._.w.w.w._._._._._._.w.w.w.w.w.w.w._._._.3.( j u u k k u u k k k b b b b b b T :.>.>.r.r.y.y.u.u.u.u.;X;X:X:X:X:X:X:X:X,X,X,X,X,X:Xr.=.T T T b T r.:X:X:X;Xb u u 7 7 6 * % . & & & & & & . . % % % 0 S #   +   $ % % & & & & % % % $ $ % % . . . & & & . . .           . $ 5 r r r t r r u t u b b #.:.>.>.>.>.>.>.>.>.y.y.y.u.u.y.:.d % ! l $ O # @ @ # # # @ @ > 4 4 4 5 q M S ` K S M 0 9 9 0 9 4 q q 0 9 a A A 9.9.9.9.9.A 2 8 8 1 0 1 A (.n.(.J.9.9.n.n.J.J.J.J.n.9.n.J.H.A A A a a   f 3.2.Q Q Q U U Q ( ( / Y Y Q ( ( ( ( ( Y ( ^ E R 5 > O @ > V M 0 - # @ # @ 4 4 ; + # + + + @ @ ; ; @ - 4 9 0 M M Z S M M 0 0 Z S S S S S S S S S S K S K K K K K K S S K J J J J G G G J J J G G G G J J J J J / / / / / / / / R R / ^ ^ ^ / / R R R R / / / R R R R R / R R R E E E J J J J J J J J K J K J J S K S J ] | | R ^ ^  .E D G R  ... . . . .2.....2. .^ .. .^  ./  .^  . .E ^ E ^  .^  . .| ^ E R  ... .E R  ...|  . .| E E E | | | ^ ^ | | | | |  ...3.|  . . .| | | | | o. .| | | | | | | | |  .| | | | | | | ",
"_._._._._._._._.{.{._._._._._._._._._.w.w.w.w.w.w._._.w.3.2.^ j k k k d u k k u d d b b b T :.:.>.>.r.r.y.y.y.u.u.u.;X;X:X:X:X:X:X:X:X:X,X,X,X,X,X;X:.T W T b b >.>X:X:Xy.u u t 7 6 6 % % . . & & & & & & & & & % q V -   O   $ % % % & & % % % % % % % % % % . & & . . .               . % 6 r r r r r t t u i b b #.:.>.>.>.>.>.>.>.>.y.y.y.u.u.y.>.= _ =   X + + # + + @ - > 4 4 4 4 4 q 9 0 S K J K M 9 8 8 < < w 5 9 9 a @.9.9.9.9.9.9.A < < 1 < q < 9.n.(.(.n.9.9.(.(.J.J.J.J.9.9.J.J.J.9.A A 0.H.a f ..( _ ! ! ) ) / / ..( ^ ~ ~ ( ( ( ( ( Y ~ Y E Y 6 # 5 % 3 S q 0 4 ; - # @ 4 q 4 @ O @ + + + @ @ @ @ + @ - 4 4 q 0 M S M M M M S S H S S S S S S H H S K K K K K K S S K J J J J G G G G J J J J G G J J J J J R / / / / / / / R R / / / / / / / / R / / R / / / R R / / R R R E E E J J J |  ./ /  .|  ./ E J S D S S D D J G E | .. .| | E  .3.....3. .......2. . . . .^  .E  .^  . .^  ./ / ^ / ^  ./ ^ |  ... .R E | ..| | O...^ | ^ E E ^ | |  . ..... .|  ...3.O.O...| | | | | o.o.| | | | ` J E | | | | | | | | | |  .",
"_._._._._._._._.{.{.{.{.{._._._._._._._._._._._.w._.w.3.3.3.2.^ j k k d k k k u d d k b b b T :.:.>.>.r.r.y.y.y.u.u.;X;X:X:X:X:X:X:X:X:X:X:X,X:X,X,Xr.b b W W b :.>X:X>X>.u t t 7 6 = % % . . & & & & & & & & & & % 0 0 3 X   $ & & & & & & & & % % % % % % % % . . . . .                 $ % 7 r r r r t u u i b b #.=.*.>.>.>.>.>.>.>.>.y.y.u.u.u.y.b ;.$   X + + + # # @ 3 4 4 5 5 4 4 5 q q 8 S J H 0 4 < < < 8 w 4 8 8 a } 9.9.9.9.9.A 2 w + < - > < H.(.(.H.9.A 9.J.(.J.J.J.J.9.9.J.J.J.9.A A 9.UX0.a @./ Q P P Q / Y Q ^ ~ ~ ( ( ( ( ( ( ~ ~ ( T (  .y % y > 5 q 3 - 4 ; 4 4 3 4 q 0 4 + @ + + @ ; @ + + + @ @ @ ; - 4 5 0 0 0 M Z S S H S S S S S S H K S H K H K K K S K K J J J J G G G G J J J J J R J J J J J R / / / / / / / / E / R R / R / / / / / E E E / / / R R R R R E E E E J J | O.O. . . .^  .| | |  ... ./ J G G D D G R E | | E R ^  . .3. ... .(  . .^ E E /  ./  .^ ^  .^  .^ ^ ( E / R J ^ O.3.| E R E  .O.| ^ O. .E  .| ^ ^ | | |  . .....| E E  . .3... .| ] | |  .o.| | | o.| ` ` E | | | | | |  .| | | ] ",
"_._._._._._._._.w.w._._._.{._._.w._._._._._.w.w.3.3.3.3.3.3.3.2.Y k t d b k u u k k b b b b T T :.:.>.>.r.r.y.y.u.u.u.;X:X:X:X:X:X:X:X:X:X:X:X:X:X:X;Xb b W W W T ;X;X;X:.u t r 6 6 % % $ . & & & & & & & & & & & % 5 0 0 3 $ $ & & & & & & & & % % $ # # % $ $ . . . .                     # 5 r t r r t u u u d b b =.=.*.-.-.>.>.>.>.>.y.y.u.u.u.u.t.e.* $ O + + # # @ - < 4 5 5 8 5 5 8 q 9 q M Z 0 9 8 9 8 9 9 w < 5 5 2 @.9.9.9.9.9.A w @ + w 3 # a H.(.n.9.2 A (.(.(.J.J.J.n.9.(.J.J.J.n.A A 9.J.H.A @./ Q ( ^ P Y ( ) ( T T ~ ( :.:.:.:.:.:.4.;.4.w.E 7 S q q 3 q # - # 8 q q 4 8 M 0 3 + o + @ @ + + @ @ @ @ + + @ @ - < 3 4 8 9 0 Z S S S S S S S S S S S H S H K S S K J J J J J J J J J J J R R / ^ J J J J J R / / / / / / / / / / R R R R R E / / / / / / ^ ^ / / E E E E E R J G J J  ...O. .^ | E  .|  .....3.3. .^ ..^  .G J D D D D D D G R | ....2. .^  .^ E R R R  ./ ^ / / ^ /  .^ ^  .E / G E  .3...J G ^ |  .O.| |  .^ ^ | |  . . . .| |  . . .| E | | | |  . ..... .| | | | | o.o.| ] J J | | | | | | | | ] J J ",
"w.w.w.w.w.w.w._.w.w.w.w._._.w.w.w.w.w.w.w.w.w.3.2.2.3.3.3.3.3.3.( L u u j k u k k k b b b b b b :.:.:.>.>.r.r.y.u.u.u.;X;X:X:X:X:X:X:X:X:X:X:X:X:X;X:X:.b b W b k r.>X;Xb u r r 6 5 % % . . & & & & & & & & & & & & % > q 0 5 . & & & & & & & & % $ $ . . $ . . . . .                       $ # 6 t r r t t t u u i b b =.=.=.:.>.>.>.>.>.y.u.u.u.u.u.u.t.7 $ X + + + + + @ - < 4 4 4 4 5 8 q 9 0 q 4 5 0 Z Z Z 9 9 < < 5 4 2 @.9.9.9.9.A 2 < 5 4 < 9 < @.H.n.9.A 2 9.J.(.(.J.(.J.9.9.J.J.J.J.J.A A A 9.J.9.0.0.[.w.e.e.) ~ T ~ :.:.:.:.:.4.4.4.4.4.6.r.w.4.E y D S S S S q @ > 8 0 9 4 8 M M q + o o + @ + + @ + + @ @ @ @ @ @ @ @ - - < 4 9 0 Z S S S S S S S S S K H H K S S K J J G G G J J J J J J J J R R J J J J J E / ^ / / / R / / / / / / R R / E / / / / / / / / / / R R R R J G D D G J ^  . . .|  . ... . . . . .| R R .. .3. . . .E E G J J D D D R R .. . . . .E / / ^ ../ ^ ^  . .^  .^ ^ / G G G  .O. .J K J  . . ... .| | E |  .| | |  . . . . . . .| |  . . .E  . ..... .| | | | |  ...| E J J J ` ] E ] E E J J E ] ",
"w.w.w.w.w.w.w.w.w.w.w.3.w.w.w.w.w.w.w.w._.w.w.3.3.3.3.3.3.3.3.3.2.) L k d k k u k d k b b b b b T :.:.:.>.>.r.y.y.u.u.u.;X;X;X;Xu.u.u.;X:X:X:X;X;X;X;X>.b b b i u :.;Xr.u r r 7 6 * % % . . & & & & & & & & & & & & % # @ 5 q % & & & & & & & & $ . $ $ $ $ . . $ $                         X O % 6 r r t t r t u u i b b #.#.#.#.:.>.>.>.>.y.y.u.u.u.u.t.n w @ @ + + o O + ; - < 4 4 4 4 5 8 8 4 < < 5 0 M Z Z Z H Z 0 0 5 9 Z 9.9.9.9.A 2 q 0 0 0 Z a H.n.9.A A 9.n.(.(.(.J.(.n.9.(.J.J.J.J.J.9.A A A 9.9.0.H.0.@.@./ 2.4.r.{.6.6.6.6.>.>.>.>.>.6.>.4.:.W D D G R J J S q - 5 q q 0 0 0 0 M M 4 - o + @ + + + + # + @ @ ; @ @ - - - - @ ; < 4 q 0 0 M S S S S Z S K K K K K K K K G G G G J J J J J J J J G G J J J J J E / / / / / R R ^ ^ / / / / / R / / / / / / / R R R R E J J J J J G J J ^  . .^  . . .^ ^ E ^  .^  .^ /  . . . . . .......^  ./ G D f f f U / ^ ^ R E ^ ^ ^  ./  . . . . . .| E R G G E .. .J K J E  .|  . .| | | E  ... .^ E ^ |  ...|  . .|  ...O..... . . .| |  ...| | |  .| / J J J J J J J E E J ] ] | | ",
"w.w.w.w.w.w.w.w.w.3.3.3.w._._._.{.{.{.{.{.{.{.w.w._._.3.3.3.w.w.w.3.( k u k b u d u u b b b b b b =.:.:.>.>.r.r.r.y.y.u.u.u.u.u.u.u.u.u.u.u.u.u.u.;Xy.r.i i b u u T }.:.p r t 6 = % % . . & & & & & & & & & & & & & % % $ O q q % % . & & % . . $ $ X   $ $ . . $                         X X $ . * 6 r t t r t u u u b b b b b #.:.:.>.>.>.y.y.u.u.u.u.y.e.7 q ; @ + o o + ; < 4 4 4 4 4 4 4 4 < < 4 4 3 - 4 0 9 Z S Z S q M K 9.9.9.9.2 2 0 7 V Z Z Z H.n.9.2 A 9.(.(.(.(.(.(.9.(.J.J.J.J.J.J.n.A A A A 9.9.n.J.H.A 2 h e.r.6.r.r.6.6.>.>.>.>.>.>.>.=.b k G R R D D y 5 O # 4 0 9 0 S Z 9 0 S M 4 + + @ @ + + + # + @ ; @ @ + @ - < < ; @ @ ; + - 4 q 0 S S S Z S K K K K K K S K K J J J J J J J E E J J J G J J J J J E / / / / / R R ^ ^ / ^ / / / / / / / R / / / R J J R E J J R R E /  .^  ... .^ ^  .^  . ./  . ./ / / E .. .2.^ 2. ...^ ........(  .( E D U ^ ( ^ R E R E R  .R ^ / ^  .|  .| E E R E  . .J G E E | O.^ |  .^ | | E  .| | |  . .| ^ E E | | ^  ...3..... .^ E R R E  .| | ^ / / / J J J J J J J E E J | | | | ",
"w.w.w.w.w.w.w.w.w.w.w.w.w.{.{.{.{.{.{.{.{.{.{.{.{._._._._._._._._.w.3.( k u d d b u u u b k b b b T :.:.>.r.r.r.t.r.r.y.y.y.r.t.>.t.r.y.y.y.y.y.y.y.u.r.b b u u u :.r.u p k u = % % % & & & & & & & & & & & & & & & & & & . # @ 6 , & & % % O X $ $ $ $ X X                                       $ % r t r r t t r u u i b b b T =.=.*.>.>.>.y.y.u.u.;X{...S * < O o X o o + ; ; 8 8 4 8 5 < < @ @ @ < 3 5 0 0 0 M S S S H H S A 9.9.A 2 0 0 9 S H M @.H.A 2 A A 9.(.(.(.(.J.9.n.J.J.J.J.J.J.J.(.A A A A A A A H.J.9.2 2 @.r.e.6.6.r.r.>.>.>.>.>.:.T j F F Y k ( 3.t $ @ O # @ 9 q 0 S S M 0 0 M M < X @ @ O @ @ @ @ @ @ @ # + @ @ @ @ @ @ @ @ - < < < 4 5 8 9 Z Z S H K K S H S K K K K S K J J J J @.^ ] @.J J J J J R E E E R / R R R / ^ / / / / / / / / / / / / R R R R E E J G D G J  .O.O.| ^  . . .^ / .. . . . . ./  ... ./ ^  .( ^  . . .3. .....3.....2...2.w.w.3.D L E E G ^ R / ^  . . . .E R E | O.G S D R .... . .E /  ... .^ ^ | / J  . ... . .| | E E  ... .^ .. .| / E E E R J E / | E E E ^ ^ E E E E / | | | | | | ",
"3.3.3.w.w.w.w.w.w._._._.{.{.{.{.{.{.{.{.{.{.{._._._._._._.w.w.w.3. .^ ^ L k u u u k b k k b b b T T :.:.:.>.>.>.t.>.>.:.:.#.#.#.:.>.>.r.r.r.r.r.r.r.y.>.d u u u d 4.:.r r t = % % & & & & & & & & & & & & & & & & & & & & & $ O % 5 6 6 % % $ O X X X X X X                                       $ % 6 r t t r r u u u u u i b b b #.*.>.>.>.>.y.r.4.:.^ R S 0 3 #     o o o + ; 4 8 8 0 8 4 4 < 4 5 9 0 0 0 0 S Z S S S S S K A @.@.Z q 0 0 0 S K Z } 9.9.A A A n.(.(.(.J.9.(.(.J.J.J.J.J.J.J.J.9.9.H.9.a A A (.J.H.9.a a 0.e.r.6.6.r.r.>.>.>.:.b b b W ~ ( k w.{.D $ @ O + # 4 5 q 0 0 M 0 9 0 M 5 + + @ o X o o + @ ; - - - + @ @ @ - - - - @ - < < 3 3 5 5 8 9 0 S H K J J K K K K K S S K J J J J J J J J / J J J J R J J / ^ / E E E / E ^ ^ ^ / / / / R ^ ^ / / R J J J G J J J D D J | O. . . . . .^ ^  .^  . . . .^ .. . .^  . . .(  . . .3. . . .2. ...2.w.{._.3.w.3.U ^ U R E D R G R E E E E J R  ...D D J J E  ...w.3....... .E J  . .|  .| | R R /  .| E |  . .^ ^ |  . .^ E G D D J E |  . . . . . .| | |  . . . . . ...",
"_._._._.{.{.{.{.w.{.{.{.{.{.}.{.{.{.{.r.w.w.w.w.w.w.w.w.3.3.O..... . . .( E L k u k k u u d b b T :.:.:.:.>.>.>.:.:.#.b b b #.#.:.:.:.>.>.>.>.>.t.r.r.:.u u u u b ;.u r r = & % & & & & & & & & & & & & & & & & & & & & & % % $ $ % 6 6 % # $ $ X X X                                               . % 6 t t r r r t u u u u u b b b =.=.:.:.:.T T ~ ^  . .] K q @     X O O + ; < 4 8 9 8 8 9 q 9 0 0 M M Z Z S S S S S S S K Z Z Z 9 0 V 0 q J K Z A 9.9.9.A A 9.(.n.(.n.n.J.J.J.J.J.J.J.J.J.J.9.9.J.9.9.9.9.J.J.(.H.9.A @.0.r.r.6.>.>.>.>.:.b b T T :.4.4.i r.{.^ . # O # @ @ 4 q q 9 M M q q M M 4 + @ - - - ; @ + # + + + - - - 3 3 3 - - 3 4 4 4 5 5 5 4 8 q q 0 0 S S H K K K J J J J J J J J J J J J J J J J J J R J J E E E E E / / E G G J J R / / / G J G G R R R R E J J J J K D G  .O. .^ ^ ^ / ^ .. . . . . .^ ..^ | ^  . .^ /  .^  ... . . .2...E 2.{.}.{.2...E ^ ../ 2. .G R S S J R J R J E O. .G J E E E  .3. . . . . . .^ E / | / | E ^ E R E  . ./ E E E ^ ^ ^ ^ ^ / R R R E ^  .......3.3.O.O.............O.O.O.O.",
"{.{._._._._.w.w.w.w.r.{.{.{.{.{.{.{.r.w.w.w.3.3.3.3.3.3.O... . . . .......2. .G k u k k k b b b b T :.:.:.:.:.:.:.#.b b b b #.#.#.:.:.:.:.:.>.>.>.>.>.v p u u t b L = = = & . & & & & & & & & & & & & & e e & & e & & & & & % . . $ % % % O $ X X X         o o X o X                                 . % 7 r 6 r r t t u u u u d b b b W L b u R E [ | o.o.| ] S 5 O     O + # < 4 4 - 4 8 9 M M 0 0 0 0 M S S S H K K K K K H K H Z 0 y S 0 0 @.H Z A H.9.A A A 9.9.(.n.n.J.(.J.J.J.J.J.J.J.J.J.9.(.(.9.J.H.9.J.J.(.H.A 9.9.0.t.r.>.6.>.:.:.v b b :.:.4.r.:.p 4.r.;.. # # O + + 4 q q q M M 9 q 0 S 0 < # + X o O + + - 4 5 q q 0 S J | O.f.).).`.`.`.`.`.).`.f.f.O.O.O.O.O.O.o.| | | | J J J J J J J J J J J J J J J J J G G E E E E E E E J ^ ^ ^ / / / / / / R R R R E R R J G D G J J G G J ....^  . ./ ^  . . . . . .^ ..^ ^ ^ ^  .^ R / ^ ( ( ^ (  ...2.3._.}.}.w.2.3. .2.2...w... . .E G E E J G E  . .J J E E | 3...| R  ... .^  ......... ./ R ^ | | ^  . ./ / E / ^  . . .^ ^  .......2.3.3.3.2.2.2.3.3.3.2.2.3.3.3.2.2.....",
"_._._.w.w.w.e.3.e.w.w.{.{.{.{.{.r.w.w.w.3.3.3.3..... . . . ..... . ...3.3.3.3. .( j t u d u k b T :.:.:.:.:.:.:.b b b b b b b b b b b b #.=.:.:.:.:.:.d r t t r d = = & & & & & & & & & & & e e & & & & e e e & & & & & & & & % # $ . . . O O X X X X X X X o o X X X X                 .               $ 5 r t r t u t r r t u u u u y f y y y H ` ] ] ] X.X.| J Z 3 X   X O # < 5 3 O + 4 8 q M 0 0 0 0 M M M S H K ` ` ` J K S S 0 3 @ O # M K S Z Z @.A 2 A A 9.9.9.9.(.(.J.(.J.J.J.(.(.J.J.n.9.J.(.n.J.J.9.9.J.J.9.2 9.9.9.UXe.>.r.6.b b L T T 4.4.6.r.T e :.r.4.% $ + o o o @ 4 8 q 9 0 0 M q 0 Z q - # # - 8 S ` O.].=X=XCXCXCXAXZXDXDXDXDXJXJXJXJXDXDXDXJXJXJXDXDXDXZXZXAXAXAXAXAXCXuX=X=X=X=X=X=X=X-X-X-X-X].].[.[._.).).).).w.3.O.O.o.^ ^ / / R J J J E R R R R R / R E / / J G D D J G  ...|  . ./ ^ ^ / ^ ^  ...^  .( ( / /  .^ / /  . .E R / ^ / ( 2.3.}.}.;.( 2.2.{.2...2.^ 3...3... .| R D  ...G D G E E  .3. .E  ..... ./ / / R .... .R R ^  . . . .^ ^  . . . . . .......2.3.3.2.2.2.2.....2.2.3.2.3.3.3.3.3.3.2.2.2.2.",
"w.w.w.w.w.w.w.w.w.w.w.w._.w._.w.w.w.3.2..... . . . . . . . ...O.3...O.).3.....3.2.E D h j k k L T T :.T T b b b d d i d k k d i i b b b b b b b b b b r r r r r r & r & & & & & e e e e e e e e e e & e e e e e & & e & & & & & . % % . $ . $ X X X X X X o o o o X O X X X       . . . .   X X           % 6 t r r t k L L f r t t y y y V V V M H ] { | X.X.| | J 0 @ O     X @ 5 4 # # - - @ 5 q 0 M S S S S S S K K J ` ` ` J K 0 @ O   w K K Z 9 Z < Z a a A 9.9.9.(.J.J.J.J.J.J.(.J.J.J.(.9.(.n.n.J.J.J.(.9.H.J.A 2 9.H.9.H.{.:.:.:.b W F T =.4.4.5.4.u & =.r.w.6 $ O O + # # - 8 q 8 9 M 0 8 q M 0 5 K ).-X=X=XCXAXAXAXAXCXAXAXAXAXAXAXAXAXZXZXZXZXAXAXZXZXZXZXDXDXDXDXDXDXZXZXDXDXDXDXJXJXJXJXDXDXDXDXDXDXDXDXDXDXIXIXAXDXIXDXAXAXAXAXAXAXhX=X=X-X[.).3.O.O. . . .^ E J / J J J G D D D G ^  . . . ./  .^ ^ ^ ^  . .R / ^ ^ R R ^ ^ / /  . .R R / ^ R .. .) w.}.w.4.3.w._.) ..^ ^ 3. .3.3. .E J J ..3.D G R | E  . .|  . . .^ ^ ^ ^ E R E ^ | R E ^ .... .^ / ^ ..2..... ...2.2.3.3.3.2.2...........2.2.2.2.2.2.3.3.3.3.2.2.2.2.",
"3.3.3.3.w.w.w.w.w.w.{._._._.w.w.w.w.2... . . . ... . . . . .O...3.O.O.3.3.3.3...^ ..w._.e.( L k b c L b b k d u u u u u u u u u u u u u u u u u u t t = 6 = = = % % % & & & & & e e e e e e e e e e e e e e e e & e e e e & & & & & & . . .     X X o O O O O O O O O O X X X X $ $ . . . X X               % 5 t t y G (  .G y y y y 0 M M M M S J ` ` J ` | | | | K 0 * O     O 3 5 5 4 @ O O @ @ 4 5 0 0 S S S S S S S K J J @.G 7 # o o < J J 0 4 <   Z Z a a 9.9.H.H.n.9.n.J.J.J.(.J.J.n.9.(.(.9.n.J.J.(.J.n.9.H.A A A 9.9.0.[.:.b L W ( T ;.:.4.4.:.:.= . i 4.w.t . O # + # # - 4 5 4 q M q q q 0 9 q | CX=XuXAXCXAXCXuXuXAXAXAXAXAXAXAXAXAXAXAXAXAXAXAXAXAXCXCXAXAXAXAXAXAXAXAXAXAXAXAXAXAXAXAXAXAXAXAXZXAXAXAXZXDXDXDXDXIXDXDXZXDXDXDXDXIXIXDXIXDXDXDXIXJXDXIXAXhX=X=X-XO. .^ J J J J G D G / .... .|  . . . .(  . .R / ^ ^ / / ( ^ / /  ...R ^ ( ( Y ..3./ ) 2.2.2.2.w.2. .2.(  ... .3.3. .J J  ...| J E  . .] | | E  . .^ ^  ... . ... ...3. . .E  ... . .^ ^ ......2.2.2.......2.2.2.2.2.2...........2...2.2.2.2.3.2.3.3.2.3.",
"w.w.w.w.w.w.w._.w._.{._._._._.w.3.2.2...o.O.3.3.O..... . . .......3.e...w.{.{.3.O.].=X=X{.w.2.( j L I I v L L L b b k u u u t r r r r r r = r r r = r % 6 % & & . = . $ . & & & p p p p e e e e e e e e e e e e & & e e e e & & , & . . . O $   X X o + + # + O O O O O O O X X . . . . . X X X             $ % 6 r y y 7 7 f D y 0 0 0 M M M 0 q V K K J ` ` | | | J S q @ $ $ O @ 4 q q * $ # + O $ $ # 3 q 0 f f f f f f D D G / D 5 # @ q | S Z 9 o < 0 0 Z Z A H.J.H.A 2 A A H.J.J.J.(.n.n.J.9.n.J.J.J.(.J.(.A 9.9.a 2 A 9.H.0.D k Q F T 4.4.4.4.4.:.( & . p 4.w.S $ O # O O # @ - < 4 8 9 0 9 q 0 q - 0 f.=X=X=X=X=X=XuXjXuXuXuXuXCXCXCXAXAXAXAXAXCXCXCXAXCXCXCXCXCXAXAXAXCXCXAXAXAXAXAXAXAXAXAXAXAXAXAXAXAXAXAXAXAXAXAXAXAXAXAXAXAXAXAXAXAXAXAXAXAXAXAXZXZXZXDXJXJXJXJXJXJXAX=X[. .G S K D D / w._.3.....(  ... . ...( ..( .. . . . .^  . .../ ^ ^ / F (  ./ ) ~ I Q Y ) ( ..2.^ ..^ ..3.)...J J O. .D G E o...R E  .E J  .^  ...( G G ^ ^  .3. .^ E ..3....... .......2.2.2.2.2.2.2.2.....................2.2.2.2.2.2.2.2.2.3.3.",
"e._._.w._._.w.w.{.w.w.w.w.3.w.w.3.3.3.3......... .O. . .w.=XAX=X_.w..._._.{.{._.}.}.}.}._.w.3...Y ^ ) ..( ) 2...~ Y ( ) ~ ~ ) ( Y k k Y Y D f * * % # # $ $ $   $ $       $ . . e p p e e p e e e e e e e e e & e e e e e e e & e & & & & & % $ % $ $ O + O O O + o o o O o O . . . . . . . .                   * 0 f 6 6 7 0 S y V y 0 V 0 0 0 0 M S K K J J J J K H K K y * . w x x 7 = 7 f J P ! / / z s 7 s x z ! ..e.w.[.}.{.[.2.G 5 w 9 @.H H 0 #   S K K Z Z K K a w < H Z A A 0.J.n.9.J.9.9.(.(.J.J.J.J.(.9.A A A 2 2 H...G G G R D _.IX<X2.2.2.2.y % $ % U _.D 5 0 J ` O.).].} o ; < 4 8 9 0 0 0 9 8 8 ).=X=X-X=X=X*X=X=X=X=XuXuXuXuXCXCXhXuXuXuXuXuXuXuXuXhXhXjXjXjXjXuXuXuXuXuXuXuXuXCXCXjXjXCXCXCXCXCXCXCXCXCXCXCXCXCXCXCXCXCXAXAXAXAXAXAXAXAXAXAXAXAXAXZXZXDXJXJXJXKXJXPXLXJX-X .D D D G ..O.^ .. .^ / /  ...2. .^ w... . . ... .R ^  ./ ( (  .3. .^ ( ^ ..( ) E Y E ^ Y E  ./ /  ./ J D R 3.R D  . .( / E R R E E ^ (  . . . .^ R  .....^ ^  .2.......) ( ( ) 2.2.2.2.2.2.2.2.2.2.2.2.2.2.2.2.2.2.2.2.2.2.2.2.3.3.3.3.3.3.",
"w.e.e.w.{._.w.w.w.w.w.3. . . . .....O... ...o.|  . .| 3._.{.hXAXJXhX{.=XhX<XhX=X<X=X{.2.R R ^ E Y R ( ) ( ^ ( ^ ( ( ) 2.2.2.2.2.( L Y 2.2. .D % # # # $ $ X     X           . . & e p p p e e e e e e e e e e & e e e e e e e e e & & & & & & & % # O + + O O O O o o o O O O . . . . . . . .                   # 7 y 6 6 6 0 S V V V 0 0 0 S 0 0 0 V S K K K S q # O 0 O.[.w...t.}.;Xt.t.t.q._ / _ _ 0.0.e.w.}.[.w.e.0._ G x D f 7 * $   + 3 5 Z Z 0 + < S J J Z 0 Z Z 2 o < S Z K @.A H.H.UXH.9.H.J.J.J.J.J.J.J.n.9.A A A a Z G G / E R 3.hXLXhX2.3.{.}.t . 7 t R ].].-X=X=X=X=XuX=X`.9 9 4 8 8 9 0 0 0 9 4 4 H f.*X-X-X*X*X-X=X=X=X=XuXuXuXuXuXuXuX=X=X=XuXuX=X=X=X=XrXrXrXrXuXuXuXuXuXuXuXuXuXuXuXuXuXuXuXuXuXuXuXuXuXuXuXuXuXjXjXCXCXCXAXAXCXCXCXCXAXAXAXAXAXAXZXZXDXDXJXJXJXPXKXJXPXLXAX).G G | ^  ...^  . . . . ..... .^ e... .( ^  . ./ h G / ( ^ ( .. .( ^ E / / ( ) ..E  .^ E ^ E E ^ J G D E w.^ D ^  .( ^ ^ ^ ^  . . ... . . . .^ R .... . . .2.2...( ( ..2.2.2.2.2.2.2.2.2.2.3.2.2.2.2.2.2.2.2.2.2.2.2.2.2.2.2.3.3.3.3.3.3.",
"2.2.2.w.{.{.w.3.w.w.3. .E /  .|  . .O...| ..3.o.3.3._.=XhXhXIXIXhX=X}.<XIX<X}.{.>X2.D Y ....^ U / Y Y ^ ^ E E ^ ( ) 2.e.w.3.) ( ( Y ~ ) Q R G * $ $ $ X X     X                 . & e p p e e e e e e e e e e e e e e e e e e e e & & & & & & & % % O + + O O $ O O o o O O O O . . . . . . .                   O 0 7 6 6 6 7 S S 0 V S 0 M K M 0 0 0 V V V 0 q * O $ # 5 6 7 7 d t.}.}.t.s $ $ $ # * 5 6 5 7 7 * * * * * * 5 7 f q 3 o X + 3 % 8 Z S + + w 0 H S M M 0 4 + < 0 K K } 0 @.@.B.0.[.UXJ.J.(.J.J.J.J.H.A A A Z @.K K J J E  .=XJXLXJXAXAXIXPX].).=X=X=X=X=X=X=X=X=X=X=X].].S Z 9 9 8 8 8 9 0 9 8 4 ; H `.&XOXOX&XOX-X-X*X=X=X*X*X*X=X=X*X*X=X=X=X*X=X=X=X=X*X*X*X*X*X=X=X*X=X=X=X=X=X*X*X*X=X=X=X=X*X*X=X=X=XrXrXrXrXrXuXuXuXuXuXuXCXCXCXCXCXCXCXCXAXAXAXAXZXZXDXDXDXJXJXJXLXLXLXIX[.G J | E ^ E | | |  . . . .....3.2... . .....^ G D G U / .. .^ F L R E ( ( ) ..( 2.2...( E E E R G G ^ _. .G R ^ (  . . . . . ... ./ E ^ ( ( ^ (  .) ( ( ) ( ^ U ^ ..2.2.2.2.2.2.2.2.2.2.2. .( 3.3.3.3.3.3.3.3.3.3.3.3.3.3.3.3.3.3.3.3.",
"3.3...3._._.3.3. ... .|  .| | / .. .3.3. ..._.'.-X=XhXIXIXIXAX=XhX<X<X<X{.w._.hX_./ Y 2.w...^  .../ R ( ..) ( ..( ;.2.2.w.) L L Y / ( ( L U G * $ $ O X X X X X                   . & p p p e e e e e e e e e e e e e e e e e e e e & & & & & & & % # + + O O X O O o o O O O O . . . . . . . .                 w S 7 6 7 6 7 y K 0 V S S 0 S S V V y 0 0 q 5 > % # # O $   $ $ $ $ * x _ x w # # w < q 5 * # $ w w w @ w < 8 0 9 5 Z @.Z w o $   w < o < - < q M V S S 0 - @ 4 S J | f S J ..h x 0.UXJ.J.J.J.J.J.A 2 K @.H K K K J S J ].JXLXPXJXPXJXAXPXAXDXDX-X-X-X-X-XOXOX-X].OXB.`.J M 9 9 8 4 4 8 9 9 8 4 ; 8 ` `.$X`.$XOXOXOXOX*X*X*X*X*X*X*X*X*X*X*X*X*X*X*X*X*X*X*X*X*X*X*X*X*X*X*X*X*X*X*X*X*X*X*X*X*X*X*X*X*X*X*X*X*X*X*X=X=X=XuX=XuXuXuXuXuXCXCXCXCXCXAXAXAXAXZXZXZXJXDXJXPXLXPXLXLXJX[.S E E G / J J R E E ^  ...3.2.2.2.....O. .E R G R R ^ .. .E h D ^ / ..^ ( ^ ( 2.2.3.2. .( E ^ R R / w. .R R E / / ^ ^ ^  . .^ / R R U R / ^ U / ) ( E Y Y ( ^ ( ..2.2.2.2.2.2.2.2.2.2.2.( ( 3.3.3.3.3.3.3.3.3.3.3.3.3.3.3.3.3.3.3.e.",
"3.3... . ......... . . .....O._.3.3.].-X)._.=XhXhXIXIXIXhXAXAXAX=X<X}.{.{.}._.3.2.2.2.2. ./ E ^ ( ( ( ..2.) ) 2.2.( ( 2.2.) Y E ) ( ~ Y L / R * O O O o X X X                       & e p p p p e e e e e e e e e e e e e e e e e e e e e & & & % % # + # + O O O O O o O O O O . . . . . . . .                 3 J * * t r 6 6 K S S S S 0 0 0 0 0 0 7 6 q 6 6 5 % $ X O O     o @ O O < 4 - ; w w < < 4 < 3 3 @ @ 3 < - < 8 m 0 < Z 0.0.A A a w 4 o   X o o 3 5 0 S S 0 < @ < @ S  .| f G ^ F f _ [.[.H.H.9.9.9.2 2 V 0 S H K S J S | AXPXLXLXKXKXDXZXPXDXJXuX[.=X=X].].].`.`.`.`.d.B.X.M 9 8 8 4 4 4 9 0 9 8 4 - 8 ' f.m.f.`.`.`.oXoXoXOXOX#XOXOXOX#X#X#X#X#X#X#X#X#X#X#X#X#X#X#X#X#X#X#X#X#X#X#X#X#X#X#X#X#X%X#X*X*X*X*X*X*X%X*X*X*X*X=X*X*X*X=XuXuXuXuXuXjXCXCXAXCXCXZXZXZXDXDXJXJXPXLXLXLXLXKX'.K J E E J J J J J E ^  ... . .^ /  ... .E D G .... ...^ ^ ^ ^  .^  .E ^ ^ / ^ ..2.2. ...( ^ R R R ..^ R R U R R R E ^ |  .R R E E R G G E / ( 2.2.( ( ) 2.2.2.2.2.2.2.4.3.2.2.2.2.4.4.2.2.4.3.3.3.3.3.3.3.3.3.3.3.3.3.3.3.3.e.w.w.",
"| ....|  ... . .|  . . .O. .O.].[.].=X=X-X=XAXIXIX<X<X<XAXIXhX=Xw.w.{.<X>X3. ._.w.2.^ Y R E L D Y / E E ^ E ..{.e.) Y ( 2.2.) ) 2...( Y L U R y O O O O X X                         . & e p p e p p e e e e e e e e e e e e e e e e e e e & & & % # O + # + O O + O O O O O O o $ . . . . . . .                 3 @.# # 6 7 6 = f K D 7 0 y 0 q t t t 7 6 6 6 6 % % % O X X O @ o @ + + 4 4 @ # < < < < < < < 4 3 3 < < ; ; ; ; - 4 Z @.A A 9.0.Z @.Z a 2 w w w w w 5 q 5 @ @ 5 S f S J D R / G f D D f ..B.H.0.a w 0 y 0 0 0 0 S J K x.JXJXJXLXPXJXDXZXKXDXDX].].=X-X`.m.`.`.`.d.+.+.+.X.Z m 9 8 8 4 4 8 q 8 8 < ; ; 8 ` f.d.d.d.h.h.h.m.`.`.|.oXoXXXOXOXOXOXOXoXoXOXOXOXOXOXOXoXoXXXOXOXOXOXOXXXXXXXXXXXOXXXXX#X#X#X#X#X#X#X#X#X#X&X%X*X*X*X*X*X*X*XrXuXuXuXuXCXCXCXCXAXAXZXZXZXZXDXJXPXLXLXLXLXLXJXO.J E J ^ E J J J R E ^ ^ R R D D E  .| ^ R / .... . . ./  . ... . .^  ...( ^ / ....^  .( / R R R .. .^ E ^ / R R E / ^ ^ E J R R G G E  .3.4.4.4.4.2.2.2.2.2.2.2.4.3.4.4.2.2.2.2.4.3.3.3.3.3.3.3.3.3.3.3.3.3.3.3.3.3.3.w.3.w.w.w.",
"3.3.O...O.O. . . .3._.-X=X{._.[.].].}.}.}.<XIXIX{.}.<X<X<X}._.w.e._.3.2.Y ..3.3._.w...( ( E Y ( ) ( U D E ^ .._.e.( Y ) 2.2...) ( 2.2.2.2.^ U D O O + O o X X                         . & e p e p p p e e e e e e e e e e e e e e e e e e & & & % $ $ + # O O . + + O O O O O X $   . . . . . .             X X 4 +.O   % = 6 6 7 f D f 7 7 t 7 t t r r r r 6 = 6 % . . $ X     # O X @ q < @ 3 w < < < < 5 5 5 3 3 3 < < - - ; 8 < < Z @.0.9.A A 9.9.H.H.0.A a 2 2 w w 3 O @ 5 J ^ E S y E  .R y G G y D  .e.w.[.S * @ < 5 9 0 q Z H OXPXPXLXLXLXKXDXCXJXDXCX).&X*XoX`.m.m.d.s.B.a.s.+.X.K m 8 8 8 4 4 4 8 8 8 4 - ; ; 9 ' j.+.p.a.a.a.d.h.h.h.m.M.`.|.|.|.|.|.|.|. X X X X X X|.|. X X X X X X X|. X|. X X X X X X XoXXXXXXXXXoXOXOX#X#X#X#X#X*X*X*X*XeXrXuXuXuXuXCXCXCXCXZXZXZXZXDXJXJXJXPXLXLXKXLXAXO.E R ^ R J G R E ^ ^ R G G h D E E E |  . ./ / E ^  .E ^ (  . .(  .( ) 2...^ ( ^ ^  .^  .^ E R 2.2... . . ./ / / / E R / J G G G R  .w.w.w.w.w.w.3.4.2.2.2.2.2.4.4.4.4.e.e.4.4.4.3.3.3.3.3.3.3.3.3.3.3.e.e.3.3.3.3.e.w.3.w.w.w.",
"=X-X3...o. . .O. .3...w.-X{.w.w.w._.w.2._.>X<X<X{.{.{.w.{.}.{._.2...Y ^ Y ..w.w.2.w...E ^ ..2.2.w.3.E E 3.3.(  ...Y ^ 2.2.) ....) ) Y Y ) ^ Y G O O + O O O X X                         . e p p p p p e e e e e e e e e e e e e e e e e e & & & $ $ O + # O $ $ # + O O O O o X $ $ . . . . . . .           X o 2 0.#   . % 6 6 6 6 D E y 6 t t r r r r t t r r = = % % % $ $ O   $ o + 8 9 < ; < < w w w < 5 5 3 < < - ; ; + + + < < 2 A A 9.A 9.9.9.9.n.9.H.H.A 2 w w w $ # 5 W u D W E W [ [ V K 0 7 f ..2.2./ R D S 9 < 4 < 0 S ] uXJXPXLXLXLXJXZXCXKXjX-X).*XrXm.B.B.d.a.m.+.{ { { } } m 9 4 4 4 4 4 4 8 8 8 + ; ; + m { X.X.p.p.a.a.d.d.h.h.h.h.m.m.m.m.N.m.M.`.|.|.|.|.|.|.|.|.|.|.|.|.|.|.|.|.|.|.|.|.|.|.|.|.|. X X X X XoXoXXXXXOXOX#XOXOXOX*X*X*X*X*XuXuXuXjXCXCXCXCXAXAXZXZXDXJXPXPXLXLXLXLX=X| E R R R J R E / E E G U G G ^ E J | G ^ / ^ / R .. . . .^  ./ ( ^ ( ( ( ^ ^ E ( 3. ... .E R 2.3.3...^ / R E ^  .^ E / E E | ^ ^ ..w.3.w.w.w.4.w.w.w.w.e.3.3.3.3.3.3.4.4.4.3.4.3.w.w.3.3.3.w.w.3.3.3.w.e.3.3.e.w.w.w.3.e.w.w.",
"]._.O... . . ...O.O.O.e.w.w.3.w._.{._.3.w.<XAX<X}.}.}._.{.}.{.3.^ U F L ^ 2.2.( ..2...^ ^ ....2.( 2.2.( ..w.2.2.( / ^ 2.w.w.2.) ) ( Y Y Q ( ( R 5 . # O # o o o X X                   X O & e p p p e e e e e e e e e e e e e e e & & & e e & & O O O O % % & . $ . . O O O O O X X $ . . . . . .           X X f @.O     # 6 7 6 = U _.y t y r r r r r r r r r = = = = % % % . $ $   . @ 5 5 w < w w < < < < 4 5 4 < @ < ; o ; + ; < + 2 Z @.9.9.9.n.9.9.n.n.n.9.A a a a 2 2 2 J h T i b T :.( D D E S 0  .o.| G K K J ` H 0 0 S | x.=XPXLXPXLXLXJXDXCXHXuX`.$XlXOXB.B.B.d.a.a.p.+.{ { { ' Z m < 4 8 4 4 4 4 8 5 ; ; ; + + m { p.p.p.a.a.a.a.g.g.h.h.h.h.h.N.S.N.N.S.S.S.S.S.S.S.S.S.S.S.S.S.S.S.S.S.S.S.S.S.S.S.S.S.S.S.|.|.|. X X|. X.XXX@X@X+X+X+XOX#X%X%X%X*XrXtXyXlXlXCXCXCXCXZXZXDXDXJXKXPXLXLXLXLX=XJ | E | E R  . ./  .R E /  .^ E /  ./ E ^ ^ R / | J ^ ....( ^ ^ / ( ^ R R ^  . ...e...3.^ ^  .3. ./ E ^  . .^  ... .|  .| G ^ ^  .3.2.e.w.w.w.w.w.e.4.4.4.4.3.3.w.3.3.3.3.3.3.3.w.w.3.3.3.3.3.3.3.3.3.3.3.3.3.3.3.3.w.w.w.w.",
"-X_... . . ...3.O.3.3.3.w._.w.w._.}.=X}.{.>X>X<X<XIX<X{.w.w.( k h D G D h D U U / / / E R ^ ..2.E ) 2.....2.^ ^ ( Y F E 2.3.2...( ~ Y Y ( ( ( / 7 $ @ @ @ O + X X X               X X     & e p p p p p e e e e e e e e e e e e e & & & e e & & O O O O % % & . . . . $ o O O O $ $ $ $ . . . . . . $       X X 0 @.    $   $ = 7 = U w.h r t t r r r r r r r r r r = r r u c =   # $   O - < 5 w w w w < 2 2 < < < @ + @ - @ + + @ < + w 2 A A 9.9.9.9.n.n.9.n.9.9.A A A A A 9.9.0.@.y W 4.( {.J J @.K y | O.0 S J ` K K K K K ).[.o.O.CXLXLXLXLXKXZXZXHX&X+.OXuXOXm.m.B.d.a.a.p.+.{ { { } H M 8 < < 4 4 < 4 9 4 ; ; < ; + 1 Z p.p.p.a.d.d.d.d.g.g.h.h.h.h.h.N.N.N.N.N.N.N.M.S.S.S.S.S.S.S.S.S.S.S.S.S.S.S.S.S.S.S.S.S.S.S.S.S.S.S.|.|. X X.XXXXXXXXXXX+X+X#X%X*X*XrXtXyXpXlXzXlXCXCXZXZXDXDXJXPXPXPXLXLXDX'.E ] E R  ./ R 2.../ R E ^ ^ R R ^ / R / / R / | R U ^ ^ / / / ^ ( ^ ^ ^ ^ / /  .3... .( R R 3.E D E ^  . .O.O. ./  ... .R  .^  .2.2.4.e.w.w.w.e.e.3.3.4.4.3.3.w.w.3.3.3.3.3.3.w.w.3.3.3.3.3.3.3.3.w.w.3.3.3.3.w.3.w.w.w.w.",
"[.w.....3.3.3.w.3.w.3.3.3._.{._.}.=X>X<X<X<X<X<X<X<X=Xw.....^ U D F L F D F Y L D h L R L R ..2.( ^ ^ ( )  .2. .( U L ( 2.w.4.2.^ Y I ~ ) ( ( ^ D # @ - @ O # X X X X       X X   X X     . & p e e p p p p e e e e e e e e e e e e & e e e & & $ X O O . & & . & . . . $ O O O O O O $ . . . . . . . .       X q 0.w   $   . * 6 7 ^  .y t t t t t r r t t t t , u r u e i r.>.r . . #   o 5 5 w < < 2 2 2 2 w 4 4 4 < @ - @ O @ + @ w + + 2 A 9.n.n.9.n.9.n.n.n.9.9.9.9.9.9.9.9.9.A 0.0...R _.0.0.@.| ^ G J 5 5 Z J K J J J J | ].].O.].AXLXLXLXJXAXDXJX'.+.uX%X|.m.m.m.d.a.a.a.a.+.{ { { ' Z m < ; 4 - - 8 8 < ; ; < ; ; ; < H { a.p.p.d.g.a.a.g.g.h.h.h.h.N.N.N.N.N.N.N.N.N.S.S.S.S.S.S.S.S.S.S.S.S.S.S.S.S.S.S.S.S.S.S.S.S.S.S.|.|.|. X X X X X.XoXoXXX@X+X%X%X*XeXrXyXyXpXlXlXlXCXCXZXZXDXJXJXKXLXLXLXAXo.] ] E ..^ R 3. .^ ^ / / ( / U / / R R R R / | E R ^ ^ / / / / ( / ^  .^ R R  .3.3.^ ( R G  .J G R  .....3. .E E / |  .^  . ...2.4.2.3.w.w.w.w.e.e.3.3.3.e.w.w.w.e.3.3.3.3.3.3.3.3.3.3.3.3.3.3.3.w.w.w.w.w.w.w.w.w.w.w.w.",
"3.3.3.3.w.w.w.3.2.3._.{.}.}.}.}.}.>X<XIX<XIX>X>X<X}.w.( j h D / / F F L Y ( ^ L L Y ) ..Y / ....( ( / ( ^ ( w.2.Y Y Y ( 2.2.2.) / Y Y ) 2.) ( )  .* @ @ # O @ X O X X X     X X   X X     . & p e p p e p p e e e e e e e e e e e e e e e e & & $ X X $ . & & & & & . . . O O O # O O X X . . . . . . . .       * 0.q     $ $   w y ..F r t t t r r r r u u u u r u p p p :.:X;Xr.= . #   X 4 5 5 < < 2 2 2 2 2 w + w < + # - # - + o @ @ + < 2 A 0.H.9.9.n.n.n.9.9.9.9.9.9.9.9.A 2 9.n.H.H.0.@.f =X=Xe. .D E @.q 5 5 q 0 Z K | ^ | O.-X-X=XIXLXLXJXAXDXKX`.`.lXoXm.m.m.m.d.a.a.a.a.+.{ { { ' Z M < < < ; 4 9 4 < - ; ; ; ; ; ; 8 ' a.a.p.a.d.a.g.g.g.h.h.h.h.N.N.N.N.N.S.S.S.S.S.S.S.S.S.|.|.|.|.|.|.|.|.|.|.|.S.S.S.S.|.|.|.|.|.|.|.|.|. X X X X X X X X.XXXXX+X#X%X%XeXrXtXyXpXpXlXlXCXCXZXZXDXJXJXKXKXLXPX-XE  .E |  .^  .( /  ./ /  .^ R ^ / R R R R E / E R ^ ^ / / / / ( / ^  .^ U U ^ 2.3. ...E G  . .G J  ... . .E G E J E | /  .^ ..3.2.2.3.w.w.w.w.w.e.e.3.3.w.w.w.w.e.3.3.3.3.3.3.3.w.w.w.w.3.3.3.3.w.w.w.w.w.w.w.w.w.w.w.w.",
"e.3.3.3.3.w.w.w.{.w.3.w.w.}.<XIX<X<X<X<X<X<X}.w.{.2.( L k t f Y / U Y Y / ) ..( ^ ..w.2.Y Y ( Y ~ 2.2.2.( ^ 2.) Y ( ( ( ) ) ....( ( ( 2.2.( ( ( O.5 @ @ # @ - o + O O X X X X X   X o X   . & , e p p p p p p e e e e e e e e e e e e e e e & & $ $ X $ . & & & & & & & . . $ O # # + O $ . . . . . . . .         @.@.q         5 f  .y 6 t t r r r t t u u u u u u i b >.u.u.u.;X>.=   $ X $ 5 9 < w w 2 2 Z A 9 w + < # @ @ + @ # + @ - - ; w 2 A 0.9.9.n.n.n.9.9.9.9.9.9.9.A a A 9.9.(.H.0.A 9 } @.@.3.T i u y 5 # 3 0 K J | ^  .|  .w.=XKXLXLXDXDXZXHX`.#X*X`.m.m.m.m.d.a.a.a.a.p.{ { { } Z M 8 4 - ; 8 9 < - - ; ; ; - ; ; ; m ' p.a.a.a.d.g.g.g.g.h.h.N.N.N.N.N.S.S.S.S.S.S.S.S.S.|.|.|.|.|.|.|.|.|.|.|.|.|.|.|.|.|.|.|.|.|.|. X X X X X|. X X X X X.X.XXXXX+X+X#X%X*XeXrXyXyXpXlXlXCXCXZXZXJXJXKXPXLXLXJXo.J J R ^  .R / / ( / /  . .^ ..^ ^ E R E E R R R R R R E E /  .3.e.3...^ ^  ... ...../ D / 3.D R ^ E E  .E G R / J ^ R ^ E  .2.4.2.3.w.w.w.w.w.w.e.3.3.w.w.w.w.e.w.3.3.3.3.w.w.w.w.w.w.w.w.w.w.w.w.w.w.w.w.w.w.w.w.w.w.",
"w.w.w.w.w.w._.{.{.e.w.w.w.w.}.}.}.<X<X<X{.{.w.w.2.~ I L L Y Y ^ ^ / ~ ( ( ( 2.) Y ) 2.( j L / Y ..2.....2.2.2.L / ..2.2.2.;.) ( ( ( ( ;.) Y Y / / * @ @ - - < O + O O o X X X X X X O X     . & e p p p p p p e e e e e e e e e e e e e e e & . $ X X $ . & & & & & & & & . $ $ @ @ # # + O . . . . . . . .       3 @.| S q w 7 f y D 6 t t r t r t t t t t t u r i :.>.u.:Xu.:Xu.;X:.&   . O O q 5 2 2 a a Z A A 2 + + @ @ @ O # @ @ # + @ - < w a A 9.n.n.n.9.9.9.9.9.9.9.9.A A 9.9.9.9.9.A A A 0.0.@.( 6.4.u 3 3 - 5 K o.+.| .. .| ..| o.=XJXPXDXJXDXDX).%Xm.`.m.m.m.m.B.B.a.a.a.p.{ { { { ' M 9 4 ; + 8 8 ; ; - - - ; ; ; ; : + 8 ` a.p.p.d.a.d.h.g.h.h.N.N.N.N.N.N.S.S.S.S.S.S.`.|.|.|.|.|.|.|.|.|.|.|.|.|.|.|.|.|.|.|.|.|.|.|.|. X X X|.|. X X X.X.XXX.X.XoXXXXX+X#X%X%XeXtXtXyXpXlXlXCXCXZXDXDXKXPXPXPXLX=XE E | R R G R U / R /  . . ... ... .| | E E ^ E / E R / E /  ..... .^ ^  .^ ^ ^ ^ ^ ..^ G 3.R J E E ^  .E R ^ | J R J R R ..3.3.3.w.w.w.w.w.w.w.e.e.3.w.w.w.w.w.w.e.w.e.e.w.w.w.w.w.w.w.w.w.w.w.w.w.w.w.w.w.w.w.w.w.w.",
"e.w.w.w.{.{.{.{.{.{.{.{.e.w.{.{.{.w.{.w.w.w.w.w.w.2.2.( Y Y L E ^ Y Y Y E ( ( Y Y ) ..^ Y / ( ( 2.( Y Y 2.3.( L P ( ....) ( ~ L Y Y Y ~ ~ P P U S # @ # 3 - - @ O O O O O O o X o o X X     . . & p p p p p p p p e e e e e e e e e e e e & & . $ $ X $ . & & & & & & & & & . $ # @ @ @ @ O . . . . . . . $     O     f / @.S 0 0 * 3 6 t r r t t t t t t u u u i b =.*.6.y.y.u.u.;X;X:.& . #   < q a a a 2 2 2 2 2 w o o @ - @ # @ @ # + # ; < < < 2 A 9.9.9.9.9.9.9.9.9.9.A A 9.9.0.0.0.0.@.0.[.H.J.H.0.e.w.0.A A a a S ] | | | ....O. .| O.[.=XAXAXJXDX).OXd.`.M.M.M.m.m.B.a.a.a.p.{ { { { ' M m 4 + + 4 < ; ; ; - - ; + + ; < X + m ' { p.a.p.a.d.h.h.h.N.N.N.N.N.N.S.S.S.S.S.|.|.|.|.|.|.|.|.|.|.|.|.|.|.|.|.|.|.|.|.|.|.|.|.|.|. X X X X|. X X X.X.XXX.X.X.X.XoXXXXX+X#X%XeXeXrXuXpXlXCXCXZXAXDXJXJXKXKXLXPX). . .J R / R R R R E  ....... ... .|  ./ E  .|  ./ / / E /  . . .....3.w.3. . .G R ..3./ 3.3.E R ^  . .^ ^  ./ D G G G R 2.w.3.3.w.w.w.w.w.w.w.w.e.3.w.w.w.3.w.w.w.w.w.w.w.w.w.w.w.w.w.w.w.w.w.w.w.w.w.w.w.w.w.w.w.w.",
"w.w.w.w.w.w.w.e.4.4.{.{.w.{.{.w.e.( ( ( 4.w.w.w.e.;.;.2.( Y L ..( Y / ~ E ~ ~ Y Q ( ( ^ ~ ~ Q ~ / Y Y Y ) ) L Y Y / / Y Q ( ~ L P c c I I Y Q / 7 # @ + - ; - - o O + # # + O O o X X   X X X . & e p p p p p p p p e e e e e e e e e e e & & % $ $ X $ . & & & & & & & & & . . # # @ - @ # . . . . . . . $ $               O #     # 6 6 r y t r t t t t t u u u i i i i #.>.>.:Xu.u.u.:.&   O O 5 9 2 w 2 2 w 2 A Z < + O # @ # # + @ - - + + @ - w 2 A 9.9.9.9.9.9.9.9.9.A A 0.0.0.x @._ 4.{.[.UXH.J.H.J.H.H.H.H.H.0.+.J S J /  . ...O.o. .| 3.-X=XKXHXh.`.`.|.`.M.M.m.m.B.a.a.a.a.p.{ { { { M m ; + ; - - ; - ; ; - ; + @ - + ; + + m ` a.p.p.a.a.d.d.h.h.m.N.N.N.S.S.S.S.S.S.|.|.|.|.|.|.|.|.|.|.|.|.|.|.|.|.|.|.|.|.|.|.|.|.|. XoX.X.XoXoX|.|. X X.X.X.X.X.X.X.XoXoXXX#X#X%X*XrXtXyXjXlXCXZXCXDXDXDXKXPXPXLX=XO.E /  . ./ ^ R R / |  ...| E ^ E R E E E ..E E E R / / /  .U R ^  .3.w.2.^ ^ R ^ R  .w.]._.3.E J ^ .... .| / D D D D U 2.w.3.3.w.w.w.w.w.w.w.e.e.3.w.w.w.3.w.w.w.w.w.w.w.w.w.w.w.w.w.w.w.w.w.w.w.w.w.w.w.w.w.w.w._.",
"2.4.3.4.2.2.;.;.4.{.;X}.{.w.w.e.2.2.2.2.2.2.4.;.( ~ ;.w.w.2.) ) 2.2...( Y L ~ Q Y ~ ( ( ( ~ Q Q Q ( ( Q Y Y ( 2.( ~ Y I ~ ) ( ~ Y ( ( I ~ ( ..U * # O # @ - @ @ + + O O O # # # O O X X X X X X . % , p p p p p e p p p e e e e e e e e e & & % X $ . . & & & & & & & & & & & & % # @ - ; # $ . . $ . .                               # 5 t u u t r t u u r u u u u i i i i i i #.>.y.u.y.=.& . O @ 9 2 w 2 2 2 2 A @.a o O @ o @ @ @ + + + @ @ # @ - + 2 A 0.H.9.9.9.9.9.A a K G s t k T :.:.:.;.;.e.e.e.0.H.H.0.H.H.H.S.+.J | ] K ] K | O.o. .o.| [.DXJXf.`.h. X|.|.`.m.m.d.d.a.a.a.a.p.{ { { Z m < + o ; - ; ; ; ; ; ; @ @ @ o < ; o ; M ` a.X.a.d.d.d.h.N.N.N.N.M.M.S.|.|.|.|.|.|.|.|.|.|.|.`.`.`.`.`.`.|.|.`.|.|.|.|.|.`.|.|.|.|.|.|. XoXoX.X.XoX.X.X X X X.X.X.X.XXX@X+X+X+X#X%XrXyXlXlXCXCXZXZXDXDXJXPXLXKXPX).E / ^ ^  .^ ^ ^ / / ^ ( / ^ ^ R R G G E / G G D G G G ^ R G R / 3.[...G G E ^  .3.3. .w.-X[._... . . .^ R f D D D U  .3.3.3.2.2.2.3.4.3.3.w.3.3.w.3.w.w.3.w.e.3.w.3.3.w.w.w.w.w.w.w.w.w.w.w.w.w.w._._.w.w._._._.{.",
"2.2.2.2.2.2.w.w.e.w.{.w.2.2.( ~ ;.) ( ( ( ( ;.( ( :.2.w.4.;.( ) 2.2.( ( ( ( / L P P Y ~ ( ( Q Y Y / ~ Q Y Y ^ ( ( ~ Y L Y ~ Y P L Y Y L ~ ~ ..G % # # @ - # # + # + O O # # # # O O X X X X X O . . & & e p p p e e e e e e e e e e e e & & & . X $ $ . & & & & & & & & & & & & % % # @ @ # $ .     $ . . . o O                       $ % 6 r t t t t u u t r u u u u u u i i i i b #.>.y.r.F . O + q 8 2 2 2 2 A A A A 2 @ @ O O O + + # + + # @ # + O w 2 A 0.9.n.n.9.A a y h f s t d b b b b T T T ~ :.2.w.{.UXUXH.0.0.&XuXZXjXO.`.).K J J o.O.| | ).=Xf.+.`.`.|.M.m.m.m.d.B.a.a.a.p.p.{ { { ' M 1 ; + ; ; ; ; ; ; ; ; ; - @ ; + + ; ; < M ' a.X.p.d.h.a.d.m.h.N.N.M.M.M.S.S.|.|.|.|.|.|.|.|.|.|.|.|.|.|.|.|.|.|.|.|.oX|.oXoX X X XoXoXoXoXoX|.|. XoX X.X.X.XoXoX.X.X.XXX@X@X+X#X%XeXtXpXlXCXCXCXZXZXDXHXKXPXLXPXhX| | /  . . . .^ / R / / E R R R G G G E / G R R R G R  ./ U E / ..w...E  .3.3. . .^ R  .3._.[._.3.w.w. .J D G / ..3.3.3.w.2.2.2.4.2.2.3.3.w.3.w.w.3.w.w.w.w.w.w.3.w.w.w.3.3.w.w.w.w.w.w.w.w.w.w.w._._._._.{.{.{.{.",
"w.w.w.w.w.3.w.w.e.4.2.2.2.2.2.) 2.) ;.2.( ( 2.2.;.2.e.w.4.2.2.2...^ L ^ ..( / L Y Y / / / Y L L Y Y Q Q ~ ( ^ E ~ I L I Y Y Y L P c I I Y Y ( y # + # ; - ; @ @ # + + + # # # # + + O o O O O + O . . & & & e e p p p p p e e e e e e & & & % $ X $ $ . & & & & & & & & & & & & & % # # # # O $           X + # X                       . % 6 u t r r t t u t u t u u u u u i i b p i i b :.;.k $   3 q 2 2 2 2 a a Z a 2 + o w @ @ # # + @ @ # @ O O @ # o 2 a 9.0.0.A a 7 t u s t s d b b b k i b b b #.*.r.;X}.}.}.[.&XZXJXKXJX].].AX`.s.| O.` | | J [.[.O.O.f.`.`.m.`.m.a.d.g.a.a.a.p.p.{ { ' M < ; ; ; ; ; ; ; ; ; - - - - ; o o < ; o ; m ' X.a.a.a.d.h.h.h.h.N.N.m.M.M.M.`.`.`.|.|.|.|.|.|.|.|.|.|.|.|.|.`.`.|.|.|.|.|.|. X X|.|.|.|.|.|.|.|.|. X X.X.X.XoXoX.X.X.XXXXXXX+X+X#X%XrXuXpXlXCXCXZXZXDXDXJXKXPXKXKX).E E / / / R R J G G G R R E R R G R E ^ |  . ./ R R ^ R G R R R / R G ^ | ^ G G R R ^ E ( 3.w.w.3...R G G G / ..2. .( ......2.2.2.2.2.3.2.3.3.3.w.3.3.w.3.w.3.....2.w.w.3.w.w.w.w.w.w.w.w.w.w.w.w._._._.{.{.{.w.",
"w.2.3.w.2.( Q E ~ ( ) 2.e.e.2.;.) ( ( ;.T T 2.;.2.2.4.4.3.e.2.2.( E Y ) 2...;.) 2.2.4.2.E L Y E Y Y Y Y ~ ( ( ~ I P I ~ ( ~ I I Y L Y Y Q / R * # + # @ - ; ; - + # + # # # # # # # + + O + # # % # O O $ & & & e e e e e e e e & & & & & % .       . . & & & & & & & & & & & & & & % # # + O X             X o X                         $ = r t r r r t t t t t t u t u u u u b u b b p i T W * . O 3 2 2 2 2 2 2 2 2 2 w w w # O O O O # # + O O $ # # O w 5 Z @.K a t u b i t r t u u u u k d k b b b :.r.;X;X;X;X=XAXJXJXHXPXDXOXlXOXs.-XJXZX-X0.J J 0.[...B.B.m.B.B.d.B.m.a.a.a.a.a.p.{ { } m ; ; ; + ; ; + ; @ ; - - - - @ ; ; ; ; ; ; ; N ' X.X.X.a.d.a.d.h.h.h.m.M.M.M.m.m.`.`.`.`.`.|.`.`.`.`.`.`.`.|.`.`.`.`.`.`.`.|.|.|.|.|.|.|.|.|.oXoX X X X X X XoXoX.X.X.X.X.X.XXXXX+X#X*XrXuXpXlXlXCXZXZXDXHXJXJXPXLX=XJ J J R G G G G G D D R R R R R R R ^ ^ .... . .R R R G /  .^ E / R R R R R D G U G G D /  .2.e...R G R R G G E R G G E ( ) ..2.2.....2. .2.2.2.3.3.2.3.3.2...^ ( 2.3.3.w.w.w.3.w.w.w.w.w.w.w.w.w.w.w.w.w.w.w.w.",
"2.2.( ( ( Y L L L L I Y ~ ( ) ) 2.) ( ) T T 2.2.2.4.4.2.2.4.2.;.( Q Y 2.2.2.2.;.2.2.2.( Y L Y ( ~ ( ~ Y Y ( ( T Q I I ~ ( ~ Y I Q I ~ Q ( ) ( % @ # @ @ - ; + @ @ + # # @ @ @ + # # + + + + @ @ > - - @ # # & & , & & & & & & & & & & & % .         . . & & & & & & & & & & & & & & % # # + O X X X             X         X X   # # + X   . $ % r r r r t t t t t t u u u u u u u u i b i u u k h * % @ 5 < w w 2 a 2 w 2 a 2 o + + + # @ @ + O $ # # % % 6 7 y 7 y 0 t u W T T L u r u k u u u u k k b b =.r.y.;X;X;X>XIXJXKXKXDXKX*X=X*Xs.*XPXKXZXJXAX+.0 0.[.+.} +.B.d.m.m.p.a.a.a.a.a.p.{ { } m ; ; ; + ; ; + + @ ; ; - - - + - - + @ < < ; ; 1 M ' { X.+.a.a.a.a.d.h.h.m.N.m.m.M.`.`.`.|.|.`.`.`.`.`.`.`.`.`.`.`.`.`.`.|.|.|.|. X|.|.|.|.|.|. X X X X X X XoXoX.X.X.X.X.X.X.X.XoXOX#X*XrXtXyXpXlXCXZXDXDXHXJXLXPXJXo.J J J J G J R J G G R U R R R R R E ^ ..^ ^ ( ^ / R R  ... .^  . .^ /  .| R R R G R R ( (  ... .R G R / E R R R / ( .. .( ( ..2...) ( ..2.2. .2.2...2.2. .(  .2.2. . .3.w.w.3.w.w.w.w.w.w.w.w.w.w.w.w.w.w.w.w.",
"2.^ Y Y R U L F F Y L L L ( 2.4.4.2.;.2.;.;.e.w.e.r.r.4.2.2.2.2.) ( Y ;.2.) ~ Y Y I c c I T ( ( ;.;.( T I T T I I v c v I I I Q Q I Q I ~ ( Y * # $ O @ > - ; # ; + + + @ ; ; ; @ @ @ @ @ @ ; ; - 3 < < @ # % % % % % . % . . . & . . $ . .         . . & & & & & & & & & & & & & & & % @ # O X X X . . . .             X X X X + + O X     . . 6 6 r t t t u t r t t t u u u u u b u u i i u k F t * * 4 5 w < 2 2 w o a @.@.2 @ @ @ @ # + X X $ % = 6 r y y y t t r t u k T 2.r.T r = r u u u u i i i i b >.y.y.;X;X>X<XIXJXDXHXZXuX`.`.`.*XKXHXHXKXHX[.S | [.+.J K } } a.m.+.g.a.a.a.p.X.{ { { m ; ; ; + + ; + + @ @ ; - - - - @ + @ @ ; - - ; ; ; 9 H ` X.+.X.X.+.a.a.a.d.d.d.h.h.h.m.m.m.m.m.m.m.m.m.m.m.M.m.m.M.M.M.M.M.M.M.`.M.`.`.`.`.`.`.`.`.|.|. X X X X X X X X X X X X X XoXXX#X*XeXrXuXpXCXZXZXDXDXJXPXJXPX-XJ E J J J J / E G G J U U R R R R / /  .R ^ ^ / ^ R G / / E R R ^ ^ / ^ ^ /  . .R ^  .( ( E R (  .^ U R R E R ^ ..3.2.2... .2.2.2... .3.3.2...2.3.2.2. .( ..2...^ ^  .2.3.w.w.w.w.w.w.w.w.w.w.w.w.r.r.w.w.w.w.",
"U L L L L F D h h L ~ ( ;.2.2.2.2.4.2.4.e.2.4.w.w.r.r.4.2.2.2.2.2.;.;.2.2.( Q L I I I Q ) ;.2.;.;.;.;.~ ~ :.( T v v c c P ! Q Q ~ I I c I I Y t * # $ # > > - @ ; ; + + ; ; ; ; @ @ @ @ @ ; ; - < < < - - - - - - - @ # # # # % $ $ . $ $           . . . & & & & & & & & & & & & & & % # # + $ . . . . $ . . X         X X o o X X       X $ . % = 7 r t t t t r r r r t t u u r u i u u u u u u y 7 3 5 q < 2 w < w w a @.@.Z O O o X X O < 5 6 6 r y y y t r t r t y t u T 4.r.4.b = & = r r u u u b i b :.6.r.;X:X>X>XhXDXDXAXCXDX`.h.`.#XLXZXKXLXCXm.' J +.[.0.@.Z Z H } p.p.a.a.a.p.{ { { { m ; ; ; ; ; ; + + @ ; ; ; - - < @ + - - @ @ - ; ; ; ; 8 H ` } X.X.X.+.p.a.a.a.a.a.a.d.d.d.d.d.d.d.d.h.d.d.h.h.m.m.m.m.m.m.m.m.m.m.m.m.m.m.m.m.m.m.m.M.`.`.|.|.|.|.|.|. X X X X|.|. X XoXOX&X%XeXrXyXlXCXZXDXDXHXJXJXLXAX| E J J J J J J G G G U U R R R R / / / /  ./ R ( R G  .| ^ / E E |  .^  .^ ^ / R ^ R ( .. .E ^  . .( R R G G E  . .^ .. ...2.2.2.2...3.3.w.e.3.w.w.2. ...2.2. .^ ( 2...3.3.3.w.w.w.w.w.w.{.{.{.w.{.{.{.{.{._.",
"L Y L F F L L F U / Q P Y ) ;.( ;.w.w.r.r.2.( 2.4.4.2.;.;.;.) ) ;.2.;.;.~ v I I I I ~ ( ;.;.;.;.;.;.;.;.;.2.2.;.Q ~ ~ ~ ~ ~ ~ I ~ I c c Q P ( R y 6 % $ # @ @ @ ; ; + + ; ; ; ; @ @ @ @ ; ; ; ; < < - - - - - ; - - - - % % # # O O O X $             . . & & & & & & & & & & & & & & % % # + $ O . . . . . .   X       X X o X $       X X       % 6 7 r r r r r r r r r t t t u u u u u u u u t k f 6 5 5 w w w w < < 2 a Z a w w O o - 0 J o.h y r t t r r t t 7 7 y u i =.:.r.r.4.W r = = e = 6 t k u u b :.r.y.:X:X>XhXAXDXDXJXZX`.OX`.|.DXKXHXPXyXh.X.' +.0.[.[.+.} Z 1 Z ' { a.d.a.p.{ { } m ; + ; ; ; ; + ; @ @ ; ; ; ; - - - - < - @ @ < ; ; ; ; ; M } X.X.+.p.a.a.a.a.a.a.a.d.d.d.h.h.h.h.h.h.h.h.h.h.m.m.m.M.m.m.m.m.m.m.m.m.m.m.m.m.m.m.m.m.N.N.m.m.`.|.|.|.|. X X|.|.|.|. X XoX+X%X*XeXrXpXCXZXZXDXDXJXJXLXDXo.J J J J J J J J J G G G U R U R R R G R ..R U ..^ G O...O...R R E ^  . .E G G ^ .. .......^ U G R .. .^ G D G R R R ^ ^ ^  . . . . .) 2.w._.w.w.w.2.2.2...2.w.w.2.( 2.2.2.2.2.3.3.w.e.w.w.{.{.{.{.{.{.{.w.w.",
"G G R G G G G G G U U U U P I Q ( 2.e.e.4.4.4.2.( ) ;.;.( ( ( ;.2.;.;.;.( ~ v ~ ~ ~ ;.:.;.;.;.;.;.;.;.;.r.r.r.r.r.e.r.~ ~ I I Y I ! Q ~ ( ( ~ P Y l y * $ 3 4 + @ @ # ; ; - ; @ @ @ @ @ @ ; ; ; - - - - - - @ @ - - @ @ @ @ @ @ # O X O O X           . . . & & & & & & & & & & & & & & % # O $ . . . & & & . . . . . $ $ $ $ $ X X X X   X         # 6 t r 6 r r r r r r r r r u u u u u u u u u u u t t 7 * w * * * w w w w w w < w w S | K q t t t t t t t t t t t y u u b =.:.r.{.r.W r & 6 % = = r r i i b >.r.y.;X:Xb.>XIXJXKXDXrX`.`.`.tXKXKXHX#Xh.{ ' p.a.d.oX`.0.+.Z < < 1 m H } { X.X.` m ; ; ; + + ; ; ; + ; + ; ; - - ; ; ; ; ; ; ; + ; - - - - < 4 H ` X.O.+.+.s.s.d.d.h.h.m.m.m.m.m.m.m.m.`.`.`.m.`.`.`.M.m.m.`.`.m.`.m.m.`.`.m.`.m.m.m.m.m.M.m.h.M.M.M.M.`.`.|.|.|.|.|.|.`.|.+X&X%X*XrXuXjXCXZXDXDXDXPXJXLX=XS D D R J J J G J D G G R R R R U U G  .( U ( 3...G ^ ^ ^ G G J R  .R R G D U  ...2.( ( ( ( / ^ (  .R  .G f D D G G ^ ^ ( ) 2.2... .( 2.2.....3.w.3.2.2.3.3.3.2. .2.2.2.2.( ( (  . .e.w.w.w.w.w.{.{.w.{.{.{.",
"^ ^ / R G G G G F U U U P l l l L ( 2.2.2.;.;.:.~ ( ( ( ( ( ;.:.;.;.~ ( ( ~ ! ~ ;.;.;.;.;.;.;.;.:.;.4.r.r.r.r.r.}.r.r.;.) ! ! Q ( ~ I P P I I Q I Q / f * # @ - @ @ # + ; ; ; @ @ @ @ @ @ ; ; - - - - - - - @ @ - - @ @ @ @ @ @ @ # X X O X X X X       . . & & & & & & & & & & & & & & & % O O . . & & & & & . . . . . . . . $ $ X     X           . * 6 r r r u t r r 6 r t u b b b T T b b b b T :.4.;.L 7 * * = 6 6 5 5 * * 0 0 q 0 S S 0 0 t t t t t t t t t r t y u u b b :.6.r.}.r.4.D & % % % = = r r b b >.y.6.1.7.>X>XJXPXKXlX*XXX|.+XCXHXGXN.g.p.{ z.X.d.`.oX).O.+.} < : : < 8 8 M H ` H 8 - ; ; ; ; + + + + + ; - - < - - - - < < < 4 4 4 4 - - - - - 9 K X.O.s.s.O.d.f.f.f.f.f.f.f.m.m.).`.`.`.`.`.m.`.`.`.`.`.`.`.m.`.M.m.`.`.`.`.`.`.`.M.M.M.m.h.m.m.h.h.h.m.`.|.`.|.|.|.|.|.XX+X%X%X*XrXpXCXZXZXDXJXJXJXLXAX| D J / J J G D G G G G R R U R R / R .. .G U ^ R G R D G G R E G G R ^ / G G U ^ 2.2...) .... . ..... ./  .^ f f G ^ ^ ( ) ....2.2.2...E Y Y ^ 2.3.w.2.......2.3.w.2... .( E Y R E 2.e.w.w.w.w.w.w.{._.w.w.",
"R R R R R / / R U U / U P F l j L ~ ;.2.;.;.;.;.;.;.;.;.;.:.;.:.~ ~ ~ ~ ;.;.;.;.:.;.;.;.;.;.;.;.;.e.r.r.}.}.r.r.}.}.<X;X;Xr.;.~ ! I I ! Q P c L I Q Q G S q @ - @ @ + + ; ; @ @ @ @ @ @ ; @ - - - - - - - - - - - - @ @ @ @ @ @ @ # O O O X X X X       . . & & & & & & & & & & & & & & & % O O . & & & & & & & & & . . % . . . $ $ .               $ # 5 6 r r r r r 6 r u b W T T :.:.:.:.4.4.>.>.>.:.:.:.I I W Y Q Y L D h h y t t f f 7 6 y t t t t t t t t t t t t u u i b =.:.>.r.>X<Xr.r % % r G  .2.2.T b b r.6.-.1.b.,XhXDXPXKXHXeX#X.XeXHXyXg.g.z.z.z.X.d.d.`.[.+.+.X.H 9 ; + ; < 8 M K J J K H H S M M 0 0 0 0 0 0 0 q 9 5 4 3 3 3 3 - - @ @ - 3 4 4 - 4 q V J | O.O.O.s.s.f.f.f.x.x.`.).f.f.f.).`.`.`.`.`.`.`.`.`.`.`.`.`.`.`.`.`.|.`.`.`.M.m.m.m.m.M.m.m.h.h.h.m.`.M.|.|.|.|.|.oXoXOX&X*XrXuXjXCXZXDXJXDXPXPXJX[.K G / J J / D D G D G G R U U / ^ R ..^ G U (  . .R G U R R E E  .3. .G G  ...( / 2.2......... . .^ ^ R ( ../ G D G R R / ^ (  . .3... . . .( 2.w.w.2..... .2.3.3.3.2...2.( U U ^ 2._.{.{.w.{.{.w.{.{.{.{.",
"D G G U R / U G G G U U U U U Q ( ( ( ( ( ) 2.2.e.2.2.2.2.;.;.( :.( ~ ~ ;.;.;.;.:.:.;.:.;.;.;.e.r.r.r.y.;Xy.y.;X;Xr.r.r.;X;X}.}.;.~ I I I P I Q P P F F / D 5 # @ @ @ ; ; ; @ @ @ @ @ @ @ @ - - - - - - - - - - - - @ @ @ @ @ @ - # O O O X X X X       . . & & & & & & & & & & & & & & & % # O & & & & & & & & & & & & & & & & . $ .   $             $ % 6 r r r r t r r t u u u u d b b b T T b b b b d k b b b b b k u t r 6 r r r t t t t t t t t t t t t t t t t t u u u i b =.>.6.y.>X>X4.% D 3._.[.-X=X_.:.b =.;X7.-.1.,XIXIXDXHXGX#X#X%X%XtX|.g.N.p.z.z.p.a.X.B.[.B.O.o.+.` K | f.[.-X=X=XCXAXAXAXAXAXCXAXAXAXAXCXAXAXCX=X=X=X-X-X].].].).).O.| | J K S S M 0 0 V K ` | o.o.O.O.O.O.f.f.f.f.).).).).f.f.f.f.B.).`.`.`.`.`.`.`.`.m.`.`.`.`.`.`.`.m.`.`.`.m.m.M.m.m.h.h.m.M.M.`.|.|.|.|.|.oXOX%X*XrXyXCXCXZXDXDXJXJXPXCXE J J G G / J D G D G J R J G R ^ (  .R G /  .(  .^ U R R R E | 3.| R J /  .^ U L ..( ( ( .... .( U ^ E E  .3. .D D G L E ( ....(  . .2.w.3... .2...E E E Y ^  .E ( E E ^ E D D R ..2.3.2.2.2.;.( 2.2.w.w.",
"G G G U R R G h h D U ! U U Q ( ( Q P L P ( ) 2.2.;.;.2.2.;.;.( ;.;.;.;.e.e.;.e.r.e.;.:.~ :.e.r.r.r.r.y.;X;X;X;X;X;X;X;X;X}.r.r.;.( ~ ~ ~ ! I I P Q P F R D 5 O @ @ @ @ ; ; @ @ @ @ @ @ @ - - - < - - - - - < < - - @ @ @ @ @ @ - # O O O X X X         . . & & & & & & & & & & & & & & & & % + . & & & & & & & & & & & & & & & $ . . . . .         X   $ % 6 6 r r r r r r r r t u u d d u u u u u u u u u u u u u t r 6 r r r r r t t t t t r t t t t t t t t t t t t u u u u u b :.>.r.;X;X4.y  .3... .3._.w.4.4.b 6.;X6.-.7.hXIXZXGX*X|.oXXXFXtXg.a.g.a.a.{ a.X.X.| ).[.).).=X=XCXAXAXAXAXAXAXIXIXAXAXAXZXDXAXAXAXAXAXAXDXDXJXJXJXJXJXDXDXZXIXZXZXZXDXIXAXAXAXAXCXhX=X=X-X].].].'.'.).).).).O.O.O.f.f.f.x.x.`.).).`.`.`.`.).`.).`.`.d.h.`.`.`.`.`.`.`.`.`.h.a.d.h.h.h.h.m.m.m.m.M.`.|.|.|.`.|.oX#X*X*XrXjXCXAXZXDXJXJXPXJX).| ^ J D J J G J D G G / R G G R R / G D R / R / ( R / ^  . .E E J E  .....^ E  .( / R R ^ ( ( ( ( ...... .^ ^ E D D D U ^ ....(  .2.3.3.2.....2.E D L U D E ( R ^ E ^ ^ E E E ^ ^ ^ ^ ^ E Y Y Y Q ) 2.2.",
"G G G G R / / R h G / / / ! ! Q Q P F F Y ~ ( ) ;.) ;.;.;.;.:.;.;.;.e.e.r.r.r.r.r.r.e.;.;.t.r.;X}.y.y.y.;X;X;X;X;X;X>Xr.;.~ I v ! ! ! ~ ~ ! v c Q ( ! l F G 7 # @ @ @ @ @ @ @ @ @ @ @ @ @ - - - - - - - < < < < < - - @ ; @ @ @ @ # O O O o X X         . . & & & & & & & & & & & & & & & & % # . . & & & & & & & & & & & & & & % . . . $ . .       X     . % 6 6 6 6 6 r r r r r r r r r r r r t t t r r r r r r r 6 = = r t t t r y f 7 6 r t r r t t t r r r t t t t t u y u b u b :.6.r.4.u Y ^ y y D E 2.2.4.{.:.r.:X:X-.-.{.hXAXCX*X*X%XoX*X#X|.oXM.m.d.} } } f.B.].=XhXAX=XAXAXAXAXAXAXAXAXAXAXAXAXAXAXAXAXAXAXAXAXAXIXZXAXAXAXAXAXAXAXAXAXAXAXZXDXZXIXAXAXAXZXDXJXJXDXDXDXDXDXZXZXAXAXAXAXhX=X-X'.).).f.).x.f.f.f.x.x.f.f.f.f.f.s.f.`.).f.f.f.f.s.s.s.+.d.d.d.d.d.h.h.m.m.m.m.M.`.`.|.`.oXoXOX#X*XrXuXCXAXZXDXDXJXPXLX=X] J J J J J G J G G G / / J G J D R U G U G G ^ / R ^  .| E G G G G G E  ./ R / ^ / R R ^ ) ..) 2.....2...^  .^ R R G D G / ^ / G E ^ R G G G G L G E ^ ^ (  .(  . . . . . ..... .( ^  ...( ( ( ) ) )  .",
"D D D G R / ^ ^ G G U R / U P F F F F F Y Y ( ( ( ( ) ;.;.;.;.;.e.r.r.r.r.r.r.r.r.r.r.r.r.y.;X;X;X}.}.;X;X;X;X}.;X;X;X;.~ I Q Q ~ ! I v c v Q ( _ ~ I c L U h * @ @ @ ; @ @ @ @ @ @ @ @ @ @ @ @ - - - - - - < < < - - @ - - @ @ @ # O + # O X X         . . & & & & & & & & & & & & & & & & % # . . & & & & & & & & & & & & & & & . . . . . . .       X     O > y t r r r r 6 6 t r r 6 6 r t t 6 r t t t r 6 = r r 6 = 6 t t r t 6 t y 7 6 7 t r r r r r r r r r t t t t t t u u k L T W b u u k ( y D D ( 2.w.4.}.6.;X,X:X>.y.<XIXPXKXSXDXSXlX%X&XM.a.' X.+.B.=X*XjXhX=XhXhXhXAXAXhXhXCXAXCXCXCXCXCXAXAXAXAXAXAXAXAXAXAXAXAXAXAXAXAXAXAXAXAXAXAXAXAXAXAXAXAXAXDXZXAXAXAXAXAXZXZXZXZXZXZXDXDXDXZXDXJXKXJXZXCXuX'.'.).O.o.o.O.O.o.| X.o.] X.s.+.X.X.X.X.+.o.X.X.a.a.a.a.a.d.h.f.m.d.d.d.m.`.`.`.oX XoXOX%X*XuXuXCXAXDXJXJXPXLXDXO.K J | / R J R G D G J / J G G G ^ ^ U G G D U D G / G D D D G G J J R R U R ^ / / E R ( ) ) ) ( ) ) ) ) 2.3.^ .... .R G G E ^ E / E R U R U G G Y ^  .( E E ^ E E E E R E ^ ^ ^ E ^ ^ ^ ^ ^ ( ) ( ^ ^ ",
"D G G G G G G D G G D D G F F l h l F F F L Y / ~ ~ ( ( ;.2.4.e.;.r.r.r.}.r.r.;Xr.;X;Xr.y.;X;X;X}.}.y.;X;X;X;X;X;X;Xr.v b v ~ Q ~ ) ) ~ I I ~ ~ _ ~ ~ I l L h = @ @ @ @ @ @ @ @ @ @ @ @ @ @ @ @ @ @ @ - - - - - < - - @ - - @ @ @ # + + @ + O o X         . & & & & & & e e & & & & & & & & % # o . % & & & & & & & & & & . & & & . . . . . . . X     X X   X # 5 6 r r r r r r 6 r r r r r 6 6 t r r = = r r r 7 6 6 6 r u u r u r t t 6 t y 6 r r r r r r r r t t t t t t y y u u u k u b u u W 4.u D L 4.:.4.w.{.r.y.:X:Xu.:X,X<XJXDXSXtXoXm.X.{ } X.B.&XOXuX=X=X=XhX=X=XAXhX=XhXAXAXCXhXhXAXhXCXCXhXhXCXAXCXCXCXAXAXAXAXAXAXCXCXCXCXCXAXAXAXAXAXAXAXAXAXAXAXCXAXAXAXAXZXAXAXCXCXAXZXZXZXZXDXDXDXDXJXJXJXJXKXPXJXhXOXO.| ` ] ] J ` ` K K ` ` K K J ` X.o.X.X.` ` { +.d.h.h.d.m.d.a.a.d.m.`.`.oX|.`.oX#X*XrXuXCXAXAXJXJXPXKXLX=X] K ^ J J G R J D S G J J G G h G D D G R G R D G / J J / J J G D D D G G D G R R E R ^ ) ) ( ( ;.2.2.....3...^ ..O.^ D D R (  .^ E E ^ ( ^ ^  . . .^ E G G ^ ^ ^ ^ ^ E ^  . .E  . .^ E ^ ^ E ^ ( ) ( ",
"G G D h h G G G G F F F F F F F F l l F F F z g I ~ ~ ~ :.;.2.e.e.r.r.r.r.r.r.r.r.r.r.}.}.}.y.y.;Xr.}.;Xy.;X;X}.}.w.( ! ! Q ~ ) ( ) ) ) ( ~ Q I ! ! ~ ! P Q U y # 5 # # + - + @ ; ; - - - - @ @ - - - - - < - - 3 3 < - - @ @ @ @ # + + # @ # + o o X   $ . & & & & & & & & & & & & & & & & . X O $ $ & & & & & & & & & & & & & & . . . . . X   X X X X X       # 5 7 7 6 r r 6 6 r r r r r 6 6 r r r r r r r r r 6 = = r t t t r t t t r 7 r r t t r r r r t t t t t t t u u u y u u u u k y t T Y k D E 2.2.2._.{.{.;X:X:X:X:X,X>X>X).a.p.} } } O.[.&X=X=X=X=X=X=XhX=X=X=XhX=X=X=X=XCXCXhXuXhX=X=X=XuXhXhXhXuXhXuXuXuXhXhXhXhXuXhXhXhXjXjXhXhXCXCXCXCXCXCXCXCXCXCXCXCXCXAXCXCXCXAXAXAXAXAXAXZXZXDXDXDXJXHXHXJXJXPXPXJXDX=X).J J K K K S S J K J J K J ` X.X.X.O.O.s.s.s.d.f.f.f.d.d.a.d.h.M.|.|.|.|.oX#X%XeXrXlXCXZXDXHXKXPXLXJXo.J E J G J J D S G R J G D D G D D D G R / / G J E ^ E K D K S D S D D h f h G R ^ ^ E U E  .2.2.4.;.( ) 2.( / / G D S D R  .( / / ^ ^ ^ ( E ( / E E ^ ^ (  . ./ R E ^ ^ ^ ^ E Y E ( ( E Y ^ ( ) ( Y ",
"D G G G G U U G G F F h h h h F F F F F F F l l v ( ;.e.e.r.r.r.r.r.r.r.r.r.}.}.r.r.r.y.}.y.r.r.r.y.;Xy.y.;Xr.;.) ~ v ! ~ Q ! Q ! ~ ( ~ Q Q ! I ~ ~ ~ Q ! ( ( F @ * 3 @ + ; O @ ; ; - @ - - @ @ - - - - - < - - 3 3 - - - @ @ @ @ # + + # @ # # o o o X $ . . & & & & & e e e e & & & & & & . $ X X . . & & & & & & & & & & & & . . . . $ $ X X X X X X X       O 3 q 7 6 r r r r r r r r r r r r r r r r r r r r 6 = = 7 t r t r t r r r r r r t t r r r r t t t t t t y u u u u y u u u u y t W (  .3._.{._._.4.{.;X;X:X:X:X:X:X>X>XO.{ { X.B.].&X*X=X=X=X=X=X=X-X=X=X=X=X=X=X=X=X=X=X=X=X=X=X=X=X=X=X=XuXuXuXuXuXuXuXuXuXuXuX=X=XuX=XuXuXuXuXuXuXuXuXuXuXuXuXuXuXuXuXuXuXuXuXCXCXCXCXCXCXAXAXAXZXZXDXDXDXDXHXDXJXJXPXPXPXDXAX).| K J J J K S K K K K ` | X.X.+.O.s.s.s.s.d.f.d.d.d.a.d.h.m.`.`.`.|.oXOX%XeXrXjXCXZXDXHXJXPXPXKX].J | K K J G J G J / R J J J G G / ^ / R R R J G J J G S S S S D S D D G D D L R ^ E Y Y ^ ..Y ~ ~ ~ ( ( ( ^ (  .( G f f R ....( ^ ^ ^ (  .) / / ^  .2.2. .^ ^ / R R E R E / R L Y E ^ E E ( .... .( ",
"D D G G G G G G U G F h h h h F F F F l l l l l I ;.e.r.r.r.r.}.r.r.r.r.}.}.r.r.r.r.r.r.r.y.r.r.r.r.u.y.r.;Xr.~ v v v ! Q ~ ~ ~ v P ! P P P I I v v P v l P Q U 5 # 3 @ @ + O @ @ ; ; - - @ @ @ - - - - - - - - - - - - - - @ @ @ # + + @ @ @ # + + o X $ . . & & & & e e e e e & e e & & & . X X X . . & & & & & & & & & & . . . . . $ O O O O O O o X X X       % q 7 7 6 r t r r r r r r r r r r r t t t t r t r 6 = 7 t r t r r r r r r r 6 r r r r r r r t t t t y y u u u y y u u u u y y ( 3.3.w._.]._.}.{.}.;X;X:X:X:X:X:X:X>X .X.a.B.OX&X&X&X-X-X-X-X-X*X=X=X-X=X=X=X=X=X=X=X=X=X=X=XhXuX=X=X=X=XuXuXrX=X=X=X=X=X=X=X=X=X=X=X=XrXrXrXrX=X=X=X=XrXuXuXuXuXuXuXuXuXuXuXuXuXuXuXjXjXCXCXCXAXAXAXZXZXDXDXJXJXJXJXJXJXPXPXKXJX-X| K K S G J K D D D J | X.X.+.O.s.s.s.s.d.f.d.d.d.a.a.d.h.m.M.`.`.|.oX&X*XrXjXlXZXDXDXJXKXPXPXAX| J D S K K K K J J G G R R / / R U G G R R J G D S D S y y S D D D G E R R ^ ^ / L k f D Y L Y I ~ ;.) / ^ ( 2.e...R G R ^ ( ^ ^ ^ E ^ ) ( ^ / E ^  ... .^ ^ ^ ^ ^ ^ E E ^ ^ ^ ^ ^ ( ^ ^ ( .... ...",
"G G D h h F G G G G F F F F F F F F l z z l P P ~ ;.2.;.;.;.;.r.r.r.r.}.}.}.r.r.r.r.r.y.}.y.r.r.u.r.y.y.r.r.r.e.v I v v v P ! ! P P P c c v P P ! ! I P l l P P 7 $ 3 @ - @ + @ @ @ ; @ @ @ @ @ - - @ - - - - - - - - - - - - @ @ @ # # @ @ @ # + + O O $ . . . & & & e e e e e e e e e & & $ X       . & & & & & & & & & & . . O O O O # + + o o o X X X X X X   O 3 7 t 7 r t r r t t t t r r t t t t t t t t t r = = 7 t t r r r r r t t r 6 r r r r r r r t t t t y u u u u t t t u u u y k  .O.| J ^ ..3.{.>X>X;X;X;X;X;Xu.:X:X;X..B.`.`.OX[.].OXOXOXOXOXOX&X-X-X].-X-X=X=X=X=X=X=X=X=X=X=XuXuX=X=X=X=X=X*X=X*X*X*X*X=X=X=X*X*X*X*X*X*X*X*X*X*X=X=X*X*X*X*X*X=X*X*X=XrXrXrXuXuXuXuXuXuXuXjXCXAXAXZXZXZXDXDXHXJXJXJXJXJXPXPXLXLXAXw.J J G D K S D D J ] | X.+.+.O.s.s.s.d.f.f.d.d.d.d.d.d.h.M.`.`.|.oX#X*XrXuXlXCXDXDXHXJXKXKXPX).K K S J K S S G G D G J J R G G G / / R G ^ E J J J J J D E | E G R E U D / E U D f f D Y ~ ( ( ) e.2.E ( ......R D G R / R Y R E E ^ ^ E / E Y Y E ^ ^ ^ G R R E R U G U ^ ^ ^ E E E E R  .( ^ ( ",
"G G G h h G G G F F F F F F F F z F F l l P ! ! ~ ~ ! v l k v ;.r.r.r.r.r.r.r.}.r.y.y.y.r.y.y.y.;Xr.r.}.r.;X}.r.v v v P I ! P l ! P v l c P P c ! ! Q ! I c l P h % * # - @ @ + @ @ ; ; @ - @ @ - - @ @ - - - - @ - - - - - - - @ @ # # @ @ @ @ # # O O O $ . . & & & e e e e e e e e e & & $ X X     $ $ & & & & & & . . . % % + + + + + + o o o o X X o o o O X X @ q 7 7 r r r r t t t t t t t t t t t t t t t r = = 6 t t r r r r r t t r r r r r r r t t t r t t t u u u u t t t u u u k D D ^ K K J |  ._.}.>X>X;Xr.y.y.y.y.;X}...).`.m.`.).`.`.`.`.`.).).s.B.f.f.).).=X=X=X=X=X=X=X*X=X=X=X*X*X*X*X*X*X-X*X*X*X*X*X*X*X*X*X*X*X*X*X*X*X*X*X*X*X*X*X*X*X*X*X*X*X*X*X*X*X*X*XeXrXeXrXrXuXyXpXCXCXCXCXZXZXDXDXDXJXJXJXPXPXPXJXLXLXIX-X| D S G D D D G J | | X.+.+.s.s.s.s.d.f.h.d.d.d.d.d.h.M.M.`.`.oXOX*X*XuXlXCXDXDXDXJXKXJXLXAXJ J K J J K J E J G J / / R G G G R / R G E J J J |  .| E E | E G R / R U ^ / R L D D Y R ~ ( ( 2.e...E ( ( .. .D f G / / R U R E E ^ ( Y L Y E ^ ^ ^ E E ^ ^ ^ ^ ^ / E / R E E E E ^ ^ E ^ E E ^ ",
"G G G F F G G G G F F l h z F F l F P P ! Q ( ~ ! ! v z g d g ! ;.e.r.}.}.}.r.}.}.;X;X;X}.;X;X}.}.;X;X}.;X;Xr.~ Q I I I ! ! ! P ! P P l v P P P P ! ! ! ! P c I U 7 # O @ @ ; + + @ @ @ @ @ @ @ - - @ @ - - - - - - - - - - - - - @ # @ @ @ @ @ # # O + O O $ . . & & & e e e & e e e e & % O o X     $ . % & & & & . . . . % > ; ; + + + + o o o o o o o o + + O O # 5 7 7 7 r r r r t r t t t r r r r t t r t r r = % 6 r r r r r r r t t t t r r r t t t t t r r t t y u u u t t t y u y y y 7 G S K @.| / 3._.}.>X}.r.r.r.>.4.{._.o.s.s.s.s.s.f.f.s.+.+.+.X.X.+.X.X.| O.=X=X-X-XOX*X*X*X*X*X*X*X*X%X#X#X#XOX#X#X#X#X#X#X#X#X#X%X#X#X#X#X#X#X%X%X%X#X#X#X#X#X%X#X#X#X%X%X*X*X*X*X*X*X*X*XeXrXuXuXpXCXCXCXZXZXDXDXDXJXJXJXKXJXLXJXPXLXKX-X .K K G D D G J ] | X.X.+.+.s.s.s.s.f.h.h.d.d.d.d.h.M.M.`.|.oXOX%X*XyXjXCXZXDXDXJXKXJXPXPXO.| J ] J J J / / J E | E / R G D D D G J D D S G E | / J J ^ E J E ^ ^ ^ ^ ^ / E R R E E Q ) ) ) 2.( Y E G  . .R D D U R E Y Y Y E ( ( Y F L E ^ ^ ^ ^ E ^ E U U U U U R E / / ^ ^  .^ E E E E E ",
"D D F F G G F G F F F l h l F F l ! ! ! ! Q ! P l l l v v g g v ~ e.r.r.r.r.}.}.;X;X;X;X;X;X;X;X}.;X;X;X;X}.;.v ~ I c c c l P P ! ! ! P P P ! P ! ~ ! ! ~ ~ Q ( ) F # # @ + - + + + @ @ @ @ @ @ - - @ @ - - - - - - - - - - - - - @ @ @ @ - @ @ # # + + + O X X . & & e e e & & & & e & & $ O o X X     $ $ % & . . . $ # @ > > ; ; ; + ; ; + o + o + + + + + + + O @ 3 6 7 6 6 6 6 r r r r r r r r r r r r r r 6 t 6 = = 6 6 r r r r r r r t t r r t t t t t t t t t t t u u u t y t t u y y t 7 D S K @.@.J .._._.{.{.r.6.:.b ^ ..O.} { } X.X.+.+.+.X.X.X.+.+.a.+.X.X.| O.=X].`.`.`.`.oXOX#X#X#XOXOXOXOXOXOXOXoXoXoXoXXXXXXXXXOXOX+XOXXXXXXXXXXXXXXXXXXXXXOXOX+X+XOXOXOXOX#X#X#X#X#X#X#X#X%X*XeXeXtXuXpXCXCXZXZXZXDXJXJXPXPXLXPXLXLXLXLXLXhX^ J J K G G G J | X.X.+.+.O.s.s.s.d.d.h.h.h.d.d.h.h.m.`.`.oXOX%X*XuXlXCXZXDXDXJXJXKXJXLX=X| ` J J J K J J J J J J D K J J D D S D D D S D J R J G E | ^ R E U D D D D G R E ^ ( ) ( ( ) ( ( ^ E L U R / R D f D R R R ^ E E ( ( ^ Y Y Y E / ^ ^ ^ ( ^ E E / E E E R R R E E E R U U E E E ",
"G G G F G G G G h h F F F F P P F ! ! ! P P l d d g l ! P g d z e.r.r.e.e.r.}.}.;X;X;X;X;X;X;X;X}.;X;X;X;Xr.~ ~ ! c c P I P P ! ! ~ ( Q ! P ! ! ! ~ ! P ~ ~ ~ ) 2.) * * @ + - @ # + @ @ @ @ @ @ - - @ @ - - - - - - - @ @ @ - - - @ @ @ @ - @ @ # # + + + + O X . & & & e e & & & & & & & $ O o X X     X . $ . . . $ . @ - > > ; ; ; ; + ; + + + + + + + + + + + # @ % 5 6 6 6 6 6 6 r r r r r 6 6 r r r 6 r r 6 y t = = = 6 t r r r 6 6 7 t t r r t t t t t t t t r r t y u u t t t t y y y 7 7 D S S J J G ..'._.{.{.:.T i u D J ` H ' ' } ` ` } } } } X.+.+.a.+.X.X.X.f.=X).`.`.`.M.M.`. XoXoX X X|. X XoX X|. X X X X X X X X X X X|.|.|.|.|.|.|.|.|. X X X|.|.|.|. X X X X X XoXoXXXXXOX#X#X*X*XrXtXpXlXCXAXZXDXDXHXJXJXKXLXLXLXLXLXLXLX=XJ J J K G D J | X.X.+.+.O.s.s.s.d.d.d.d.h.d.d.h.h.m.M.`.oXOX%X*XuXyXCXZXDXDXHXJXKXJXPXDX| ` K K K K G J G D G D K S S S S K D S S S f y S D S y S D G G G D f h h D F Y E ^ ^ ^ ( ( ) ~ Y ( ( U U U ^ 3.3.E G U U ^ ..) ( (  .( E Y E E ^ ( E E U U R ^ ^ E U G E R U E E E R R G E ^ E ",
"G F h F G G G ! G z f g G P F P F P F z l ! ! l d g s c ! I ;.2.r.r.;.b v ;.r.;X;X}.}.}.;X;X;X}.;X;X;X;Xr.e.;.) l l l l P ! ! ! ! Q ~ ~ ! ! P P Q v l c ! ;.;.) Q c f $ # @ # - @ @ @ @ @ @ @ - - - @ @ @ @ - - - - - - @ @ @ - - - @ @ @ @ @ - # + O O # @ + X . . & & e e & & & & & & & . O o X X X     X $ $ o O # - - - ; ; + + + ; ; ; + + + + ; @ + + + @ - ; - 4 5 5 5 6 6 r 6 r t r r r 6 6 6 6 r r r r r r r = * , 6 t 6 6 6 7 r r 7 6 t t t t t t t t 6 r t r r t t u y t t t r y y t q f x K @.@.K ..'.w.{...l U y 7 S K K H ' ' ' ' ' ' ` { { { X.X.+.} } } J &XOXB.m.m.m.m.m.M.M.`.|.|.|.|.|.|.|.|.S.S.S.S.S.S.S.|.N.N.N.S.S.S.S.S.h.h.h.h.h.h.N.N.S.S.S.S.S.S.|.S.|.|.|.|.|.|. X XXX@X#XeXeXrXuXpXlXCXGXDXJXJXKXPXPXLXLXLXLXLXLXLX=XJ J K J J S J | X.X.X.+.a.s.f.a.d.d.d.d.d.d.d.m.h.m.`.oXoX&X*XrXyXCXZXZXDXDXJXJXKXKXJX'.K D J S J J G D K K K G D S S S S K K K S D f f f D G G D D G G J R R G / R R  .( Y Y ( ( ) ( ..2.( Y E E E 2.w.2.^  .Y e.2.^ ..( E ) 2./ / ..^ E  .E E ^ E U Y E R U R E R L Y E E D U E / E ",
"G G F h h h x h / ! F l P F l l P ! P l l P ! P ! z z ) e.e.r.r.e.;.v b I :.r.;X;Xr.}.}.r.}.}.}.}.r.;X;Xr.) Q I P P ! ! Q ! ! ! P P P P P v l l v l l c I ( ) ~ ~ ( Q 6 # 3 @ ; @ @ @ @ @ @ - - - - @ @ @ - - - - - - - @ - - - - - - ; - - - - @ + O O # @ + o . . & & e e e e & & & & & $ O X X X       X O X # @ - - - ; ; ; + + + + + + + + + + ; ; + + @ - - - - < 4 3 5 5 6 r 6 6 6 6 6 r r 6 6 6 r r r r r r r = * = 6 6 r 6 6 r r t r r 6 t y y y t t y y 7 = % % % r k y y t t r t y t q Z Z K @.@.K ..[.O.....( F t # < 0 H ' ' H ' ' ' ' ' ' ' ` } { ` ` { } O.=X[.+.d.d.d.d.h.m.m.N.N.N.h.h.N.N.h.h.h.h.h.h.h.h.h.h.h.h.h.h.h.h.h.h.h.h.h.h.g.g.g.h.h.h.h.h.h.h.h.h.S.h.N.h.S.S.S.S.S.|..X@X+X#X%XeXtXpXZXDXDXDXJXKXPXPXLXLXLXLXLXLXJX).K E D K S K | | X.+.+.+.s.s.s.s.d.d.d.d.d.d.h.h.m.M.|.oX#X%XrXyXlXZXZXDXDXJXJXPXPXPX=XE K D J | | E K D K D D D S S S S S K K | .. . .^ / E E G G R / R R ^  ...( ^ ..^ U / ( / Y Y ..2./ Y ..( ^ 2.w.2.^ ^ Y ..2.( 2.2.Q ( ) ( ( ..^ E  .^ L E E Y D L R ^ ^ ^ E E E E E R E / / E ",
"G G G F f f f f U G F h h h s s h F l f s g l P ! v ) r.w.e.r.;.;.v z v ~ ;.r.r.}.r.r.}.r.r.;X;X;Xr.}.}.;.v v v P P P P P l l z l l l l P P l l P P I ! ~ ( ( ~ ~ 2.2.h # * @ # @ @ @ @ @ @ @ - - - - - - - - - - - - - @ - - - - - ; - - - - - @ # O O # @ # + $ . & & e e e e e e e & & % O o X X     X + # O ; - - - - ; ; ; ; + + + + + ; ; + ; ; + + ; - < - < < - 4 4 5 5 5 6 6 6 r r r r 6 r 6 6 r r = = 6 r r = = * = = r r 6 6 r r r 6 t 7 t y y 0 q q 5 % $ $ $ $ * y y t u u r t t 7 a Z Z Z @.@.K o.O.[...! x s x * + + < M H ' ' H H H H ' } } ` ' { p.H ` &X].K f.a.a.a.a.d.d.d.g.g.g.g.g.g.g.h.h.g.g.g.g.g.g.g.g.g.g.g.g.g.g.g.g.g.g.g.g.g.g.g.g.g.g.g.g.h.h.h.h.g.h.g.h.g.h.h.h.h.N.S.S.S. XXXXX*XtXCXGXDXDXJXKXKXPXLXLXLXLXLXLXLXAX .K K S S S J | o.X.+.+.s.s.a.s.s.d.d.d.d.d.h.d.h.M.`.oXOX%XrXuXlXCXZXZXDXDXJXJXJXPXDXO.K S G E | J D K D K D D D D S S S S J O._._.w._.3. .E R R ^  ./ E  ./ ( ^ ^  .^ / ....( ( ( 2.2.( )  .^ E  .w.w.2. .P ) w.2.2.w.( I ) 2.( ( ( ) ..^ L ^  . .E L R ^ E E E ^ ^ E E ^ ^ / E Y ",
"G G G F h h x h h F h h g f s s f h x t 7 s g l v I ;.e.e.e.r.}.r.e.e.e.e.r.}.}.}.r.r.r.r.}.;Xr.r.;.) ) v z v l l l l l l l l l l l l c P P P v P Q Q ~ ( ( ~ Q ~ ;.2.P % @ @ @ @ @ @ @ @ @ @ @ - - - - - - - - - - - - - - - - - @ @ - - - - - - @ O O + # # # $ . % & e e e e e e e e & % O X X X     o @ @ + ; ; - - - ; ; ; ; + + + ; ; ; ; ; ; ; + ; ; < < - < < < 4 5 5 5 5 6 6 6 6 = = = 6 r 6 6 = = = r 6 6 r = = = = = 6 6 6 6 r 7 6 6 7 6 5 q V S 9 + $ $ $ # $ . # * 6 6 t t t r r 6 a Z Z Z Z @.K o.).w.@._ _ x a 7 w # + < 8 m H ' ' ' ' ' ' ' ' ' ' H +.[.-XO.} { p.p.p.p.a.a.p.p.p.g.g.g.g.g.g.g.g.g.g.g.g.g.g.g.g.g.g.g.g.g.g.g.g.g.g.g.g.g.g.g.g.g.g.g.g.h.h.h.g.g.g.g.g.g.g.g.g.h.h.h.h.S.S.S.OX%XyXCXGXDXDXJXKXKXLXLXLXLXLXLXLXLX-XS J K S K K J | X.+.+.+.+.a.a.s.d.d.d.d.d.d.h.h.m.`.|.OX&X*XrXpXCXAXZXZXDXJXJXJXPXKX].K J S K K K S K D D D D K G D S S S G E  . .2.3...E U L U E ^ E R E ^  . .( ..^ / ) ) ) ....2.2.) 2... .^ ^ 2.3. .L l Q w.e.2.e.) ( 2.2.( ( 2.2...Q Y ^ ( E D D U R D D Y E R U U U E E ^ E ",
"h F G F F F z h h G F h l l l F F G l g f z P I ;.;.;.2.r.r.r.}.}.}.;Xr.e.e.r.r.}.}.}.r.}.}.r.;.I z v v z l P z l l l P P ! ~ ( P P P P P v l l l I Q Q ( Q I I Q ( ~ U = # @ @ @ @ @ @ @ @ + + - - < - - - - @ - - - - - - - - @ @ @ @ @ - - - - @ + + # @ @ @ O $ . & & e e e e e e e & & # O X X     o @ ; ; - - - - ; ; ; ; + + ; ; - - - - - ; ; ; ; < < 4 < < < 1 8 8 8 4 5 q 6 6 6 6 6 t 6 6 6 = 6 = = = = = = 6 = = = = = = 6 6 7 7 6 6 * 7 0 V ` X.V o o + + X . $ O O % % 6 y t t 7 6 a Z Z Z Z @.S o.O.0.@.S a @.x 7 o o o @ - < 4 9 M H ' ' H H ' ' | O.-X[.| J { { { { p.p.p.a.p.p.p.p.g.g.g.g.g.g.g.g.g.g.g.g.g.g.g.g.g.g.g.g.g.g.g.g.g.g.g.g.g.g.g.g.g.g.g.g.g.g.g.g.g.g.g.g.g.g.h.h.h.h.h.S.S.S.S.XX%XyXCXGXDXDXJXKXPXPXLXLXLXLXPXLXJXO.J J J K S J | | X.O.O.+.a.a.s.f.d.d.d.d.d.d.h.m.`.|.oX#X*XrXuXCXCXZXZXDXJXDXJXPXPXhXJ | J J K S K K G S D D D G D D G R  .^ /  ...2. .E U E E E / ^ / G / ( ( ( ( / / ( Q ( ) / ^ ( / ^ ^ ) ^ Y ( 3...k j g ~ w.w.2.e.e.e.4.2.2.3.2.( E 2.2.^ L Y ^  .^ R E E R U Y Y G D L E ^ ",
"z F F F G ! G z F G G l F P P ! ! ! P P Q ( ;.;.e.w.e.e.}.r.I I ;.e.r.e.~ v :.e.r.r.}.}.}.r.e.v z v ! v c l P l l l P P P ! ! Q v P P I P P v l c Q Q ~ ) ~ I ~ ~ Q I I t % # @ @ @ @ @ @ @ @ + - - < < - - @ @ @ @ - @ - - - - @ @ @ @ @ - - - - @ # # # @ @ @ O O . & & e e e e e e e e & % $ X X X   X + ; ; 4 < - - ; ; ; ; ; ; ; ; < < < ; ; - ; - < < 4 4 4 < 1 4 8 8 9 0 0 M 0 0 y 7 6 3 6 6 6 6 6 6 = = = = = 6 6 6 6 = % % * = 3 6 5 6 5 S K ' ` X.H 4 o + + o O # # O . % 5 t t t 7 6 a Z x Z K @.S | ).o.@.S w 2 2 @./ S 3 o o O @ # 4 9 M S H K ] X.[.-Xe.S J H ' z.' { z.z.z.z.z.z.p.p.g.g.g.g.g.g.g.g.g.g.g.g.g.g.g.g.g.g.g.g.g.g.g.g.g.g.g.g.g.g.g.g.g.g.g.g.g.g.g.g.g.g.g.g.g.g.g.g.g.h.h.h.h.h.N.|.+X*XpXCXGXSXDXJXKXKXPXLXLXLXLXLXLXAXJ K ` J K J J | | X.O.+.+.s.s.s.d.d.d.d.d.d.d.m.M.`.oXOX%X*XuXjXCXZXZXDXDXDXJXKXKXDXo.J | J K K G J K S D D K G G J R E R E E ^ ..( E Y ( 2.2.^ ( .. .R R ^  .^ U R ( ( / ( ( Y ( ) Y L L E E Y ^ 3.2.L k j F ) e.w.w.2.) 2.2.w.e.2.2.2.2.( Y Y E ( E D U Y G h h D L D h L E ^ ",
"G F F z F P G z z F z x l l P ! P P P Q ) 2.e.e.e.e.e.e.r.e.~ :.;.e.r.e.;.~ :.r.r.r.}.r.r.e.:.v v ! ! v v l z F P I Q Q I v c c P P I Q ~ ~ Q I Q ( ( ( ;.( I ( Q ~ Q ~ l * # @ - - @ @ @ @ @ @ @ - - < < - - @ - - - @ - - - - - - - @ @ - - - - @ + # + @ @ @ + O . & & e e e e e e e e & & $ O O X X X o ; ; < - - ; ; ; ; ; ; ; ; < < < < < < ; - ; < 4 4 4 4 < 4 8 8 9 H ` '.x.o.] ` K 0 5 6 6 6 6 6 6 6 6 = = = = 6 6 6 5 6 6 * * % % 3 5 S K ` ' ' ` H M + o o + @ - % @ # $ % 6 r 6 6 * a Z a Z @.@.S | O.O.| @.a S a 7 @.@.| @.S 0 5 * w @ 5 y R 0.[.-X..J K K ' ' { ' ' ' { z.z.z.z.z.p.p.p.p.p.z.g.g.g.g.g.g.g.g.g.g.g.g.g.g.g.g.g.g.g.g.g.g.p.p.p.g.g.g.g.g.g.g.g.g.g.g.g.g.g.g.g.g.g.g.g.g.g.h.h.h.N.S. X+XeXyXCXZXDXDXJXKXKXPXLXLXLXPXLXKXO.K ` J J J J J | X.O.+.+.+.s.s.s.d.d.d.d.d.d.h.m.`.|.OXOX%XrXuXCXCXZXZXDXDXJXJXKXJX-XJ E J G K K G K K J K K J E E E E R E ^ ..2.3.2. ...2.2.^ ^  . .R ( 3.w...U Y / Y ( ( ( / ) 2.~ Y ^ ^ ) ( ( 2.2.Y j L Y L ) w.2.I L Y ) 2.2.2.w.w.e.2.2.4.3.2.E Y E E R Y E ( ( E / ^ ^ / ",
"F F z h h l F z l F z g z l P ! ! P ! ~ ;.;.2.2.e.e.r.r.}.}.r.r.r.}.}.r.r.r.r.}.r.r.r.r.;.v v v v I v ~ ;.( L ! ~ ( ( ( ~ ~ ~ ~ ~ Q ~ ( ) ) ( Q ( ) ( ~ ) ~ c Y I ( ( ( Q * @ 3 - - - @ @ @ @ @ @ @ - - < - - - - - @ @ - - - - - - - - - - - - - @ @ @ @ @ @ @ @ # . & & e e e e e e e e & & % O O O X X o ; ; ; ; ; ; ; ; ; ; ; ; ; < < < < < < ; ; ; 4 8 4 4 4 < 4 8 8 M ` `.).| M 4 q 9 q 8 6 6 6 6 6 6 6 6 6 = = = 6 6 5 5 y 7 6 3 % * 5 q S K ' ` ` ` J K 4 + X o # # > 5 % # % , 6 6 * * a Z a Z @.@.S | f.| J +.K S * $ $ w q f @...0.0.e.e.e.e.e...z 7 Z H H ' ' ' ' ' ' ' ' { z.z.z.z.z.z.z.p.p.z.g.g.g.g.g.g.g.g.g.g.g.g.g.g.g.g.p.g.p.p.p.g.p.p.g.p.g.g.g.g.g.g.g.g.g.g.g.g.g.g.g.g.g.g.g.g.h.h.h.h.h.N.S.|.XX%XyXzXGXDXDXJXJXPXLXLXLXLXLXPX=XJ | J E J J J | X.X.X.+.+.O.s.s.s.d.d.d.a.d.h.h.m.|.oXOX&X*XuXjXCXZXZXDXDXDXDXPXPXAXJ K J J J K K K G K K K E ^  . . .^ / R E 2._.w..... .^ L F U U G G  .e...F F Y L ^ / ( / ( ~ Y ( ( E ) 2.) ..2...L h L L ) 2.I L Y L Y T ( 2.{.w.w.2.2.e.w...( ..R L G E ( ^ R G / R L D ",
"z F z x f z x 7 x F ! F z z l P I ~ ~ ( w.r.e.e.r.r.}.}.}.}.}.}.r.r.r.r.}.}.r.r.r.}.}.r.r.e.;.( ~ ! ~ ~ ) ) ~ ~ ~ ;.;.;.( ;.( I c I ~ ( ) ) ( Q ( ~ ( ;.( ~ Q I I ~ ( ( ( g * . @ @ @ - @ # # @ @ @ @ < 3 < - @ - - @ + # @ @ - < - @ @ - - - - - - - @ @ @ @ @ + # # $ & e e e e e e e e & & & . # O   o @ + + @ - @ + ; ; ; < < < 1 1 1 1 1 1 < < ; ; 4 8 4 q 4 < 8 9 8 M ` f.` Z N m m N 8 m q 5 5 5 5 5 5 5 5 5 3 3 5 0 8 < @ 4 J K 5 5 q 4 0 K J ] J K ] K 0 X o O O # O # * @ * % 6 3 5 3 f a Z @.@.K K / O.O.@.} K w o # o o $ o O w 3 5 q 0 q 5 3 @ @ # 8 m Z H ' ' ' ' ' ' ' ' ' z.z.z.z.z.z.z.z.z.z.z.g.p.g.g.g.g.g.g.g.g.g.g.g.g.g.z.g.g.g.g.g.g.g.g.p.p.g.g.g.g.g.g.h.h.g.g.g.g.g.g.h.h.h.h.h.h.h.h.h.h.N.S..X%XtXiXCXZXDXDXJXJXPXPXLXLXLXLXJX` | J K @.| ^ J J | o.X.X.+.+.s.s.d.d.d.d.d.d.h.`.`.`.OX#X*XuXjXjXCXZXZXDXDXJXJXPXJX).K J S K K S S D J D G E ^  .^ E E U L Y ( ( E ( 2...U G ^ 3...G U U ^ U h j Y Y ( / ^ ( R / ) ) ( Y ( ..^ U ( 3.R D h U ( 2.L j Y L L j j ( ( Q L 2.w.2.( 2.3.2.^ E E ( ^ U D D U R U G ",
"x f x F z z x f s z G l s s g F ( ;.;.2.r.e.4.e.r.}.}.}.}.}.r.}.r.}.}.}.}.}.}.}.r.}.r.e.;.~ ~ v ~ ~ ~ ~ ~ ! ~ ~ ;.) ~ ~ ( ;.;.( ~ ( ( ( ( ( ( Q ~ ~ ( ;.( Q I c Q ~ Q ~ ) Q y * * @ @ < - @ + + @ @ @ @ - - - ; - - @ + # @ ; - - - @ @ - - - - - - - - @ @ @ @ # @ # $ & e e e e e e e e & & & # % + X O ; - - @ @ + ; ; ; ; < 1 1 1 1 1 1 1 1 < ; ; 4 9 8 < 4 9 4 8 9 m M ' a.' M 8 9 m 8 8 8 0 8 4 8 q 4 4 q q q q 5 q 9 4 < @ 4 o.[.o.K q @ 0 V K ] ] ] ] H M 3 X O O O # O O O @ # 3 3 3 * K Z Z Z @.K J J | | @.} @.9 # o # O O $ o o O O X O # + O O O # ; < 8 m M H H H H ' ' ' ' { z.z.z.z.z.z.z.p.g.g.p.p.z.z.z.g.g.g.g.g.g.g.g.g.z.z.g.g.g.g.g.g.g.g.p.p.g.g.g.g.g.g.g.g.g.g.g.g.g.g.g.g.g.h.h.h.h.h.h.h.N.S..X#XeXtXjXCXZXDXDXJXKXPXPXPXLXLXPX).J J J J / / J J E | X.X.+.+.s.s.d.d.d.d.d.d.d.m.`.`.`.#X*X*XrXjXCXCXZXDXZXJXJXPXPX=XK J K K D G J S K G J R R E R D R Y F L Y Y E  .e...^ ^ (  . .U U G U ^ ^ / / Y Q ) 2.2.) ( ( Y ) ( ( 2.^ L U / E f G U ( 2.2.( L h j k k Y ( ;.( ;.2.( Y ( ;. .L Y ( 2.^ D D R ^ E R R ",
"x s f F F h z F x l F l g g P Q ;.e.w.e.2.2.e.r.r.r.r.r.r.r.r.}.r.r.r.r.}.}.}.r.r.e.~ c k I ~ ~ ~ ~ ~ ~ ~ ~ ( ;.) ~ Q ( ;.;.( ~ Q ~ ~ ~ ( ) ) ) 2.( ( ~ Q ~ ( ( I ;.;.( ( ~ P j 7 * # # @ @ @ # @ # # # @ @ - - - - @ @ # # @ - - - @ @ @ - - - - - - - - @ @ @ # @ # $ & & e e e e e e e & & & > > # X + @ ; - + + + ; ; ; < 1 1 1 1 8 8 8 1 1 4 ; 1 H +.f.f.s.Z 9 8 9 m M H ' H M m m m m 8 8 1 8 4 < < 8 9 8 8 9 9 8 8 9 9 8 8 | [.].[.-X3.% > 0 J E J ] J V V 0 O o + X @ O   O O O # 5 5 3 a a Z @.@.K J @.o.o.` } } Z w   o o o O o o X X o o + # # # @ - ; + ; : 8 m m m M M Z ' ' ' ' ' ' { z.z.z.z.p.z.g.g.z.g.g.g.g.g.g.g.g.g.g.g.z.z.g.g.g.g.g.g.g.g.p.p.g.g.g.g.g.g.g.g.g.g.g.g.g.g.g.g.g.g.g.h.g.g.h.h.N.S. X+X%XeXuXpXCXGXDXDXJXKXPXPXLXLXLXCXJ J J J J J J J J J | X.X.+.+.s.s.f.s.d.d.d.d.d.m.`.`.oX%X*X*XuXjXCXZXZXZXJXJXJXLXJXO.K J E D K D f K J J J G R R U L E ) ( L Y 2._.2.( (  . .^ ^ U ( ........( / ( ) 2.2.( ( ~ ( ( 2.( ~ ^ E R ^ .. .f D h U 2.{.{.Y j F L L ( ( ;.2.( ( ;.2.2.2.;. ...2...^ U L U ^ / ^  .",
"G h h G F h F U G F l l F Q ) ..;.2.2.;.;.e.r.r.r.r.r.r.r.r.r.r.}.r.}.}.r.r.;.~ Q I v ~ ;.;.( Q v v v I ~ ~ Q v I I ~ ) ;.;.( ~ ( ( ) ( ( ( ) ) ( ~ ~ ( ( ~ Q I c ~ ( I L L Y ( Q f * @ @ @ - - @ @ # # # @ @ - - - @ @ # # @ @ - - @ @ @ @ @ @ - - - - - - - - @ @ # O % & e e e e e e & & & & 5 5 # o o o o + ; ; + ; < 1 1 8 1 1 8 8 8 8 1 1 : ; 1 H s.`.OX'.Z 9 8 m m m M M M m 8 8 8 8 8 1 1 8 8 1 1 8 9 9 8 m m 8 4 4 8 4 - q 0 S J O.3.D 6 6 S K K J V V S S > o O O O O X #   O O q 5 < a Z K @.K S S K | | @.J } K 5 O o o o O O + O O + + + + + + + + + + o + ; : < 4 8 9 m M M M M Z H ' ' ' z.z.z.z.z.z.z.z.g.g.g.g.g.g.g.g.g.g.z.p.g.g.g.g.p.p.g.g.p.p.g.g.g.g.g.g.g.g.g.g.g.g.g.g.g.g.g.g.g.g.g.g.g.h.N.S. X@X%X%XrXuXlXCXDXDXJXKXPXKXLXPXLXPXO.J J K G J J J K K ` | o.O.O.+.s.s.s.s.d.d.d.f.h.m.`.`.OX*X*X=XuXCXAXDXZXDXJXJXPXLX=X| K E J D S K S D J R W D D D E L U / ~ ;.2.2.~ L E  .^ E E G D ^  .( ..) ( ( 2.2.) Y Y / ( 2.2.) Y Y Y ^ ..3._.R D f h ( w.w.( L L Y ( 2.2.2.2.( ~ ;.2.( Y F  . .E D G ^  .^ U U / ( ",
"x f f f s s h z z z h l U ( ) 2.( I v ~ ;.r.r.r.r.r.r.r.r.r.r.r.}.r.w.2.;.~ ( ) ~ I c P I I ) e.) ( ( ( ;.;.( T I ~ ( ~ Q ) ;.;.;.;.;.( ~ ( ) ) ) ( ( ( ~ Q I c L c c v ~ ~ ~ ( ;.Q h 7 5 @ @ < # # # # @ @ @ ; @ @ @ @ # # @ @ - - @ @ @ @ @ @ - - - - - - - - @ - # # % & e e e e e e & & & , 5 4 @ o o X   o ; ; + ; 8 8 8 8 8 8 8 8 8 8 1 1 1 1 m ' a.B.`.B.m 8 8 m m m m m N 8 8 1 1 1 1 1 1 : 1 B 8 1 1 8 N m 8 < ; ; + + ; @   @ % % f R y % 3 y S V 0 V S V q o O # X + o # X O + q 5 - 0 M Z @.} | | | | X.} @.} J q # + + o + O O O O + + + + o o + + o o o o o ; ; - ; 1 8 8 m m m M M M M Z ' ' z.z.z.z.z.z.z.g.g.g.g.g.g.g.g.g.g.g.p.p.p.p.p.p.g.p.p.p.g.g.g.g.g.g.g.g.g.g.g.g.g.g.g.g.g.g.g.g.g.g.g.h.S.S. X@X#XeXeXtXlXCXZXDXDXJXPXKXLXKXLXLX-XJ J K K J J J J D K J | o.X.+.O.s.s.s.s.s.f.h.h.h.`.`.oX%X*XrXuXCXCXZXZXDXJXDXJXLXKX].| K J | D J J E  .3.2.E Y E R E ....E ^ ....( E ^ (  ...../ h F G ( e...Y / ..) / Q ( Y Y ( 2.2.( E ^ / R / ..R y D R 2.e.w.^ L L F Y 2.e.e.2.;.;.2.;.( ( Y ( ^ E L U ^ ( ^ R ^ ^ E ",
"7 7 s s y f F h g h F U Q Q ( ) c c T 2.r.w.w.r.r.r.r.r.r.r.}.}.r.2.Q c k v ( 2.( I P I I I ( 2.( ( ( ( ~ ( ( ( ) 2.2.( ~ ( ;.) ) ) ( Q I Q ( ;.;.( ( ~ Q ~ ) ;.( I c Q ;.( Q Q Q Q Q F 7 % # 3 # @ @ @ @ # @ @ @ @ @ @ # # # @ - - @ @ @ @ @ @ - - - - - - - - - - @ # % & & e e e e & & & > 5 5 4 + o o X X + 1 < ; ; 8 8 8 B 8 8 1 8 8 8 1 1 : : 8 ' a.`.oX+.8 8 9 m m m m N m N B 8 8 1 1 1 : 8 8 1 1 m m 1 1 : : + + ; @ + o 3 - # @ $ # # 5 3 5 5 > 5 q V M 0 0 # O @   + o O O + @ q 8 4 K J +.B.[.[.[.[.).[.B.X.| J 5 O + o o o o O + # + + + + + + + + o + + + o o + + + ; - > 4 8 8 m m N 8 N N M H ' ' { z.z.p.z.z.g.p.z.g.p.p.p.p.p.p.p.p.p.p.p.p.p.p.p.p.p.p.g.z.z.g.g.g.g.g.g.g.g.g.g.g.g.g.g.g.g.h.h.S.S. X+X#XeXeXrXpXCXZXDXDXDXKXKXLXKXLXLXAXJ J J J J J J J G K J ] | X.X.O.O.s.s.s.s.d.h.h.d.m.`.oXoX&XrXjXjXCXZXZXZXDXJXJXPXLXJX=X| K ] J J G D J ] ^ Y E  ... .( ) ) 2.2. .....( ^  .2... .( G G ..2.Y Y 2.2.2.2.2.2.) ~ ( ( 2.) / ( ( R U / E t y f F h h G F Y L L ) 2.2.T ( ;.T j L ( ;.) Y E ..2.^ U F ^ ( ^ G ",
"h f h h f F ! G l F U U Y L L I k ( 4.r.r.2.4.r.r.r.r.r.r.r.r.r.2.( v c v P l k I L l L I Y I I ~ ( ) ) ( ) 2.2.2.2.2.) ) ) ( ~ ) ) ( I P I Q Q I I ( ;.( ( ~ ~ ( ~ I I I c c I L I Q Q h 6 @ @ @ @ @ @ @ # # @ @ @ @ @ # + # @ - - - @ @ @ @ - - - - - - - - - @ @ @ @ # & & e & & & & & % 5 5 8 4 + o o X o ; 9 8 ; 1 N m 8 1 B 1 1 8 8 8 1 1 8 8 8 H X.m.`.' 8 8 9 m N 8 N N 8 1 1 8 1 1 1 1 9 Z M 8 m H H 8 ; ; ; ; ; < 3 3 @ # @ 5 K S 3 @ O q y 0 > # 5 q q q q 3 O O O O X O + O 3 0 S K +.O.B.B.+.+.B.).OX-X-X).B.| 5 O o o o o + + # @ o o o o o o o o + + + + + o o o o o + + ; ; ; 4 8 8 1 1 1 1 N N Z H ' ' z.z.z.p.p.p.p.p.p.p.p.p.p.p.p.p.p.p.p.p.p.p.p.p.p.p.p.p.g.g.g.g.g.g.g.g.g.g.g.g.g.g.g.g.h.h.S.S. X@X#XeXeXtXyXlXCXZXDXDXJXJXPXKXLXLXJXO.J J J K K J G G K K J J | | X.o.O.O.s.s.f.d.d.d.h.`.`.`.oX*XrXuXjXCXZXZXZXHXJXKXJXLXKX=Xo.K K K G D G R Y ^  .3.E ^ ( ( ( E ( 2.^ ( E E ( ^ R ^ ( F G ..( L / e.) ) ....) ( / Y ( 2.( Y ..2.^ U R ^ R D h R ( j f D R Y L I ~ ( 2.2.2.Y j Y ( ( L h L ( ..^ Y G E R G D ",
"/ G D h s s h h U F h h h f d d L 2.e.2.4.4.;.4.e.e.e.r.w.e.2.;.Q I c c c c P I l P P l j L P P ! Q ~ ( ( ) ( ~ ) ~ Q ( ) ) ( ~ I Q Q Q ~ ( ( ~ ~ ~ ) ;.( ~ ~ ~ ( ( I l l c I ~ ;.( ! ! F 7 * # @ @ @ # # + # + @ @ @ @ # + # # - - - @ @ @ @ - @ @ - - - - - - @ @ @ @ # % & & & & & & & % 5 8 8 4 + o o X o - m 8 < 1 m m 8 1 B 8 1 1 8 1 1 1 : 8 8 M M H +.Z 4 1 8 N 8 8 m N N 8 8 m m 8 N m Z m 8 8 m M 8 ; 8 8 8 8 4 3 - - @ @ < 4 K J q 3 5 5 0 E D @ # # 3 5 5 q +   @ X O O + X 5 0 | O.O.| S 9 9 S } O.O.`.-X*X=X).0 O + o o + + O O O o + o o + + + + o o o o + + + o O O O o o + ; ; ; ; : : : : : 1 1 N M ' ' ' { z.z.z.p.p.p.p.p.p.p.p.p.p.p.p.p.p.p.p.p.g.p.p.p.p.g.g.g.g.g.g.g.g.g.g.g.g.g.g.g.g.S.S.S.S.|.@X#XeXeXrXyXlXCXCXZXDXDXHXKXKXLXLXKX].J K K H S S D G K K K K J | X.X.+.O.s.s.s.f.d.d.h.d.m.`.`.OX*XuXjXjXZXZXZXDXJXPXJXJXLXLX=XJ K K S G E ^  ...( ^  .^ Y Y ( ( Y ^ ( 2. . .3.^ L ....^  .2...( ( ( Q ) 2.2.) 2.2.Y ( 2.( E 2.2.R h G  ...R D / 3.f f y h F l L I ( 2.;.( Y I ( ( L F ^ ..~ L L / ^ ^ E R ^ ",
"G D h f f s h / ! ! F f f g s t I 2.e.4.2.;.;.:.;.4.;.( T I Q I P P P P U U U P l l l h l F F F F F F F F F F P P U P ! ) 2.( P j g Q ;.;.) ( Q ( ( ~ ( ( Q P Q c Q Q I I I I I Y I c Q ~ f % % # @ @ @ # + O O + @ @ @ @ # + + @ @ @ @ # # # # - - - - @ @ ; - - @ @ O O # $ % & & & , 6 5 8 8 9 - + X X X o < N 8 1 1 8 N N 8 8 1 1 B N 8 1 1 1 8 N N 8 m m m 1 1 8 8 N N N N m 8 B N 1 B m B 1 1 8 9 8 < - > @ + # + O O O o o @ #   # q 0 q # # + 0 J y O # + - 4 4 @ o X o #   o + q K O.` q 0 M Z Z H | | | O.f.].=X=Xo.o X @ O O # O O O + + + + + + + + O O O + + + + + o o o + + + + + ; ; ; ; ; ; ; ; : : 1 8 m M ' ' { p.p.p.p.p.p.g.p.a.a.a.p.g.p.z.p.p.p.p.p.p.p.p.g.g.g.z.p.g.g.g.g.g.g.g.g.g.g.S.h.S.S.S.S..X+X#XeXrXyXpXlXlXCXZXDXKXJXPXPXLXLX=XJ J J S S S G D D K D D K K J | X.X.o.O.s.s.s.d.d.a.h.`.`.`.OX*XlXjXCXCXDXCXJXPXJXJXKXLXPX=XD D D h G ^ ..( ( ( / Y F Y ( ( ( ( 2.2.( ..3.2.2.^ ( ( ) 2.) / Y Y Y 4.w.w.2.( ( ( ( ..( ( 2.2./ L F ( e.^ G R / R G f h F ( ( ~ ;.;.( ( ) ( Y L L L ( ( Y F Y ^ Y Y E E Y ",
"h D D F / ! F D g h h g l L l g ( 2.2.( :.;.;.;.:.:.~ I I Y I v ! P P P ! Q ! U F F F F F F F F l h F F P U / ( P P P ( 2.2.) ~ Q I Q ( ) ) ) Q P Q Q P I ~ ~ Q P I I Y ( ) I j c k j I ( L 7 * 3 @ # @ @ # O # + @ @ @ @ # + # @ @ @ @ # # # @ - - - - ; @ @ @ @ @ + + # # $ $ & & , , 6 q q 8 9 ; + X X X o < N 8 1 1 8 N N 8 1 1 1 8 B 8 1 1 1 8 N N 8 8 8 8 1 1 1 8 8 8 N N 1 8 B B 1 B m 1 8 8 8 ; ; + + + # + + + + + # # < - 4 q 5 @ 0 | J S @ $ q 0 5 @ + # @ @ # O o o X O + O 0 ` O.H 0 Z S K S S H S J | O.).].=X).4 X + o O + O O + + + O O O O + + O O O + + + + + o o + + + + O O + + + + ; ; ; ; ; ; ; : : : 1 8 M H { p.g.p.p.z.a.g.p.z.p.p.g.g.p.p.p.p.p.p.p.p.g.p.p.p.p.p.g.g.g.g.g.g.g.g.g.h.h.h.h.S.S..X@X#X%XeXtXyXpXlXCXGXDXJXJXPXPXLXLXCXJ J J S G D G D S K K S K K K E | | X.X.+.+.s.s.d.a.a.m.`.`.oXOXyXCXZXCXCXuXDXKXJXJXKXKXPXZX .E ..( / ^ / U Y / F / ^ R U U U U 2.2./ ^ ....) E / / ) 2.2.2.( Y 2.2.) Y Y Y ) 2.2.( Y ^ ) / Y ( 2.2.2.^ G R / /  .R L L ( ) ) 2.e.e.2.( ~ Y E ( ....) ( ( ) ( ( Y E E E ",
"F F G F / / G h f h h h P U P F ~ 2.;.~ ~ ~ T T ( ~ L c P Q ! l ! P F F P U U F F F F F F F F F F F F F F F U Q P F U ( ..) ( / ~ ) ) Q I Q ( ) ~ ( ( Q ~ ( ( Q Q ~ I c I Y I I I j k I ( ) h % * # # @ @ # O + + @ @ @ @ # + # @ - - @ @ # # @ @ @ - - ; @ @ @ + + # + # # $ . & & , , 6 q 8 9 8 ; o o o o o < N 8 8 1 8 N N 8 1 1 1 8 8 8 1 1 : 1 N 8 8 8 1 : : < 1 1 8 8 B B 1 N B 1 1 8 8 8 ' Z < X   X + + @ @ @ @ @ @ @ - < < 4 4 < @ 5 S [.).J 0 J ] S 5 + O X o O O O X X + O @ S | | M M S S H Z Z S S H K | O.).-X-XJ O O X o O O O + O O O O O O O O O O O + + + + + o + + + + + + + o o + + + + + + ; ; ; ; ; : : : 1 8 m H ' p.p.g.p.p.p.a.g.g.g.p.g.g.p.p.p.p.p.p.p.{ { p.p.g.g.g.g.p.p.p.g.g.g.g.g.h.h.S.S.S..X+X%X%XeXtXyXlXCXZXDXHXHXKXPXLXLXAX| J J K J D G D S K K K K S S S ` | | X.+.+.+.s.a.a.a.d.m.`.oXoX*XuXZXZXuX=XDXKXHXDXKXHXDXJXx.o.( / F D R ....U F R / R / / R R ^ ^ L U ) 2...R ( ( ( ( ( ( ^ Y 2.e.( Q ( ( 2.e.( ) 2.2.2.Y Y 2.e.....^ G U U U ..^ Y j L Y L I ( ;.;.( Y Y / R / U L E ^ E E ^ E E E / ",
"F U G G G G D D D G h g l F F P Y ( ( L L L v I ~ Y L l P Q Q F F F F F F F F F F l l F F F F F F F F F F F F U Q Q ( ) ) ) ( / I ) ( Y L L Y 2.2.) ) ) ) ( ~ Q P ( ) ( ( ~ T Q ( ~ ~ ~ ~ ) / 7 # % * @ @ @ # O + @ @ @ # # # + @ @ - @ # # # # @ @ @ - ; @ @ @ # # + # # # O . . & , 6 q q 9 m 4 + o o o o + 1 N B 8 1 8 N N B 1 1 1 1 8 1 1 1 1 1 8 8 8 8 1 1 : 1 1 1 1 1 1 1 1 N 8 1 8 8 m Z X.M + o ; ; ; - - - - ; @ @ @ @ + @ @ o # @ @ X @ 5 4 q S S q 4 # O X X o O o X + X X 8 K K S 0 M Z Z Z Z Z K K H S K | f.].-X).- o o o o + O + O O O + + + + + O O O + + + + + o o o + + + + + o o o o O o o o + + ; ; ; ; ; ; : : : 1 N Z ' { p.p.p.p.p.p.p.p.g.g.g.a.p.p.p.p.p.' { p.a.g.g.g.p.p.p.p.g.g.g.g.g.h.h.S.S.S..X@X+X%X*XrXyXlXCXZXZXDXHXKXKXPXLXJXo.J J J J G G D K G K K K S S S J ` | o.X.+.+.O.a.f.d.s.s.f.`.OXOX*XCXZXuX=XDXKXJXDXDXDXDXAXo.| / U F L ^ ..^ F R U U / ^ / R ( ) ( L Y ) 2.) L E 2.2.2.2...( / ~ 2.( ~ ) ) ) ) ) 2.2.w.e...( ( ....2.^ D G U ( ....) L j j f f t j Y Y L G D D D h D U R Y E ( U L Y / ",
"F G G U U h f D h h f f h F F P Y / L j P Y I Q P P P F F P P F F F F F F F F F F F l l F F F F F F F P P P U U Q ( ( Y Q ( ( / L Y P Y ( / Y ~ ~ c c P P P I L l I Y ~ ) ;.( ( I ) 2.( c Y ) ^ 7 * # @ - @ # # + @ @ @ # # # + @ @ - @ # # # # @ @ @ @ ; @ @ @ + + + + @ # O O . % , q q 9 m M 4 o o O o + ; 8 8 N N 8 8 N N B 1 1 1 1 8 1 1 1 1 1 1 8 8 8 8 1 : 1 1 1 1 1 1 B B B B N m m M ' M < o < q 4 @ @ # # # O O O o O o X o - @ X X @ @ @ @ @ - o   # # + O o o o X X + X X M K 0 8 q q 0 M Z Z M S Z S S S K O.).OX].8 O O O X + o O O + + + + + + + O O O + + + + + o + + + + + + O + + + O O O O O o o + + o + + + : : ; ; : ; 1 8 ' ' p.a.p.p.p.g.a.p.a.a.p.p.p.p.p.{ z.a.a.p.p.p.p.p.g.g.g.g.g.h.h.h.h.N.S.S.S..X+X%X%XrXuXlXCXZXGXDXHXKXKXPXLXPX).J J G J G G D G J G D G D S S S J | | X.X.X.+.a.s.f.d.s.s.`.OXOXOX*XCXuXuXDXJXPXCXCXZXDX[.E J 2.( ( ) ( E E ^ U E ^ ^ R D D ^ ..( F L ) 2...E ( ..( / ( ( ) 2.2.e.( ~ ( 2.2.e.2.( ( ..2.2.) Y ..2.e./ f G ( ....2.e.( L F k j f f k G D f f f S D D G G U E E D F L R ",
"G h f h G h f h f h f f h F F F F P F U ) ..Q Y P Q Q P F P U U P F F h h D F U P P F F F F F F F F P U U U U ! l U U F P ( ) Q l L Q 2.2.) ~ ~ ) ~ Q P L ( 2.~ F I Y Y ~ ( ( ( Y ( ( I j I ( ( G = . # 3 @ O @ @ @ @ @ # + # # + @ - ; + # + + # @ @ @ @ @ @ @ + + + # # # + O . % 6 0 m m m M 4 + o o o ; ; 8 B N N B B B B B 1 1 1 B B B 1 1 1 1 1 1 8 8 1 1 1 1 1 1 1 1 B B N N N M M m m M - - < < < - + X X X X X X X X X o   X @ @ X O 3 @ @ # X o O + @ o O O o o X X X X X + M M q 4 q 5 9 M S Z 0 Z M 0 S S M o.).OX-X0 O + O X + X O O + + # # # + + O O O + + + + + o + + + + + + O + + + + + + + + + + + + + + @ ; ; ; ; ; + + + ; 1 N Z { a.d.a.p.a.a.a.a.a.a.a.a.p.z.p.a.p.{ z.z.a.g.g.g.g.g.g.g.h.h.N.N.N.S.S.S.XX#X%XrXtXpXCXCXZXDXDXJXKXPXLXLX].J K K K G K D G J G D K D D D S K J | | X.X.+.s.+.+.f.d.f.d.`.OXoXoX*X=XCXHXKXHXZXZXDXhXE L ^ 2.2.( Y R ..2.2.F R ^ / / R U R ^ ^ Y ( 2.2.) R ) 2...2.e.e.2...2.2.( ~ ( ^ ) 2.) Y Y ) ..( ~ ( ..2.w.^ D G U Q 2.e.e.( U L h D D h D G G f f D S S f f D R R U Y U E ^ ",
"G D f y f f f D h D D D G F D F h G F ! ..) U L / Q / L F F U F F F z z h F G G F F P F F F F P l l F P P P P ! P U U I ~ ) ) Q L I ) 2.) ) ) ) ( Y Y l j Q ) L l ( 2.2.2.;.( Y ~ ~ I c L Q I F ! f * @ @ # O # @ @ @ @ # + + # + @ - ; + + + + # @ @ @ @ @ @ @ + + + + # + + O $ % q m m m m M 8 ; o o o + ; 8 B N N B B B B B 8 1 1 B B B 1 1 B 1 1 1 1 8 1 1 1 1 1 1 1 1 B B N N m m m N 8 : ; 4 - + X X o   X X X X X X X o o o o X X # + X X O O O + + + o O o o o o o o o X X @ S 0 8 8 5 5 0 M Z M 9 Z S 0 Z S M | o.].-XM o + O   # X o o O + + # # + + + + + + + + + + o o o + + + + + + + + + + + # # o o + + + + + # + + + + ; ; - ; ; ; : 8 M ' X.s.a.p.p.p.p.p.j.a.{ { p.p.' ' z.z.p.p.a.g.g.g.g.g.h.h.h.N.N.N.S.S.oX+X%XeXtXyXlXCXZXDXDXJXKXPXPXLX-XK K S K K D D S G D D D D S S S D D J ] | X.+.+.+.+.s.d.d.f.s.h.`.d.`.OXCXDXHXAXZXJXAX{.E T ;.2.2.~ L ( e.2.R U R U / .. .^ E ....( 2.2.^ Y L 2.2.( ( 2...( 2.2.2.;.2.2.( ~ ) Q I ) 2.../ ( ../  .w. .G G l P e.e.e.) ( / D D h D D G G D D D S S f f S D L U E (  . .",
"G G D f f f f D h D D D G G F F D G G F U F F U ( Q U l j F F F F h h F G G G h h F F P F F P U l l l P ! ! ~ ( ! ! ! Q ( ( I l ~ I I I I ( 2.( ) P P I L I ~ F I Q Y ~ ;.;.~ L Y ( Q I ~ Q L Y P U h * $ @ @ O ; ; @ @ + + + # # @ - ; + + + + @ # # # # @ @ @ + + + O + + + O X > q m m m m M 9 ; + + o + + 1 B N N B B B B N B 1 1 B B B B 1 B 1 1 B B 8 1 1 1 1 1 1 1 1 B B N N N B 8 m 9 ; + + o o O X   X X X X X X X X X X o + o O O O O # O O @ @ + + @ # + o o o O o o o   # S 0 5 4 4 4 9 M S 0 9 0 0 Z 8 M S ` ` '.-XS X O O   +   o o o + + + + + + + + + + + + o o o o o + + + + O + + + + + + + + + + + @ + # # # + + + # ; ; + + ; ; ; ; o : Z X.p.X.X.{ { X.X.p.' ' { ' ' ' p.p.p.p.p.p.g.g.g.g.g.g.h.h.N.N.S.S.|.XX#X*XrXyXlXCXCXZXDXHXPXPXPXLX=XJ K S S S S S S D D D D D f f S f S S J | X.+.X.+.s.j.s.d.h.a.j.`.d.x.`.uXZXCXAXZXIX=Xw.4.~ :.( c c ..w.3.^ U ^ E R ^ ^ U G / ..) / ) ..E ( 2.( 2.2.2.2.( / 2.) ) ~ ( ( L L ( ) ) 2.2...2.2.( /  .w.O.R G U ) 2.2.2.) ....G f D G G D D D S S S S S f y 7 y D E ^  .^ ",
"h h h f f f f D F D F G D h D F G F D D F F G F U U F h F F F F F F F G U U F F F G U F l F U / Q F F U Q ( Q ) ~ c ~ ! j c P ) ~ ! I Q ~ ~ ( ( P Y Q I Q ( ~ Y I P ( ~ c Y ~ L ( ( ~ ~ ( ( I c I ( ) U t % $ * # # @ @ + # # O # @ @ + + o O + + # @ @ + + + # + # + # # # + O o ; 4 8 m m m m M < + o o o + 4 8 8 N N B B B N B B B B B B B B B B 1 1 1 1 1 1 1 1 1 1 1 1 1 B B B N 8 m 9 X +       X X X X X         X X X o X X X X o + # + ; ; + + # # # # + + + + + + + + X X + q 0 5 4 5 5 q 0 Z 0 5 0 0 M 0 M S K X.O.OX4 @ o + o X X o o o + + + + + + + # # + + + + + + + + + + + + + o + + + # # + # @ @ o + @ @ - + + + + + + + @ @ - ; - < < @ < 8 K S 8 ; 9 H ` X.H ' ' ' ' z.{ ' ' { p.g.a.a.g.h.h.g.h.h.h.h.N.N.S. X@X%XeXtXpXlXCXZXDXHXKXPXLXLX=XK K S S S D G K D D D f S S f D S S f S J | | X.+.+.s.s.f.d.d.s.s.f.B.'.OX*X*XuXIX<Xr.6.6.:.:.T Y ..2.2.( L  .^ G G E E L E 2.3.( / ..2.) ( 2.~ ) ) ) 2.2.2.) 2.( ( Q Y I Y ( P L / ( / ^ ^ L U ..w. .G U U ( ( ( ( ) 2.^ U R D G G D D D D S S S S S f f f h D R ^ ( ",
"f g h D D D h D F G F G F h D G F F F F F F F h h F F h F F h h F D z F F F h h F G U F F F U / Q F h l ! ( ( ( Q P I P c c I ~ ~ ! I Q ~ Q Q Q Y ~ ( ~ ~ ( ( Q ;.( 2.2.( Y Y ) ( ( Q I Q ( ~ L c Q ) ) ( G 7 . * 3 * @ O O # O # @ @ # + O + + # + + @ + # # # + # # # @ @ # # o + ; 8 m m m m m < o O + o + - 8 8 N N B B B N N B B B B N B B B B 1 1 1 8 1 1 1 1 1 1 1 B B B N B N N 9 <           X X X X X         X X X o X X O O + # @ - @ @ @ @ @ @ @ @ + + + + + + + + X X + q 0 4 4 4 5 q 0 V 9 5 0 0 0 0 M M K | | O.- + X o o X X o o o o o + + + + # # # + + + + + + + + + + + + + + + + + # # # + X + o @ @ @ < @ - ; @ ; - < 4 4 8 4 4 4 - + + - o + + - 9 M S S ' ' ' ' ' ' ' ' z.p.p.g.g.g.g.g.g.g.g.g.g.h.N.N.N.S..X%X%XrXyXzXCXZXDXHXKXPXLXLXhXK K S K S G D D D D D D D S f D D S f S K | | X.X.X.X.j.s.f.a.d.s.d.`.`.`.*XCXDX=X6.5.6.r.6.=.:.( U Q ) Y D R D D D G E ( ....E G F E ( ( ( ) ( 2.2.( ( ~ ( 2.2.~ Y Y Y Y Y ) Y I ) ) Y Y / L  . . .J D D F Q 2.2.( ^ ( ..( ( G G G D D D D S S S S S S f f f G ^ ..2.",
"h h h F G G G G G G G G G D D G F F F U U U F F h F h h h F h F F F F F h h h h z h h F F U U F U P P g g P ! ( ( ~ U ! ~ I ! Q ~ ! I Q ~ Q I I Y / ( ~ ( ( ( Q ) ;.2.( ( ( ~ ) e.e.;.( ( ;.) Y ~ ( ( ~ ..2.F * 3 @ @ @ + O # O + # @ @ # O O + + @ @ @ # # # # # # # # @ @ @ + o X ; 8 m m N m 9 ; o O + + o ; 1 8 8 N B B B N N N N B B B B N B B B 8 8 8 8 1 1 1 1 1 1 B B B B N 8 m 8 +         X X X X X X   X     X X X o X O O # + # ; ; @ @ @ + @ + # # + + # # # # + + o X o 4 q 3 4 4 5 q 0 M 9 5 0 0 0 0 0 0 H | J M # o X o o X X o o o o o o o + + + + + + + + + + o o + + + + + + + o + + # # - 4 4 5 8 q q q q 3 9 8 8 9 0 0 8 4 4 - - - @ o X o   o @ 4 0 M M V { X.{ { z.z.p.p.p.p.g.g.g.g.g.g.g.g.g.g.g.h.h.h.N.S. X+X%XeXtXyXlXCXDXDXKXKXLXLXCXK K S J G G D S S S D D D D f S S S f f S J ` X.X.X.+.s.f.f.f.j.s.s.j.s.`.OX*X=X .T >.>.r.6.=.k Y h U ..E U D R ^ E G E E Y Y G D F E ( ( ) 2.( ) ( / Y Y ( 2.2./ ~ ( ) Y j l L l L Y L / 2.2...E J D S D D / ) ;.~ j L (  .^ G U G h f D D S S S S S D D G G / ..2.) ",
"F F F F G F G U G G G G F F F F F F U Q Q Q Q / F F h F F F h F F F F F F F F F F F F Q ( ..( P U U Q F h l l P / ) U Q ( Q ~ Q I I I I Q Q I I P Q ~ ~ ~ ~ ~ Q ~ ( ( L ( ;.( ) ;.;.;.( ( ( ( ~ ;.;.) Q ( ..( k 3 # O @ @ @ # o O O # # # O O O # @ @ @ # # # # # # # # # # + + o X + 4 m m N m 8 ; o o + + o + ; 1 1 8 8 8 N B N N N B B B B N N B B B B B 8 8 B B 1 1 1 1 B B B N 8 m 8 X         X X X X X X X o   X X X o o O + # # @ @ @ @ @ @ @ @ @ # # # # @ # # + + # + + o X - 5 3 5 5 5 q 0 M 9 5 0 0 9 0 0 0 H | H - + X X O o o o o o o o o o o o O O O O O O O O O o o o o o o o + o o + @ @ ; 8 V H H S K K K H 4 9 9 0 0 0 5 @ o o X X o o X X o + # @ 3 5 q 0 K ` { X.p.p.p.p.g.p.p.p.g.g.h.h.g.g.g.g.g.g.g.h.h.N.N.S.XX#X*XrXtXlXCXDXDXJXKXLXLXAXK S S J K G S D D D D D D D D S S D S S f S K ` | X.X.+.s.s.s.j.s.X.{ +.x.s.] W u T >.>.>.>.=.= 7 * * 7 y G D G / R G / R D Y E U U ^ ) ( ( ( 2.( Y L Y Y Y ( 2.~ ( ~ ( ) ~ ( ~ L F F L ^ ..( / D S V V S D L ( ( Y j U ....^ ^ ( / G D D D D S S D D D D G R ^ ..( Y ",
"F F F F F F F h h h D D D F F F F F P U Q Q ^ Q F h F ^ ) U h h h F F F h h h h h F U Q ( ) ( ! Q P ! Q Q Q j g P ) Q ( ) ~ ~ Q P P v P P P P P Q ( ( ( ~ ~ Q Q ( ( Q ~ ;.( Y 2.;.;.2.2.;.( ~ ( Q ) 2.2.;.) Q l D 6 $ # # @ @ X O O + + + O O O + @ @ % % # O # # # # # # + O X o X o 4 9 m N m 8 ; o o O + o + ; ; < 8 8 8 8 8 8 N B B B B N N N N B B B B B 8 B B B B 1 B B B B N 8 m 1   X X     X X X X X X X X X X X O O + @ @ @ - - - ; @ @ @ - - - - - @ # # # @ # + # + + + X - 4 3 5 5 5 q 0 M 9 5 0 0 9 0 0 0 H | K ; o o o o o o X o o o o o o o o o O O O O O O o o o o o o o o + + o + @ @ + < M J J J J J K J J q 0 0 0 M q - X   O X X X O o X X X # @ < 4 5 0 J { { X.p.p.p.p.p.p.p.p.p.g.h.h.h.g.g.g.g.g.h.h.h.h.N.S.|.+X%XeXrXpXlXZXDXJXKXPXLXAXJ K K J K G D D D D S D D D D D D D G D f f S J ` | X.X.o.o.o.s.o.o.o.| J S V u u b #.#.>.>.>.u & $ $ $ * 7 y D R G D / ^ U E ( / R / ^ / P F ( I L Y 2.2.2.e.( ^ ^ Y Y ) ( / L L L Y Y E L k D D D V V S h D j j f f L ( / Y .... .R G R J G h D D S f y f h U ^ / F ",
"P P F F l h h h h h h h h F F h l F F F U U U P F h F Q ) ! l F F F F F h h h h f l P F l l U Q / h h l P I l l Q 2.2.;.) ~ ~ ! I I I P P P P P ~ ( ( ~ I I I Q ( ) ) ( ( Y L ;.( ~ ( ;.) I L Y Q ( ;.;.;.) ( Y e.G = * @ # @ # + + O O O O O O O # % % % # # # # # # # # + o X o o + - 8 N m m 9 < + O O + + + ; ; : 1 8 8 8 8 8 8 B B B B B N N N B B B B B 8 B B B B 1 1 B B B B N 8 ;           X X X X X X X X X O O O # # @ @ @ @ @ ; ; @ @ @ @ @ @ - - - @ @ @ @ # + + + @ @ O - 3 3 5 5 5 q 0 0 9 5 0 0 9 0 M M S ` ` 5 o o X X X X X X X X X X X X X X o o o o o O o o o o o o o + + + + ; - @ @ 4 S ` J J J K H ` | H 0 0 M 0 8 @ O + O X X o o o o o O @ @ 3 5 q y G X.X.X.p.p.p.p.a.a.p.p.g.g.g.h.g.h.g.g.h.g.h.h.N.N.N.N.S.XX#X*XeXuXlXCXDXHXKXPXLXZX] J K J K D D D D S S f f D h G D D D D D S S S K J ] ] ] ] ] ] ] J K S y y t u u u b #.*.>.>.:.& % * % % % 5 y  ...R G R R E ^ R U / ( ) ( Q 2.) ~ ( ) ( ~ / Y ( ( Y Y ( Y j j Y ^ ( ( E Y Y G R | J S S D G L F k D ^ ) ( / ( ( / G G R R R D D J J D f f h G / / U ",
"P U F l h h F F h h h h F F G F F F F F F F F l F F F F U F F U F F F h F F h h l P P l h h P Q U l h g j P P P ( ) e.2.( ~ I P I I ! I I I I P I I Y I L L I ~ ) 2.2.Y I I c ( ( Y ~ ) 2.2.2.2.( ~ I c L ~ ( ) w.Q f 7 = % @ @ # # O O O # # # % , , , & % $ # # # # # # + O o o + + ; 4 9 m m 8 < ; + + + + + ; ; ; : 1 1 1 1 8 8 N B B B B N N N B B B B B B B B B B B B B B B 1 m 1 o         X X X X X X X X X O O O # @ - @ @ @ @ - - 3 3 < - @ @ @ @ @ @ @ @ @ @ @ @ # # # @ # - 3 3 5 5 q q 7 0 9 5 0 0 9 0 0 M Z J | 0 o o o X X X X X O O X X X X X X o o o o o o o o o o o o + + ; ; @ - - + - 0 K ` J J J J K X.f.J 0 0 0 0 5 # O # O O O O O O + # @ - @ # 4 7 0 f ` { { { p.p.p.a.g.g.g.g.g.g.g.g.h.h.h.h.g.h.h.N.N.N.N.S..X#X%X*XrXyXCXZXDXJXPXLXDX| J K J K D D D D D D D D D f D D D D D D S S 0 y f y y V V V y V y 7 r y y t u u u b b b =.>.6.b % . # $ # 5 5 G ../ G R ^  ./ R R ^ ..2.e.2.e.2...) 2.2.2...( ( / j L 2.2.) ( 2.2.) ( ( ( ) /  .3.| G D D U L F k k Y ( Y L U Y U h D R / R G G R / E J G G G R R Y ",
"z F U U P F F l h F F F G U U G F F F P P P F l h P F h h l F F F h h h h F F F P F l g z F F F U P U P ( 2.Q g l l ) ~ L I P c c v I P P I P L L L P L L L Q ( e.;.( ( ( I c ( 2.( Q ~ ( ;.) ( I I l d k I ( ( ;.I l j y * % # @ # # O $ # # % 6 r r 6 , % . O O . $ O O O X X o + + ; ; 9 m N 8 1 - @ + + + ; ; ; ; ; ; : : : 1 8 N B B 1 B B N N B B B B B B B B B B B B B B N 1 m 1 X X   X   X X X X X X X X X O O # @ @ - @ @ - 3 4 5 q q q 5 4 3 - @ @ @ @ @ @ @ @ @ @ # # - # > 3 3 5 5 5 q q 0 q 5 0 0 9 0 9 M M K | M o O O X X X o o o O o o o o X X X X X o o o o o + + o o + + ; - ; - - @ 4 Z K J ` J J J | ).).K M 0 M M q - # @ @ @ @ + O + # @ @ - @ @ q f y 0 { X.X.p.p.p.a.p.p.a.p.g.g.g.g.g.h.h.h.h.g.h.h.h.h.h.N.S. X+X%X%X*XrXlXZXDXJXPXPXDX` K K J K D S S D D D D D D h S D D D D D f y f f f 0 q 7 0 y y 6 t y y r r u u u u u u b =.*.5.4.t . 3 % # # % 6 f G R ^ ^ E E R U U ^ ..2.2.2...Y L ( ..( Y Y Y L h L ) ^ Y I / Y Y / / Y Y / ..w...J D f G U L h h Y ( Y j L U L h h R ^ ^ / U G J J J J J G U L L ",
"f h F F F U U F F h F F U F F F h F F F F U F F F G G D D D D D h h h h D h l l P l z z z g g x l Q ! Q ( ~ ( ! P ! P l P ! P l P c P ! ( ~ v ! I c l j g c Q Q ~ I Q ;.~ c ( 2.;.;.I j j c Q 2.;.;.( c k c I Y P l g g j f = & . $ $ $ O # % , u r r 6 % % # # O O O O O X X X X + @ ; ; > 8 m 8 8 - + O + # O X X X O + ; ; ; ; 1 N N B B B N N m N N B B B N B B B B B B B 1 B N m ; o X X X X X   X O o X O   X O O @ @ 3 3 4 4 5 5 q 0 y y V V 0 q 5 > % # @ @ @ @ @ @ @ @ @ @ @ @ 3 5 5 5 q 5 0 0 q 5 0 0 q q q 0 0 K } S - X o X X O o O X X X X X X X X o X X o + + + + @ + + + # + + ; ; < < + 0 H K K J | J J o.).).H V 0 S D S 0 4 @ @ # # @ @ @ @ @ @ @ 3 q 0 S S S } X.{ { p.a.p.p.p.p.p.a.a.g.g.g.g.g.g.g.h.h.h.h.N.h.N.S. XXX#X%XeXrXlXCXDXHXKXLXJX] J K K J D D D S D D D D D D h h h D D D D D D J y 5 0 y t t r t t t t t t t r t t t t u b =.:.6.j % 6 5 O @ # 5 | ] E  . .R ..( Y Y ( 2.2.;...) 2.2.( ~ Q ~ ( h F ( / F Q ( ^ F Y Y Y U Y E ^  .e.3.R D D f l U l j j P j c / / L k j Y ( Y Y R E R E ^ R F G G U U ",
"F P U U ! Q Q U F F F F F F F F F Q / ! F h F F F F D D h h l z h h h F l h h h l z z z z g g x F Q F l l F Q ( Q ( ! P ! Q P c P v P P Q ~ P Q Q P l l j c v j ~ Q P Q ~ ( 2.e.) ;.Q k k j c Q ( ( Y j k L Q Q j g j h g f y t * % . . . $ % 6 u r r , % # # # O # # # O O O X O # @ ; ; ; 4 8 8 8 < ; O O O O X X X X + + + + ; < 8 B B B B B N N B B B B B B B B N B B B B B B N m + X X X X     X X o O o X X X # @ 3 4 4 4 5 5 5 q 0 0 y y S S S S y 0 q 3 3 3 @ 3 @ - - @ - @ @ > 3 5 5 5 5 5 0 0 q 5 0 0 5 q q 0 0 H } H - X X X X O X O X X X X X X X X O X X o X o + + o o + @ + + ; > ; < < ; M H J J J J J | O.).f.H V 0 S J K y 0 q 9 8 5 5 4 5 8 9 9 9 9 0 Z S S S ` X.{ { p.p.p.p.p.p.p.p.a.g.g.g.g.g.g.g.g.h.h.h.N.h.N.S. XXX#XeXeXrXlXCXDXHXKXLXJX| J K K K D D D D D D D D D D h h h D D D D D D G 7 3 7 7 7 t r t t t t t t t t t t r r u b b :.4.F % 5 f q O # y E D J E E  ./ U L Y ^ ..2.e.3.) ( ( ) ;.;.2.( ) 2...U U ( / U U ) ( Y ....Y / ^ 3.w. .G D D F Q Q ( ( ) ~ ( 2.) / Y / ) ) / L Y R L G L G h h D G L ",
"F F F F U Q Q U G P U F F F P P ! / ( Q F z F F h h h h h h h z h h F F F l l h z z z z z g x z l ! l l l l ! ~ ( ( ( ! Q Q I P l P ( P l P Q 2.Q P P l j c Q Q ) ;.Y I ( ( ( I P ~ I j c I I I ( ( Q c c Q ( ~ ~ ( ( Q P F P Q L f y 7 6 % % 7 u r r , . O @ # # # # # # + O X O # @ + ; ; ; > 8 8 4 - + o O O X X X O O + O + o ; 1 8 B B B B N B B B B B B B N N N N N N B B B N m + X X X X X   X X   # - O X O @ 3 4 5 5 5 5 5 5 5 q q y y y V S S S S 0 5 * @ @ @ @ < @ @ > @ @ > 3 5 5 5 5 5 q 7 5 5 0 0 5 5 q 0 0 H ] K < X X X X O X X X X X X X X X X X X O O o o ; 4 8 4 - ; + o o + - < < 4 S H J J J J | o.O.O.o.S y 0 S J G f 0 0 0 9 q 9 9 9 9 0 0 0 0 Z Z S S S ` X.{ { p.p.p.a.p.a.a.g.a.g.g.g.g.g.g.g.g.h.h.h.N.h.N.S. X@X#XeXrXrXlXZXDXHXKXLXJXo.J K K G D D D D D D D D D D h h h D D D D D G D 5 % q 6 7 t r t r r r r r r t t r r r t u u L L y $ # S K 5 # 0 S q q y S E ^ ^ ( ..2...2.3.2./ j L ) e.;.e.) ) ) Q D U / F Y D ( ^ j Y ( j F L  .3...D f D F ^ ..2.2.( Y ( ..( Y L E ( Y F j Y ^ L D D D f h D L U ",
"P P F F U Q ( Q U U P U P F F F ! ! U U U U F h h h h h h h h h l F F F F l l h z z z l l z z z z P l l l l P ! Q ( Q P ! ! P P I L l g I ) ( ( Q P L P P ~ ) ( v ~ P I ( ( I g j P ! Y ~ ;.;.) ) ;.) ~ ~ ( ( ( ( ( ~ P g d g l ~ ~ ( Q h = & % r t r 5 $ O @ @ # # # # # + O X O O # + + + ; ; 4 8 8 4 ; + + + O O O O O O O O o + ; 1 8 8 8 B 8 8 8 B B B B B B B N N N N B B N N m + X   X o O   X X   @ 5 - # @ - 3 4 4 3 3 3 3 3 5 5 q 0 y S S f S D D S y 5 3 * # @ @ % % - - - - 3 5 5 5 5 5 0 0 5 5 q 0 5 q q 0 0 S ` J 4 o X X X o   X X X X X X X X X   X o O O + - 8 Z M M M 9 4 - ; - - 4 8 H K K J J K | o. .O.o.S 0 f G J D f y 6 q q 0 0 0 0 0 0 0 0 0 0 0 S S S J | { { p.p.p.a.p.p.a.g.a.g.g.g.g.g.g.g.h.h.h.h.N.h.N.S..X@X%XeXrXuXlXZXDXHXKXLXJXO.K K D D D D D D D D D D D D D D h h D D D D J f * % 5 5 5 q 7 r r r r r r r r r r r r r r r u r % $ $ q S 0 5 5 0 S q S G D  ...2...( E Y ~ 2.2...( ) I L 2.e.) ( ( ( ( ) ) Q L / Y j L L k h G E .. .G f D F Q e.e.2.Y L Y 2.( Y Y ~ ( Y j k T ( Q Y R L f D D G R ",
"F F F F F U Q Q U F F U ! F l F U F F F F U F h h h z z h h h z h l F F l l l l z z z z z z z z l P g z l z F P F P P F P P P P U L l l ( 2.Q L j d g L I ~ Q l v Q c c ~ Q P L P P ! ( ) ;.2.2.;.;.;.~ Q ~ ~ ~ ) ~ U F j j l F I ~ ) ) Q k 6 % = 6 r 6 $ O # + # # # # # + O X X O # # # + + ; - < 4 4 < @ # # O O O + O O X X o o + ; 1 1 8 B 8 1 8 B B B B B B B B N N B B B N N m o X   X o O   o o   @ 5 @ - - < < < - > - @ 3 3 5 q 7 y y q 7 7 7 7 y y 7 f y 6 3 * % * 3 - @ @ - 3 5 5 5 5 5 0 q 5 5 q 0 5 q q 0 0 S J ` 9 + X X X o   X X X X X X X X X X X X o o o + ; 8 8 M H H S q > > > 5 q J J K J J J |  . .O.| y 0 D G G D D y * 3 3 5 5 q q q 9 M M 0 y y y y y J | X.{ p.p.p.p.p.p.p.p.g.g.g.h.g.g.h.h.g.h.h.h.N.h.S.S..X@X%XeXrXuXlXZXDXHXKXLXKX[.S S K K D S D D D D D D D D D D h h h D D D K 0 @ > 5 > 3 3 q 7 7 7 r r 7 7 r r r r r r 6 6 * % % # @ @ 3 5 5 5 0 J J | E G ^  . .Y F L Y Y L Y ( ) 2.) I 2.) Q Y Y P L / 2.Q ) ) L Q 2.( L F F G R  .^ G D l / e.w.e.~ ( ;.) I j L Y Y L j c ( ) ( ) 2.) L D h D G ",
"h l F F F F F F G F F U U F l F F F F F F F F h F F l z h h h z h h l l l l l l z z z z z z z x l P l F ! F l l h l l z l l l P l P ( ~ ( Q j j g L ( ( Q Q ( ( e.;.I l l j P Q P l c I I Q ;.;.;.;.( Q I Q ~ ~ I c g f g h j j ~ Q ~ ( ( ( F t * * 6 3 % $ # $ # # # # @ # O $ O O + # # @ ; - @ - < 4 < - @ @ O + + O O X X X o o o + ; 1 8 8 8 1 8 B B B B B B B B B B B B B N N m + X   o o X   O # O @ - O - - - - - - > 3 @ > 4 5 q 0 y y y f S f f D D h D D f 7 6 * * * @ @ @ - 3 5 5 3 5 5 q q 5 5 q 7 5 0 q 0 0 S K ` 0 # X   X o   X X X X X X X X X o X X o + + + + o o ; 8 9 q 4 ; > > 5 q J J J J J J | | o.3.E 0 0 S G D D F h 6 % % % % % > 4 5 y y y y u u i V J ] X.{ X.p.p.p.p.p.p.g.g.g.d.h.g.g.h.h.g.h.h.h.N.h.S.|.XX+X%XeXrXyXlXZXDXHXKXPXPX].S S G D D S D D D D D D D D D h h h f f f S K 0 > 4 5 3 4 3 3 > 3 5 5 5 5 6 6 7 6 6 6 6 3 3 # 3 % O # # @ 5 4 4 + 0 E | E ^ R ^ ^ L F Y E Y ( / ( ..e.2.Y L 2.) ~ Q Y / ( ) ~ ) ( ~ 2.2.Y T / F f h / ../ f j P 2.e.2.( ;.2.;.~ I ~ ( ~ T ( ( ) ) ( 2.w.2.( G D D G ",
"F F P U U U F F G ! Q U F F F l l F P F l h F F F F F h h h h h h h l l h z z z z z l z z l l z l P P Q ( P l g g l z h z h h L Y F P I ( ~ j f f Y ..( g s P ( ;.( P v P Q ;.2.I I ~ ~ T ( ;.;.;.( ~ I ~ ~ ~ I P c j g d g j F ~ I P I Q Y F h 6 % % % % % % $ # # O # # # O $ O O O + # @ - - @ @ ; < < @ + + O # # + O X X X o o o o + ; 1 8 1 1 1 B B B B B B B B B B B B N N N m + X   o o X X o + # @ # + - - - - - - > 3 @ @ 3 5 7 0 y y y f D f f h h h D D D f 7 * * * * @ @ % * 3 3 * 5 5 q q 5 5 0 7 5 q q 0 M S K ` Z @     X o   X X X X X X X X X o X X O # + + + ; + o + + # ; ; > > q q J ] ` J ` ` ] | ..o.S 0 f D G G D D k y 6 6 = 3 5 6 q 0 r r r u u i i C J ] X.{ X.X.X.p.p.p.p.g.g.g.g.g.g.g.h.h.h.h.h.h.N.N.S.|.XX+X%XeXrXyXlXZXDXHXKXPXPX=XK K G D S D D D D D h h D D D h h f D D S S S 0 4 5 5 4 5 3 @ @ % % % % % 3 3 3 5 5 3 > > % @ @ # o + @ > 4 3 4 X # V D E ^ D U R F D D D D F / 2.e.2.2.( ) ) ) ( Q ( ) ( Y ~ I ~ ;.2.Y j ( / F h D R  . .D F L Q ) ~ ( ) ;.~ I I ~ ~ I I ) ;.;.;.;.2.w.w.2.E G D G ",
"F l F P ! U F F U ) ..! l F F h h F F F F F F F l l h h h h l l h h l l h z g g z l l z z l F l F ! F P P z l l z l l h h g h F j k l l F F k P Y ) 2.2.P j l l l l l Q ( 2.w.2.;.2.e.e.2.e.w.2.~ ~ I ~ ( ( I j c P P l d d l Y P P Y ~ Y g h P y * % * 6 6 5 % # O O O # + O $ O O O O # @ @ < @ # @ ; ; + + + # # # # O X X X o o o o + ; : 1 1 1 1 B B B B B B B B B B B N N N N m + X X o o X X   X # @ @ < - - - - - - - - @ @ 3 5 q 0 y S f h h f f h D D f D G D y 6 * * 3 % % % * * * * 5 5 5 5 5 q 0 0 5 q 5 q M S K ` S -     X o   X X X X X X X X X + O X O O o o + o o + + + + + ; > > 5 q J ] ] J ] ` J J  .| y y G D G L D k k k r r 6 6 6 6 6 7 y u u u i i i i J ] X.{ X.X.X.p.p.p.p.g.g.g.g.h.g.h.h.h.g.h.h.h.N.N.S. XXX+X%XeXrXyXlXZXDXHXKXPXPX=XJ J G S S D D D D D h h D D h f h D D D S S S q > 4 4 4 5 3 3 3 > > % @ @ @ # @ % % % % - - > o + > - @ @ + # + @ % 5 q J f G G L D k k F Y L L ~ ) 2.2.R k P ( ) ) ( U U Q I I ;.2.( Y T ) ( U / ^ R  .2.( Q P P ( T ;.;.;.( ~ ~ ;.( Q ~ ;.2.2.2.2.e.w.w.3.U D h D ",
"F P ! ! F z l P ^ ^ ( ( ^ U U U F F F G F F F F F l l F F F F F F F F F F F P U ( Q P l l l l z z z z z g f g D l P F ! / ! l P D h h g f g L ~ ( 2.( c j j j l k l I ) ;.) ;.2.2.w.w.e.2.( ( e.;.c I ~ ( ) I j l l L l l F Y Y ! c P ( ( F h L D 7 % % * = , 6 , % . . # # + O O O O + O O # @ - @ @ @ @ @ @ @ # @ - - @ + o o o O O O O + + @ ; 4 8 8 8 8 B B 1 1 1 1 B B N N N B m N X X ; X o X X O # - - - - - - - - > 3 3 3 > @ 3 5 7 y y S D D h f k k D k D F D D f 6 % * % * > % 3 3 3 5 5 5 q 5 5 0 0 5 5 q 0 0 S H ` S 4 X   X X   X X X X o o o o o X X o O O + + + o + + + + + + + > % r D D E J J J | K / ..D f D F F F U E E L D r r t u u r r r u u i i u u i i J E ] { X.X.p.X.p.p.p.a.g.g.g.g.g.g.g.h.h.h.h.S.N.N.S. XXX+X%X*XtXyXlXZXDXHXKXKXLXAX] S S D D D G G D D D f f f S f f D D f S D S 4 ; 4 4 4 4 4 4 4 4 4 4 4 4 < < 3 3 4 4 4 4 5 5 5 4 3 3 - @ + @ X @ + 3 q S y h L R D t f U D F h R L E ..L h Y Y / ( ( I P ! ) 2.2.( I ( ( Y G U ^ ..^ R ( 3.) ~ Y Y ( ;.;.( ~ ;.;.( ~ ( ;.;.e.e.e.r.w.w.2.2.L l j D ",
"P U Q / / P F F ^ Q Q / U U P U F F F F F F F F F l l F F l l F F F F F F F P U ! P l z l l l l z z g z h h F F F P F P Q P l U h f f l l j I ( ;.) I d d c P P c I ~ ( ( Y ~ ( w.w.e.;.( Y I ( I ~ w.w.2.w.e.( l j j l L Q ) 2.l l P Q ~ L f y h D y * # % 6 , 6 % % # O O O # O O O + + # # @ - - - @ @ @ @ @ # @ - - @ # + + o O O O O + # @ ; < < 8 8 8 B B 1 1 1 1 B B B B N B N N + X + o X X X + @ - - - - - - - > 3 3 3 3 - * 3 5 q y y S D D k k k k D j D D D F D y * * % % > % 3 3 3 5 5 5 q 5 5 0 0 q q q 0 0 S H ` H 8 X   X X   X X X X o o o o o X X o O O + + # o + + + + + ; ; @ > 6 W W E J ` J ] J |  .G D G F F L U R Y L D y t t t u u u u u u u u u i b W W ] | X.X.X.X.X.p.p.p.a.g.g.g.g.g.g.g.h.h.h.h.S.N.N.S. XXX+X%X*XtXyXCXZXDXHXKXKXLXDX| D D D S D D D D D D f f f f f f f f f D D 0 4 - 4 5 5 4 4 4 4 4 4 4 4 4 4 4 4 5 5 5 5 5 5 5 5 4 4 3 < - @ @ 5 q S q q D S h R  .^ R R G D k k L F Y E h F Y L L U I ! Q Q 2.2.2.) Y Q ~ I R ( ) / L L / ) 2.) ~ Y Y ~ ~ ~ ;.;.;.~ :.;.;.;.;.;.e.r.r.2.( L P j h h ",
"U U U U U F U U U P F F F h h F h h h h F l F F F l l F F l l l F F h h F F F F l l z z z l l z z g g z l h h h l F z l ! P F ! G h l / ( Q ( 2.2.) ~ I I ( ) ( ! ~ ) ) ~ L P ~ 2.;.I j L ~ ~ I ~ ;.r.2.c ( e.2.I c j j j l U ( c P c l l L L j f F D 6 % % 5 * 6 6 6 % # . X + O O + # # # @ @ - - - - - - - - # @ - - - @ @ @ O + + + + + # @ - - - < 8 8 8 1 1 1 1 B B B B B B B N N : X X o X X X o + + @ - - - - - > 3 3 > < @ @ 3 5 q 0 y S S h k k k k D j j j j L L h t * # % > % 5 3 3 5 5 5 q 5 5 0 y q q q 0 0 Z H J K 9 +   X X X   X X X o o o o o O O O O O + + + + + + + + + + # + > , W W J J ] J J J | ^ D G G F F L Y U U L D f t r r u u u u u u u u u W W W W E | X.X.X.X.X.p.p.p.p.a.a.g.g.g.g.g.g.h.h.N.S.S.N.S..XXX+X%XeXyXpXlXZXDXHXKXKXLXJXo.D D D S D D D D D D S S S f f f f f S K K 4 - - 4 4 4 4 4 4 4 4 4 4 4 4 4 5 5 5 5 5 5 5 5 5 5 4 4 3 - - - @ 0 S E 0 q G D f U  .E ^ ^ U ^ R R D y f f f L Y Y P U Q ~ Q P ) 2.e.e.) I I ~ ( R Y U / ( / / ..2.2.( Y Y ( ;.2.;.:.~ :.;.:.:.:.:.;.;.;.~ ~ ;.2.( L h ",
"G F F F F F U U F l F F F h h h h h h h h F P U P F l F F l l F F h z z l F l z l z z z z z z z g d f z l h g f h z g z ! U F U F h l U ~ ~ ( ;.( ~ ( ( I ~ ( Q ~ ( ;.2.) Q ~ ) ;.;.) I c ~ ;.;.~ ( e.e.c j Q I c j j c L F U ( c Q ~ ~ ~ ( Q L L F F f 6 % # # % 5 6 5 > O $ X $ O O + # # @ @ - - - - - - - - @ @ @ - - - @ @ # # # # + + # @ - - - < 1 1 8 1 B 1 1 B B B B B B B N 8 1 o   o o o X X X # - 4 - - - - > > > 3 < @ @ 3 5 q 0 y y y h k f k k k j j j j L L D f 6 % % % % 3 3 3 5 5 5 5 5 5 0 y q q q 0 0 M H J J 0 @ X X X X   X X X o o o o o O O O O O + + + + + + o + + + # + > % V W V D J J J E | J D D G F j h F Y U F h k y t r r u u u u u u b L L L L G R | | X.X.X.X.p.p.p.p.a.g.g.g.g.g.g.g.h.h.N.S.S.S.S..X@X#X%XeXyXpXlXZXDXHXKXKXPXPXO.D K D S D D D D h f h D D f D f f f D J K 3 ; ; - - 3 4 4 4 4 4 4 4 4 4 4 4 4 4 5 5 5 5 8 5 5 4 3 - @ - - - 0 S J 0 0 K G G E 3.G D E ^ ..E ( E E ^ L D L D F F F P Q ! P U I 2._.w.2.) ) ..L F ( 2.~ F F Q ) 2.2.T L ~ ;.;.;.T T :.4.:.:.:.>.e.:.:.:.e.r.2.) Y L ",
"D F U ! U G F F F F F F F F l F F F l h l F U Q Q P F F F l F P F F l l F F F l l l l l l l l z g g h l F l F l z F z l Q ! l F F F F F I ( ) ) 2.) ) ( I ~ ( ~ Q ~ ;.2.;.( ( ;.( ( Y c c ( ) T I c ) e.( P P j g d g l c L I ) ( ( ( ;.2.2.( Q I F F F y * # * % % * 5 5 % # X O O O O + # @ @ - - < 3 3 3 < < - - - - - - - @ # # # # O O # # @ @ - < < < 1 1 1 1 B B B B B B B B 8 8 8 ;   X X X X X O # 3 5 3 3 3 > > > 3 > - - - > 3 5 0 0 y y y f f k k D k j j j h F F D 7 % % % % 3 3 3 5 q 5 5 5 3 0 y q q 0 0 0 M H K ` Z < X   X X   X X X o o o o o O O o O O + + + + + + + ; ; - > + @ % r E r D J J D E ^ G D L U D j j D F F G D L L D j u u u u j j F L L F g f D R | | X.X.X.+.p.p.p.a.a.a.a.a.g.g.g.g.g.h.h.h.S.N.S.S..X+X%XeXyXpXlXZXDXHXKXKXPXLX).K J G D D G D D f f D D G D D D f D J J K 4 - - - - 3 4 4 4 4 4 4 4 4 4 4 < 4 4 5 5 5 8 8 5 4 4 - @ + @ - @ 5 K S 0 0 S J  .^ ).R S | O. .D U U ^ 2. . .^ R R U F h l l g F g F 2.w.w.2.2.( Y ( 2.2.Y L ( ~ ) 2.2.2.( ~ ( ( T c c ~ ;.:.:.e.e.4.:.4.e.e.:.;.2.2.2.",
"F U ! U F G F F F F F F F F F U P F F F F P Q ( Q U F F F F F P F l l l l l l z z l l l F F F P F F l z z h z F P ! F F Q ! l h F U P F P ( ;.) ( I P I I Q ~ Q ~ ~ ( ) ( I L L ( ( Y L Y ( ( I I L c Q ~ ~ ( P P l j l l c Q ( 2.( Y ( 2.2.2.;.) ) ~ j 6 $ . . % $ $ $ @ % # $ O O X O O # @ @ - - - 3 3 3 3 3 - - - - - - - - @ @ @ # O O # # @ @ < - - - < < 1 1 1 1 1 B B B B B 1 8 9 ; X X X X O o X o # @ 5 5 4 3 3 3 3 3 - > - > 3 5 q 0 7 y y f f k k k k j j h h D D D y * % % % 3 3 5 5 q 5 q 5 3 0 0 0 q 0 0 0 M H K ` S 4 o   X X   X X X o o o O O O O o O O + # # + + + ; ; < 4 4 - # % , [ t D R R D R / G D F U F Y U L D h F U F L Y Y D k u k L L L L L L l g U E | | | X.X.X.p.p.p.a.a.a.a.a.g.g.g.g.g.h.h.h.N.N.S.S.@X+X%XeXtXpXlXZXDXHXKXKXPXLX-XK G D G D G G D h f h D G D D D f G E ` J 5 - - < - - < - 4 4 4 4 4 4 4 4 4 4 8 8 8 q 8 8 4 4 > - ; + ; ; # 5 ` 0 0 q 0 | J S ..E E O.).E D D G G E .... ./ ^  .^ / U G F / U U Q ( ( ( ~ Q Y Y Q I I ~ ( P I ) e.w.2.L f k k k v ;.;.:.:.r.4.:.v :.e.;.~ 2.e.e.2.",
"P U F l h F F F F F F h l l F U Y Y Y P L P I Q ! P F F F l F F l l l z z z z g z l l l F P P P U F F F l h l F Q Q F l ! U h z h l l l c I Q ! ! ! ! ~ ( ( ~ ( ~ ( ( ( ~ L j c L ( ( T L k k L T ( Y Y ~ ~ ( ~ ~ P l l P ( ) 2.( ~ ( ;.2.2.;.) P P l k d f y 7 $ $ $ $ # @ # O + O X X O # @ @ @ - - < 3 3 3 3 - - @ @ - - - - @ @ @ # # + # # # # @ @ - - ; ; : 1 1 1 1 1 1 1 B B 1 8 9 8 ; o X o O o X o # - > 3 3 3 3 3 3 3 < > > > > 3 q q q y y y f k k k j j h D D D D D y * % % % 3 3 4 5 q q q 5 3 0 0 0 q q 0 0 M H K ` H 9 +   X X X X X X o o O O O O O O O O + + # + + + ; ; - 4 4 ; # > & E u D E R G E R F F j Y Y Q / Y F D F U f j L L L F D F F F F L L Y L L U R | | | X.X.X.p.p.p.p.a.a.g.a.g.g.g.g.g.h.h.h.N.N.S.S..X+X%X*XtXyXlXCXDXDXJXKXPXPX=XK G D G D G G G D D D D G D D f S G E | ` S 8 - - - ; - @ 4 4 4 4 5 5 5 4 8 8 8 8 8 8 5 4 4 - - ; ; ; ; ; ; 0 H q 5 4 4 K 0 q E J |  .3.J G R .. . .).3.E S D R ^  . . ...( ..2.( L P Y L ( Q L l l L L j j j Y ..2.^ k t t y k ~ 2.2.:.4.e.4.:.T ( ;.e.;.( ( ( T ",
"l l l l F F F l F F F F F F F U Y Y Y U P P P I P F l F F l l l l l l l z g z z l l l l F P P P F P ! ( ( ( ~ ~ ( Q h g F P l l l l l P P P v v P ~ Q Q Q v c ~ ~ ( ) ;.) ( ( ) I I j I 2.;.T ( ) 2.Y L L j Y ) ~ v g g l Q ~ Q ( ) ;.( I Q ( ;.2.( Y Y ( E F f # % % % @ @ @ @ # O X X O # @ @ @ @ - < 3 3 3 3 @ @ # + @ - - @ @ @ @ @ + + + # # # + @ - - ; ; ; ; : 1 1 1 1 1 B 1 1 1 m 9 < o X X X X O - q M # @ % 3 5 5 5 3 < > > > > 3 5 q q y y f f k k k j j k D D D D D 0 % % % > 4 3 3 4 5 q q 5 3 0 y 0 q q 0 0 M H K ` H 0 @ X X X X X X X o o O O O O O O O O + + # + ; ; ; ; @ + # + + % & W u y ^ G G E R U Y L ~ ( Y L F j D D h j k j L Y L l h h h F F F F j j G J ] ] ] X.X.X.p.p.p.p.a.a.a.g.g.g.g.g.g.h.h.h.N.h.S.S..X@X%XeXtXyXlXCXDXDXJXKXLXPXAXK G D J G D D G D D D D G f f f f G E | | | M 4 3 - ; - < - - 3 4 5 8 5 4 8 8 8 8 8 5 4 4 - ; + + ; ; ; + 4 S q - > - # M S S E J | K | J G R 3.| R _._...D S y y f D G ^ ^ ..2.....e.2.~ ) ( ) ;.) ~ ( ) ( ( ( ~ Y F L R h f f Y ;.;.4.r.:.~ ~ :.2.e.;.~ c ~ ;.2.",
"F F F F F F F F F F P F F F P P c L I Y Y I L l P P P P P l g g l P P c j j L P l l j j j j l F h h F Y ^ ( 2.2.( F g g F P P F l l P P l l v l c P I I c j c Q ) ( Q ( 2.) ~ ( P l I ) ) I P ~ ) ( ~ c P I P ~ v l P c g Y 2...( Q ~ Q ( ~ ~ I ..e.e.) Q I I P 7 * # 3 > @ @ @ @ @ + # # # + @ @ @ @ - 3 3 < - @ O + @ @ @ @ @ @ @ @ @ @ # # # O # # # @ @ @ - + ; ; ; : 1 1 1 8 8 1 1 N N 8 : X   o o X O 0 ` S 5 O O - 5 5 5 > - > 3 - - 3 5 q 0 y f f f k D D D D D G U G D 5 % # % 3 3 3 3 4 5 5 5 3 4 0 0 q 0 0 0 0 M H H J K M < X X X   X X X o o o o o o o X X o + # # @ @ @ @ @ @ # # + # $ & W u D E D L R E Y Y I I ~ Y j k d k j F F F F F F h h h F F h h F L f y f f D E | X.X.X.p.p.p.a.a.g.g.g.g.g.g.h.h.h.h.N.N.S.N.S. XXX%X*XrXuXlXCXZXDXDXJXPXKXJX| S D S G G G G D h D D D G G h f D J | | | ` H q ; ; - 3 - - 4 4 4 4 4 5 4 4 4 4 4 < - - - @ + + + @ ; - q 5 3 - @ @ 3 5 Z 0 H V 3 V ] S S | .. .J 3._.3.J S y f S S y y D / ..2.2.e.e.2.2...2.e.e.2.) ) 2.2.Y ~ 2.2.2.3.^ F d k ( e.e.;.:.:.;.4.;.~ I ~ ;.~ I I ",
"F l h l l F F l F F P F F F F P P c L Q ( ) ( Q P P P P F l l F P I I L j j j j L c l h d d f h h F U / Y U U Y F F h g F Q ) ) ( Q Q ! U U P l v P I Q I I ~ ;.) Q c I ) Q c L Q ( ;.) Y j l Q Q c P Q ( ( I Q I Q ( ( ( ) ) / j k c Q 2.) ( P U Q U L P I I P g 7 % # % - @ @ - ; @ # # # + + @ @ - - < < - - @ o O @ + @ @ # # @ @ @ @ @ # # O O # # # # # @ + + + ; ; ; ; : 1 1 1 1 8 N 8 8 + X o o o + 4 M q - X X # @ 3 5 3 - - > - - > 4 q q 0 y y f k D D D D D D G D D 5 % # @ * 3 3 3 4 5 5 5 3 3 0 0 q 0 0 0 0 M H H J J S 4 o X X   X X X o o o o o o o X o O # # # + + @ @ + + # # + # . % W y D E E R R ~ ~ ~ I L Y I P L j h k j U U F h f h h h F h h g l F d k D D G E | X.X.X.p.p.p.p.a.g.g.g.g.g.g.h.h.h.h.h.N.S.N.S.|.XX%X%XrXuXlXCXZXDXDXJXLXPXLXo.S D f D S D D D D D G G / J G D D K ^ o.| o.| J S 0 3 O ; ; 4 4 4 4 4 3 4 4 4 - ; + + o o @ - @ @ - 4 4 4 - @ @ # # # @ 5 4 0 q 3 0 J S J S E | E  . .o.J S y V S V y S y f h G ..w.2.Y ..2.2.) ( ) 2.( ( 2.2.2.2.2.3.3.( U h t j I Q I c ~ ;.:.I v ~ ;.T v j c ",
"l l h h l F F l F F F F F F P P P P L I Q ~ I L Q ! P P l l F P Q Q ! P P L l j j l c F F P Q ) / Y U P F h h F l F F l U ( ..( ) Q Q ( ( Q ! ! c v P I I I ~ ) ~ I j c I c k c P ) 2.( L l P ~ ( ( 2.2.~ I L g 2.e.2.( ~ ~ Q I c k j P ) Q U l U l h h P ( ) ) ( F 7 % % 3 - - - - - - @ @ @ @ - - @ - - - - - @ o O # # # @ + # # @ @ @ @ @ @ O O # O + + + + O + + + + ; ; ; ; ; : 1 1 8 8 8 < @ o o O + @ - @ O X X O + > 5 3 > - - - - - 3 5 q q y y y f k D D D D D D f y 3 % # @ % % * 3 4 5 5 5 3 3 0 0 0 0 0 0 0 M H H ` ` H 8 + X X X X X X o O O O O o o o O # @ @ # + + + + # + + + + + # , W u k Y Y L F L T ( I j L Y Q Y L l j F U U F f f h F h h h h g h F g D k h G E | X.X.X.p.p.p.p.a.a.g.g.g.g.g.g.g.h.h.h.S.N.N.S.|.XX%X%XrXrXpXCXZXDXDXJXPXLXLX).S S S S S S f f D D D D D G G R G D J | | o.o.o.| ` H 0 8 8 4 4 4 4 5 5 > - ; ; ; ; ; ; - - @ O + - 4 4 3 - @ - - - - - - - 4 5 3 0 S V S y | J J  .E E G S S S V y V S y y y y G ..2.) e.e.2.) ) e.e.;.L ) ) ( ( ^  .(  ./ F f f F c j l I Q v v ~ ;.;.T I I I ",
"F l l l F F F F l F F F F F P P l P I I I Y ~ ~ Q ! ! P P F P ! ! ! P P ! Q ! P l L L l F P Q ~ ( / P l h j U / h h h l U Q F g g d l P F l l P v l l l l l c I Q I c c c l P Q P ( ) ~ c l l l c ( e.2.I ( ~ j / 2.e.) ( P l c ( I Q I I k k k F h g h F / 2.e.e.( h 7 % % 3 - - - - - - - - @ - - @ @ - - - - @ o o # + # @ + O # # @ @ @ @ @ # # # # # + + + O O + + + + + + o ; ; ; ; ; - < 4 < + X X + O X X X o O O O @ 4 4 3 - - - - - > 3 5 q 7 y y y y f f f f f f y 7 3 @ # @ % % * * 4 5 5 5 > 3 0 0 q 0 0 0 0 M H H J ` H q +     X X X X o O O O O o o O + @ @ @ # + # + + # @ @ @ ; + % 6 D u D Y L j k j Y Y c k l L I I P F L U F F F F F F F F z h h g h F k L f h G R | o.X.X.p.p.p.p.a.a.g.g.g.g.g.g.g.h.h.h.N.N.N.S.|.XX#X%XeXrXyXlXCXDXDXJXKXPXLX].S K K D D D f f D D S S f h G R R J J J | | | o.o.O.O.o.` K S 0 q 4 3 - > - - - ; ; ; ; @ @ @ ; 8 M 9 - - # + # @ @ @ @ - - - 3 3 5 q q q 0 J J E J J J S S V S V V V S S S f y y G ..[.e.( / ..e.2.;.Q ~ ( Y Y Y Y / E  ./ D f f h h g l l l c T ;.( I I T ~ ( ",
"F F F F F P P F P P P P P P P ! ! Q Q I P U Q ~ l F P P P P P ! l l l l P Q Q P P P v l l L P L / P F F L U U Y U F P Q ) ) ( ^ F g g l z g g g l l z z g g j l v P P c c I Q Y l L I P l j l l g c ) ( ~ 2.2.j f ~ ( Y ~ I v ( ) ( ) ~ I f f f g f f h F U ) 2.e.I U G 6 # 3 @ - - < 3 3 3 3 3 < - @ @ @ - - @ @ o o + + # @ + + + + @ @ @ @ @ # # # # + + O O O O + + + + # # + o + ; ; ; ; ; < < @ + O O O X X O O # # # @ - 4 3 > - - - - - > 3 5 5 7 0 y y y f f y f f y 6 % @ # @ % % % * 5 5 5 5 > 3 0 0 q 0 0 0 0 M S H J J H 0 -     X X X X o O O O O o O O # @ @ @ # @ + + + + @ ; ; + O % r D k Y ~ Y L L Y ~ Y L j L L P Y P L L F h h F U U F F F h h h g h l h L L L G G E X.X.X.p.p.p.a.a.a.j.j.d.g.g.g.h.h.h.h.N.N.N.S.S..X+X%XeXrXyXlXCXZXDXHXKXPXLX=XK J J E G D f S D S D D G G G G G R E J ^ | o.o.o.O.O.O.f.f.O.O.X.| ` K S S M 0 q 4 - ; < - + + 4 0 0 4 ; @ @ @ @ + + + - @ @ - - ; @ > 3 5 0 J | S S S M M M S S S S S S y y f y f ^ _.e.( ( e.w.e.( I ;.;.Y Y Y L Y Y 2...R f y f f h f g l L Y T I c I ~ ( ( ",
"F F l l F F F l P P P P P P U ! ) ( Q P P I P l l l F P F l z l l l l l l P P F c P P v P Q Q I U F h F P U P L l h h F U U ( 2.e.( P P F l g s z g g g g g z c l j j l c Y I g g j l l l l P ~ L c ( ) ( ) Y j F Y j j Q I I ) 2.( ( P L f f f h f f h U ! U U ) P ( ) f * 3 @ - - - < 3 3 3 3 < - - @ - - - @ @ o O # # # @ # O + # @ @ @ @ @ # # # O + + O o O O o O O O O O # + + + + + + + + @ - - @ # O X o O # @ ; @ # # 3 3 3 > - - - - > > 5 5 5 7 7 0 0 y y y y f 0 5 % @ # @ % % % 3 5 q 5 5 > 3 0 0 q 0 0 0 0 M S H K J K M 4 X   o X X o O O O O O O O + # @ @ @ # @ @ @ @ @ @ ; ; O X % u D u F L L L P ~ ~ Y Y Y I P P Y Y F j f h g h P U F h F l h h h j h f j R U D f D ] X.X.p.p.p.a.a.j.j.j.d.d.g.g.h.h.h.h.h.h.h.N.S. X+X#X*XeXuXlXCXZXDXDXKXPXLX=XS S J J G S f f S f S D G / ^ / G G G G K J | | | o.o.O.o.X.O.O.f.x.f.f.x.f.f.O.o.X.| ` H H M 5 3 4 > + + + @ - - @ @ ; - @ @ - - ; ; - @ 5 4 K | S Z q q 0 0 0 M Z M M M 0 V S y y R w._.w.e.e.2.2.;.;.e.e.2.2.2.( ( ) ) ..../ D f f h g f h L I L L I T ~ ) ( ",
"F l l l l l l l l l l l l v P P ~ Q I P Q ( ~ P P F F P l z g g l P P F F P P l v P P l c P P L U F k h F F F F F l h l F P / ..2.( P l F P l s g g g z z g l v v g z v L P P l P I P c j l c L l l ~ ( ~ Q Y ( L L L ~ ) I g l ;.) ) Y P k k d d s t g F U j f ( ( ) ) U t 5 * < - - - - < < < < - - - - - - - ; O O # # # @ # O O # @ @ @ @ @ @ # # # # # + O o o o O O O O O # + + + + + O O o o + @ @ # O X o + # @ ; ; @ # - 3 4 > - - - - > > > 3 5 5 7 7 7 0 y 0 y f 7 5 % @ # % % % * 3 5 5 5 5 > > 0 0 q 0 0 0 0 0 S H K K K S 8 O X O X o O O O O O O + + + # @ @ @ # + + @ @ @ @ @ @ O $ 3 D D u j k j j j L Y I Y ~ Y Y Y Y Y L j f h h h F F F F F F j l l F h s h G G h f S ] o.j.p.p.p.a.a.a.a.j.g.g.g.g.g.h.h.h.h.h.h.N.M.|.XX+X%X*XtXpXCXZXDXDXHXKXLXCXS S S J J S S S V 0 0 f f G ^ / G h f f f D G J J ] | o.O.O.O.O.O.f.f.f.O.O.O.O.O.O.O.O.X.O.O.X.` S q > 4 - + # + + + + ; + @ - ; - 3 - @ q 4 M K S 0 3 5 5 5 q 0 0 0 0 0 0 f f 0 y R e.w.w.2.( I ~ ;.;.~ ;.) ( ( L L Y l Q (  .R D f f h f d l Y P P P Y Y T Y ",
"F l l l l l l l z z l z l l l P v P P l l P F h P F F P P P P P l P ! P P P P F c P P c c I Q Q F h k h l h h h h h g h l P U F P P U P P P ! l z z l l z z l P ~ P I ~ P c ~ ..l L l j l P l d l l l j P ( / ( c j L ( ( L j P ~ ;.e.2.) L L k s s s g F U U F ) 2.) U U f * 3 < - - @ @ - < < - - - - - - - - - + + + # @ @ @ O + + @ @ @ @ @ @ @ # # @ @ # + + + o + + + O O O O + # + O O + + X X o # + o X o + + @ ; - ; + @ > 4 3 - - - @ - > % % 3 5 5 5 7 7 0 7 0 y 7 3 @ @ # % % % 3 3 3 5 5 5 > > 0 0 q 0 0 0 0 0 M H H K K H q # X O o O O O O O O o # + + # + @ + # + + @ @ @ @ @ + $ . 6 R W D L j c j g c L Y Y Y I P L L P L F F g h F F F U U F P F F F P l s f f G F h D ] X.X.X.p.p.p.a.a.a.a.g.g.d.g.g.g.h.h.h.h.h.h.N.|.XX+X%X*XrXpXCXZXDXDXHXJXLXAXK S S K J G S K S y f S f D G G F f f D f D D G K K J J | | o.O.O.O.O.O.f.f.f.O.O.O.O.O.O.o.o.O.O.O.o.| K Z 5 - @ @ ; - - + @ ; + # - @ @ 3 < M S 0 - q 5 5 5 5 q 0 0 0 q q 0 0 0 D R  .w.w.w.2.;.;.;.;.;.2.( ~ ( ( ( ~ ~ Q / / E R D h f f f h F F F F Y Y Y Y ",
"F F F F l l h h h h h z h l l P l l l l l l l l l l l l l F v l l P F l P P l F P P ! Q I I P l l j L g U Q I j h F l f g P P h l P ) ) l g F P P ! P l l z g l I ( ;.( P c ~ ) ~ Q I l l P l L ) 2.;.I l c P P P P Q ~ Q l ~ c L ~ 2.e.2.( g g g s f f t F ( 2.( ) 2.) Y h t 6 # < - ; ; < < # - - @ @ - - - - @ + O O # @ @ @ + o X + @ # @ @ @ @ @ @ @ @ # # o + + + + O O O O O + # # # # + # # O O o X X X   X + ; - - ; @ # @ @ - - - - - @ @ @ @ 3 * 3 5 5 7 7 q 0 0 q 3 @ @ @ @ % % * 3 5 q q q > 3 0 S 0 q q 9 9 0 M S H K K H M ; X o X o O O O O O O # + + + # # # # # @ + + - - + O . $ y E ( ( Y ( Y j j L j k c Y l k k F L L L L h g h F U U L F F F L U F h h j D h h D D D ] o.X.X.p.p.a.a.a.g.a.g.g.g.d.g.g.g.g.h.S.N.N.S. X@X%X*XrXyXlXZXDXDXDXKXPXJX` 0 S S K K K S S f f f f D G G D f f f f f f D D D D D D D K J E E E | | | | J J K K K K K J ] | o.o.o.o.o.] H 9 8 - ; - @ + @ + + # @ @ @ @ 3 4 5 5 4 4 4 4 5 5 q q q q q 0 S D E  .R 2.2.w.2.2.;.e.e.2.~ c ~ 2.2.2.) ..( ( ( ( ......h g t f h h F F L L L P ",
"l l F F l h l l g h l l l l l l P ! P l l l l ! P ! ! P P P P P F P F l F F F P v P ! ~ Q ! ! P P P ( Q ( I F h h l F F P P F h P ( e.2.P h U / P ( ( ! l g d g c ! ~ P j j L I c ~ ( P l L j l 2.) ( ( ( P l L I Q ~ ;.2.L I I L I 2.2.2.( l g f h U ! h h U Q Y P P Q 2.2./ f * 3 < < < @ # # - @ @ @ - - - - @ # O O # @ @ @ # o X O @ @ @ @ @ @ @ @ @ @ + # + + + O O O O O X O O + # # # # # # O O O O O O X X O + # ; # # + # @ - - @ - @ @ @ @ @ @ * * 3 5 5 q q q 0 5 % @ # @ @ % % * 3 5 q q q > 3 V S q q 0 0 0 0 M S H K K H M > o + X o O O O O O O + + + + # # # # O @ @ ; - ; # @ . % D E ( ( I I Y L L Y Y Y L j j h j F L F F F F h h F F F F F F F F F F k h F f f h h D S E X.X.X.p.p.a.a.a.a.a.a.g.g.g.g.g.g.g.h.h.S.N.S. X@X#X%XrXyXlXCXDXDXDXKXLXKXO.M Z S V S S S S y 0 y f S D D D D f f h D D D D D D S f f S D D S S D S S S S S S S 0 0 0 0 y S K J ] | o.O.O.X.J M 8 o + ; 3 - @ # @ @ @ - < 3 4 4 4 @ - 3 4 5 q 0 0 0 0 S S 0 D E ^ ) ..2.;.e.w.e.;.~ ~ Q ) w.}.{.) 2.( ) 2.2...2.w.e.( h y f D U F P Y Y Y ",
"l l F l l h l l F h h h g g g g l P P l l P P ! P ! ! P P P P l F P l l F P P ~ P ! ~ Q P P ( 2.2.Q Q L L f d j h h l P P F l l F P Q Q P U Q U l ( ) Q P v c l g l c j g g l c j ! ~ l g L l L ~ 2.2.( ~ I l c P P Q ) 2.P P ( Y L ( 2.) ~ P j g h ( ) U l F P j k d j ~ 2.( F 7 * @ < < @ + @ - @ @ @ - - - - @ @ + + # @ @ @ @ O X O # @ @ @ # # @ @ @ @ @ @ + + # + O O O O X X O O O + # # # # # # + O O + O X X o + # # + O + @ - 3 @ @ @ @ @ @ @ @ 3 * * * 5 5 5 q q 5 @ @ # @ % % % * 3 5 q 5 5 > 3 V S q q 0 0 0 0 M S H K K H M 4 + + o o O O O O O O + + + + + + + + O @ @ ; ; # o O % y U Y ( ( L L L L Y ~ T Q Y L h h j L L F F D D h h l F l h h h h h k f d h F h f f h f D J | X.X.X.p.p.a.a.a.a.a.g.g.g.g.g.g.g.h.h.h.h.S. X.XOX%X*XuXlXCXZXDXDXJXLXPX'.M M M 0 M S H S S f f f f f f D D f f f h D h f h D f f f f f f f y y f S D D D D f y 0 7 7 7 7 y f D J E ] | o.o.| ` K 0 @ o + - ; + @ @ - - @ @ @ - 8 q q 0 0 0 0 0 V 0 q 4 3 0 G E Y ( ..( 2.r.r.e.;.~ l c ( 2.2.( ) ~ ^ ) 2.2.2.( 2.2.( U D h G G h F P U ",
"F F F l h h h h F h h g g g h g g l l z l l l P P P P l F P P l l F l l P P Q ) ) ~ ~ ( ) 2.;.) P g l g P F l l l l h l P P U U Q P c c I ~ P d g P P c v I c l g j l j j l L I c P L g l I L l j ( ) I I Q I ~ I P I I ( P ~ ( ( L ( ) ~ Q Q I h g P ^ U U U F h L Y P P ~ Q L h 6 O # < < @ < - @ @ @ @ - - - @ @ + + # @ @ @ - + X o # @ @ @ + # + @ @ @ @ @ @ + # + O O O O O X X X o O + + # # # + # + + + O O o o O + O O X O @ @ 3 - @ @ @ @ @ @ @ @ 3 3 @ 3 3 5 5 5 3 @ @ # @ % % % * 3 5 5 5 5 % > 0 S q q 0 0 0 0 M S H H K H S 8 + + o o O O + + + + + + + + + + + + @ @ + + - @ O O 5 S L F I Y L L j j L I j j L L h g g j F L F D h h h F F G h f h h h f f f h F D h h h h S D J X.X.+.p.p.a.a.p.a.a.g.g.g.g.g.g.g.h.h.h.h.N.S. XOX#X*XrXyXCXZXSXDXDXPXPX=XZ M M 0 M S S S S S S f f y f f S f 0 0 f h f f h D h D f f f f f f f f f h D D f f f h D D h f y 0 0 0 y y D E  .....X.| J S q > ; ; # # # @ - 3 4 5 4 4 4 5 5 5 5 4 3 3 4 5 5 0 D D ~ ( ) Y ) ;.2.;.e.2.) ) 2.e.e.2.2.~ j d Y ..( L ( e.e...R D G f g h l F ",
"l F h h h h h F h h F P ! P F l ! ! l z l l l P ! ! F l P ! ! P l P F F P P ! ) ) ~ ! ! ! ( 2.2.~ Q ( l L P I P U P F l U ( ) ( L ! Q I P P c l l c v P I c k l l l c l j l c I I P P L Q Q l j P L j L Q Q Q ) ( Q ~ L L ~ 2.( Q c ( ) Q I Q ( ! F F U P I Q L s l Q ~ ~ ~ P j l s 6 * @ < < - - @ @ @ - - - - @ @ @ @ @ @ @ @ - @ O o # @ @ @ + # @ @ @ @ @ @ # # # O O O O O O O X X X X o O O + + + + + + + # + O O + O o X X O @ @ - - - @ @ @ @ @ @ @ @ @ @ @ 3 3 5 4 > @ # # @ % % % * 3 5 5 5 5 % > 0 0 q q q 0 0 0 M S S H H H S q + o O O O + + + + + + + + + + + + # # @ + ; - - # % 7 D h j L L j Y c k c I L j k j j g f f k F L F F h h h F F h f h F h f f f h F D h h h h f D G | X.X.X.p.p.j.p.a.a.g.g.g.g.g.g.g.h.h.h.h.N.S.|.XX#X%XrXyXlXZXSXDXDXKXKXCXH M M 9 0 M M S S f f f V y f f f f 0 s f D h f h D h h f f f f f f f f f f h f f f f h D G D h f y 0 f y y y S D R E o.o.| o.o.] S q q 4 4 3 3 3 - - 4 - - - 3 3 3 3 5 q q 5 5 5 y L Y L Y L ( ~ ~ v e.r.w.e.e.r.w.2.2.) Y Y ) ( Y ~ L ( ..3.w.3.^ y f f f h ",
"F D F h h F F U U U U ! Q Q P F ! ! ! ~ _ ~ P l ! P F F P ! ! P F P F l F l P _ ~ P l P I ( 2.e.e.w.w.I g l P P F P l z P ( ( Q l Q ( ~ I l l P c I ~ ( ~ c g c l l c l k d j c P l L l P P l I ) ( ( Y F j F L Q P ~ c Q ;.e.) ( L Q I j j P ( ..( ( Q P Q ( Y g d d v ~ ( P d z F F 7 * @ % @ - - @ @ ; - - - @ @ @ @ @ @ @ @ - @ # o O @ - @ # # # @ @ @ @ @ # # # # # + + + + + O X X X o O + + + + # + # # # # # # # + O O O # @ @ - - - - @ @ @ @ @ @ @ @ @ @ @ 3 3 3 @ @ # # @ % * % * 3 5 5 5 5 % % q 0 q q q 0 0 0 M S S H H H H 9 ; o O O + + + + + + + + + + # # # # O @ - - - # % 5 f L F L Y c L Y ~ j k L Y Y L L l k f f k F L F L G h h D D h f h D D f y f h D h f h h h f f h ` | X.X.X.p.j.p.p.p.g.g.g.g.g.g.g.g.h.h.h.N.S.S.oX+X%XeXuXlXZXGXDXKXKXPXDXH M M 0 0 0 0 0 0 0 0 0 0 V f S S f f f f f h h f f f f f f f h f f 7 f f f h h f f h f h h f f y 0 y D S y 0 7 7 y D D E  .o.| | | X.` K H S M 0 q 5 5 4 4 3 3 4 5 4 5 5 5 0 S J  .w.2.2.2.;.2.;.2.e.e.w.r.e.w.w.e.) w.w.e.2.w.e.( Y L Y L ( e.w.2.G f f f f ",
"F F F F F F U ! / ! F F P P P P l l ! ) e.( l l l P P P P ! ! P F P l l l l ! ) ) P l ) w.w.2.L ! 2.w.~ L c P L l l z l l P P P ( ) ) ) ) Q l P P Q ( ~ I c d k l l g j g g l P l l l s d j l Q ~ 2.e.) f f j f l j c l ;.2.( 2.) I P c j g j Q 2...) ( ~ 2.2.( ~ z d l ! Q P l l Q ^ D 7 * * * - - @ - - - - - @ @ @ - @ @ @ @ - - @ O o # ; - @ @ # # # @ @ @ @ @ @ @ @ @ @ # + + + O O O + + # # # # # # # # # # @ # # # @ @ @ @ @ @ - - - 3 @ - @ @ @ @ @ @ @ @ @ @ @ @ @ @ # + @ % * * * 3 5 5 5 5 % > q 0 q q q 0 0 0 M Z S K H H H M - + O + + + # # # # # # # # # # # # # ; - 4 q 5 5 7 L E Y Y I c Y I I k s k j L L L L F j k k F F j D F D h f h f y f h h f f h h f f f h D h f y f S ` X.+.X.p.j.j.p.p.a.g.g.g.g.g.g.g.h.h.h.h.N.S.|.XX%X*XtXlXCXGXDXKXKXPXDXK M M M 0 0 0 0 0 0 0 0 0 0 f f f f f f f f D h y y y f h f h D D f y f f f f f y f h D h f f 0 0 0 0 0 y S D S y 7 6 y f D K ] | | ` | | | | | | | | ` J J J J J J K J | | o.O. .R E 2.2.e.( I c ~ ;.v ~ ;.r.r.w.2.) }.}.e.( ;.e.2.Y 2.( F F ^ ..e.2.^ U G h ",
"D D h h h F F U F F h l P P P F P l l ( _ P z l l P ! ! ! ! P P F F l l l F ( e.e.) ) 2.) ~ P g l ~ ;.c g l P P F l l P F l l P l P Q ) 2.) ( ;.2.2.) ~ ~ ! c k j g g l c v I ~ c c l s s h d d j l ..2.Y j Y L l l g j e.) j 2.Q c I Q ( Q l I ) ( Q Q ( e.w.2.~ v z v v z l L Y ( ( F f 6 * * - - @ @ - - - - @ @ < < < @ @ @ - - @ O X # - - @ @ # # # @ @ @ @ @ 3 < 3 @ @ @ # + # + # # # # @ @ @ @ @ # # # # @ @ @ # # - 4 @ @ - - - @ - 3 @ @ - @ @ @ @ @ @ @ @ @ @ @ # @ # # @ % * % * 3 5 5 5 5 % > 0 0 q 5 q q 0 0 M Z S K H H H M 4 + O + + # # # # # # # # # # # @ @ ; # ; q S K S D E ^ Y L j j Y j c c I I c j L F L Y Y L D j j k h D G F h h f 7 y f h f f h h f f f h D h f t 7 y J X.+.X.j.j.p.p.p.a.g.g.g.g.g.g.g.h.h.h.h.N.N.|.XX&X*XrXpXzXZXZXKXJXPXKX` M M M 0 0 0 0 0 0 0 0 0 7 0 f f f y S f f D D f y y h h f f f D D f f f h D D f D D D D f f y y y y f f S S S y 0 y 7 y y y f D J J ] | | | | | | | O.o.o.o.o.O.O.o.| o.o.| ] D y L Y ~ ( j j c I I ~ 2.w.e.2.e.e.4.2.e.2.( ) ~ L Y I Y Q ..w.{.{.w.w.e... .",
"D h h h h h D F h h l l F F F F g l F F F l l P F ) ~ z P ! P P l v v l v P ( e.e.) l l l g l g g j l l l P Q ( ) ! L ( P j I j g l I ~ ~ ~ ) 2.( ~ v I l c ~ g c g l j l P c I L j l P L Y Y k U U ( Y h Y ( L j l ~ ( 2...~ 2.) ( ) Q ;.I I c l l v c ) w.w.w.w.( 2.~ c l c c I ( U ( Y Q h = * # # # % 5 * @ > + 3 3 @ 3 - # 3 3 @ # # O + 3 @ @ + + # @ @ # @ @ - 3 3 * * * < @ # # + O # # @ @ @ # + + @ < @ O @ - ; # # # # O O 3 @ @ 4 @ - @ @ @ @ @ @ # @ @ @ @ # # # # # # @ % * % * 5 6 5 5 5 3 3 q 0 q q q 9 0 0 M M H K H H K S 0 + O + # # + + + + + + # # @ @ + + - - 4 0 S K E E ( E j k L Y I L v I I c c c k d d L ~ Y L l j j f F Y F k h f y f f f f f h D h h h g h D G D f f S J +.X.X.j.p.j.p.a.a.g.g.d.g.g.g.g.h.h.h.S.S.S.|.+X%XrXpXCXGXZXJXKXKXJXo.0 M M 0 0 9 0 0 0 0 0 7 0 f f f y f f y y f f f 0 0 D D S y y f D S h f f f h h h f h D D f f f f f f f f D S f 0 7 0 0 0 0 y y y y D D D J J J J J J E | | ^ |  . ... .( E R L L D c ( 2.e.;.v v ;.~ v ;.~ ~ ;.r.r.2.2.;.I j c c c I ( r.}.r.;.( ( ~ ) e.w.",
"h h h h h h h h F P F F F F F h g z z z l z f g g ( ( Q ( ( P l ! P z l ( 2.2.) e.~ ! P l c l h l P I P j l Q ) 2.P l P P P L l l P Q ~ Q ~ ( ;.( ) I I Q P c P g g P L l l d j d g l j l U Y F F Y U F k Y E j j Y ..2.e.2.Y / ( ~ ) ! ( Q ~ ! Q c g l ( 2.) ( ;.) w.2.) ( I l L Y U ( ( 2.2.U 0 7 % % * # O @ % $ $ * 3 @ 3 * @ 3 @ # + O # 3 - - @ @ @ @ @ @ < < < 3 4 4 5 5 < 3 @ @ @ @ @ @ # # # @ 3 3 3 @ # @ @ < - @ O X O * @ @ @ @ - # # @ @ # # @ - @ # # @ @ # # # # # # @ % * % * 5 5 5 5 5 3 3 5 0 q q q q 0 M M M S H S K H S 0 + O + # # + + + + # # O O + @ @ ; @ > 4 4 5 7 D E Y ~ ~ ~ ~ Y j k d c I I L c c j d j L L L L L L Y F F h D F h f F D F G F U L D h F h f f h D D f S K | X.X.p.p.j.p.j.a.g.g.d.g.g.g.g.h.h.h.h.S.S. X+X%XrXpXCXGXZXHXHXKXPX[.M S 0 0 0 q 9 0 0 0 0 0 y f f f y f 0 0 f S D f f f G G D f f S D D h f f f f f f f f h f f f S f f D f f f f y 0 0 0 0 0 0 0 y y f y f f S S S S S y y y f S D R ^ ^ ^ R R ( 2.;.( ) 2.2.;.;.( ( ;.~ v ~ I v ~ ;.;.e.e.;.:.~ ;.;.e.e.w.r.r.e.e.w.r.) ( ;.2.",
"h h h h h h h h U U P F P P F h g g g g l l g g g P P l P F g z g l v P ~ ) ( ! v g P P P Q L P L ( 2.) I l L ~ P s d j Q ( g d h l L P P Q ( 2.2.) ~ c l l g v g j P l j l c Q P ! P F L F j j h U L k L ( ( ~ ( ..2.2.2.2./ L Q ( 2.( ~ ;.2.( ( ( ~ ( 2.~ P L I ( e.) ) ( Q c L Y ) ) ..e.w.^ ( / 7 * * # 6 7 7 y 5 % % @ 3 @ @ 3 3 @ # # @ - @ @ # + + + # # - - - - - 3 3 4 4 4 3 3 3 * * * * * @ @ % * * @ * * @ @ @ @ # O   @ + O + + @ @ O O # @ # # @ # @ @ @ @ # # # # # # @ % * % * 5 6 5 5 5 % 3 5 q q q q q 0 M M M S S S K H S 0 - + O O O O O + + + # O O @ @ + - > q 0 0 q y D L F Y ( ~ Y I c c k c I ~ Y I I Y j j j F F F L Y Y L L D j h f D F f f f h G D f f D h f 7 f h h f D K J X.+.X.p.j.p.j.j.g.g.g.g.g.g.h.h.h.h.h.S.S.|.XX%XeXyXlXCXSXHXDXKXLX=XS S M M 0 q 9 q 0 0 S S S f f y f f y f f S D f f f D D f f f f f f f y 0 f f y y f f f y y f f S D D f y 0 0 0 0 0 y y 0 7 0 y y f f y f S S 0 0 0 0 7 0 f D G R ^ ^  ...( ( ( ( ( ~ Q c d k c v I v v ;.! c c ~ e.t.t.r.t.t.t.e.;.;.e.r.r.w.w.e.2.r.e.;.;.",
"F z z D h h h h F F F F F P F F l F l h l l l F U U l g h h h P z P ( ( Q Q ~ ~ ! l P l l P l l L ( 2.e.( P l l l g j P 2.;.l j l j g g j I ( ;.;.I ;.) P ) 2.( P P P j g l P ! I L g j P j f j F Y F F Y ( ) e.e.2.2.( ( ) / P P ( 2.e.( 2.e.( ~ 2.2.e.e.( / P Q ) 2.( ) ) ..) L F ~ ( ) 2.w...( 2.D 7 7 7 f 7 f ^ h t 6 % * $ # @ 3 - @ - 3 @ 3 3 @ @ @ # @ 3 3 4 3 3 3 3 3 4 5 5 5 5 3 * * * * * * * * % * * * * * * 5 * # $ $     + O O @ # # O # @ @ - < # @ @ @ @ @ # # + O # @ % * % * 5 5 5 5 5 % > 4 q q q q 9 0 M V S S S S H H S Z 4 + + O O + + O O O + # # ; @ @ 3 q y S S D G L j Y ( ( T Y Y T ( ! I I Y Y I L I L l j F F j F Y Y L Y F j h h D F h f f f h h f y h D f s f f s f D S K | +.X.p.p.p.p.j.a.g.g.g.g.g.h.h.h.h.h.S.S.S..X#X*XtXpXCXSXDXDXKXLXZXH S S S M 0 q q 0 0 S S S S f f f 0 y y f f S f f f f y y y f f f f f 0 7 f f 0 0 f f f 0 y 0 0 f D f y 0 0 y y 0 0 y 0 0 0 0 0 0 y 0 0 0 f f 0 0 7 0 y f D D G G U y k L Y j k k F c c k s d c ! ;.r.e.e.e.r.r.r.r.r.r.t.e.e.e.t.e.r.2.;.;.;.( ;.2.r.e.e.e.",
"F F F F F l l h d h h h h F F F P Q ! l z h z F U P F F F l h l c j P ~ I l L P ! P z l l c ~ I c P ~ ) ) Q P l I ~ l P ) Q c L P l g d l Q ( ( I l 2.w.2.2...( P P l l l l c l I L d g Q / F j U Q U F Y F Y w.2.2.( ( Y Y Y L c ! ) e.( ) ) ~ 2.2.Q ) e.2...L I ~ ( ~ 2.2.2.2.~ L Y U / ( _._.) 2.h y y 6 y 7 s F h / U = * * $ $ @ @ @ - 3 @ @ @ @ * @ # O # @ - 3 3 3 3 3 3 * 5 6 6 6 6 6 7 7 s h U P h f t y f h G R D 6 # #     @ $ @ q O # # @ # @ 0 0 @ @ # @ @ @ @ # + # # # % * % * 3 5 5 5 5 > > 5 q q q q q 0 M M V M S S H H S S q @ + + O + + + + + # # # @ > q y 7 y S S D G Y F j Y Y j k k j j ~ Q I I L c j j L l L L j k j Y Y L L k F U F h F h h f f h D h f h l h f h h s 7 f f S ` X.X.X.p.p.p.p.a.j.g.g.g.g.h.h.h.h.h.h.M.S. XOX%XrXpXCXGXDXDXKXPXJX` S S S M 0 q q 0 0 0 Z f f S S f 0 0 7 0 f D D D S y 0 0 y f f f f f f f f f 0 0 0 f 0 f f 0 7 f f f 0 7 0 y f 0 0 0 y 0 0 0 0 0 0 0 0 0 0 0 0 0 7 7 7 y y t f d f k d j Y Y j k L I I I Q ~ ;.;.r.e.r.r.e.r.e.r.r.e.r.t.r.r.r.r.;.;.;.e.e.e.;.;.;.;.;.;.;.",
"F F F F F l l l f h l h h h h h F ! U h h h h F F l F P P F j j P c ( e.2.! P l g z d l P I 2.) l l P ( ) ( P l P ~ g l P g j l P L l l I ( ~ I P I ( 2.2.! s P ( Q l P P c P c I ! l g Q 2.( l U Y L L F f j 2.2.) Q / F g F U P P ! ) ! Q Q Q w.2.L l ) 2.( F L L F F ( ( 2.) ( ( ( ~ ( ( w.{.w.) f h f 7 y f s g f U ! g f t * $ # % @ % * # * * 5 7 q * * * % % * * * * * 6 6 7 7 t y d h F Q ~ ) e.w.e.~ l g d j U R G 7   $ $ O + X q S 5 O # @ X + S J 5 # + # + @ @ # O # # # % * * 3 5 5 6 5 5 % > 5 q q q 8 q 9 0 M M M S S H H H H 0 # + O O + + + O # @ + + > q V W y S D D D F Y I I ( T c j L L I I ~ ( I j k k j P P P L j d f j L L F d f L F h f f h h f f h h F F h f f h h f y f f f K | X.X.p.p.p.p.a.a.g.g.g.g.h.h.h.h.h.h.N.S.|.XX#XeXpXlXZXSXHXKXKXKXX.M Z M 0 q q q q 0 5 q 0 0 S S S f f 0 0 f D D D f f y 7 y f f f f f f f f f y 0 0 y 0 f D y 7 0 0 f 0 7 7 0 0 0 0 y y y f f 0 0 0 y 0 7 7 7 7 7 7 f D h f s j Y I Y L I ( T j F Y ~ Q I ( ;.;.;.e.e.e.e.e.r.e.r.e.r.r.e.e.r.e.r.e.e.r.r.e.;.e.r.e.r.e.e.r.",
"h h l h h h l l h l F l h h l h h F F l P U U F P F F L L P Y L j l ) w.2.Q ! P z l ! ) ) Q U L j j P ( ) ( P c l P l c ! P c P P L l l P ~ Q c c ( P L ( F g Q e...Q Q ! l I I l j g g P ) ) P F L F F F f k ( ( Q U Y f t F Y I P l P P I Y ~ w.2.I L ( ) ^ ~ I Y L j Y ) e.( c ) ) 2.2.2.w.{.w.F g / G s 7 s f h h g f l v z 7 % # * 3 5 0 7 f f D G G h f h f f f y t t y f s d g g g l P ~ ~ ~ ( 2.e.e.~ g c g l L P ^ D #   # $ $ O 5 S S - O # O X q K S - @ # # @ @ # + # # @ % * * 3 5 5 5 6 3 % % 4 q q q q q q 0 0 M M S S H H H K M @ + O O + + + O # @ + @ q V D ^ y D R E E Y Y L v T L k j c Y Y c ~ ~ L k j c c L I I L k f k j j j L k f h j L h h h h h h F h h h h g f f f h f f f f f J X.X.X.p.p.p.p.a.g.g.g.g.g.h.h.h.h.h.N.M.S. X#XeXyXzXZXZXHXJXKXKX`.M S M 0 q q q 0 0 q q 0 0 S f S S f f f f D h f f f f 0 0 f f f f f f f f f f y 0 0 7 f D f f f 0 f y 0 0 0 0 0 0 f f f f f f 0 0 0 f f h h D f y F ( ..Q Y ) 2.;.( ( ( ) ) ( ( ) ~ ~ T ~ :.:.:.;.:.e.e.e.e.;.r.r.e.r.e.r.r.r.r.r.r.r.r.e.e.r.r.e.;.:.;.e.",
"z z z z h h z j l F F F F P F F l F F F Q ( U F F l l F l L P F I P ) e.2.2.w.w.g z 2.e.e.) j h g g j P P P ! ( P l L l P ~ c ! P P l g j l l k L ) I j h l U z F P P ( ) ! ) 2.) l j L l l F l j F F F F h k j F U U U y 6 h F P P z g F U Q ^ ;.I Q ~ 2.2.( 2.Y Q / Y ( 2.w.Y j 2.2.2.) 2.e.w.e.s 7 h f s 7 7 7 s F l s s g l s % % 6 7 D R ! U U ! / U F G / ( ^ U F g d g h l z z g d g v ! d c ~ 2.e.2.! d k s c P I 2.( % O %   $ # X 5 J 0 X O 3 O O 0 J 4 3 - @ @ # # + # # % % 3 * 3 5 6 5 5 > # @ 4 q q q q q 9 0 0 0 M S S H S H H M @ + O O + + + O + + ; 4 V D W W D D D U E Y j k k I L j j c L L v I I k d c L c j L L l j F L Y L j F F P U F F F h g g h F F h t g F F h f f h h h h y 7 K X.X.X.p.p.p.p.a.g.g.g.g.g.h.h.h.h.h.N.S.S. X+XeXyXzXCXZXDXJXKXPXOXS H S 0 q q 0 0 q 0 0 0 f f 0 f S f y f f h D h D D f y y f f f f f f f 0 0 f f 0 f 0 f D f D G f h f f f f y 0 0 f f f f f f f f D J ( ..e.2.( U y ( 2.) ( 2.;.~ ( ~ I I ( ( Y d c T ~ I ~ :.;.;.:.e.;.;.t.e.t.e.t.r.t.r.r.t.r.r.r.r.r.r.r.r.e.;.e.e.e.e.",
"z g x l z g h F g h l F U Q P h l z l F P P F F h F U U P F F F P Q P ~ ) e.w.) l z l ! ! l z l g l l g j j l P ! Q v l I ! P ~ Q L 2.2.j j j d F Q ) ! g l l g c P j ) Q ( l l Q l P ! ( ( l g g F l h U F f h F F F h y 7 s h ! l g z ! ) ) 2.) I ( w.w.w.w.2.L L Q 2.2.2.{.w.) ( e.( ) e.2.Q G h s 7 h h 7 7 7 x 7 7 s s z ! F s * = 7 g P P P Q P P P l L ( ( U F j h g g g s s z v g d c ! j g d Q {.( s l k d l f L 2...= $ $ O X O # % q R 3 O @ O X 0 ` K # @ - o + # # + @ 3 5 3 % * 5 5 5 5 3 % % 3 5 5 5 q 9 q 0 0 M M M S H K K H H 3 # O O O O # $ # + - 0 K D D T h Y k d ( ;.c t s j j k c I L L L L c k k j c j g d j L l l U Q U ( P l P l g P F P P l F U U l g h l F F h h F h f f f f y K o.+.X.p.p.p.a.g.d.d.d.d.g.h.h.h.h.N.S.S..X#XeXyXpXCXCXDXJXJXPX=XS S M S 0 9 0 9 0 0 0 0 y y 0 0 f f f f S D h D D f f 0 0 f f f f y y y y f f f y 7 7 f D G G f y f y y 0 0 0 0 y y f f f f f f f f G ) e.w.2.;.) ^ 4.w.e.e.e.2.;.:.;.;.~ ~ ( T L L L ~ ~ ( ;.4.:.:.;.e.e.r.e.e.e.;.t.r.r.r.r.r.r.r.r.r.r.r.r.r.e.e.;.;.;.",
"z x x x g g F Q U l g l P F F h z l ! ( ! z g l P ) 2.( F F F F l l P P ( 2.) P ~ P l l l z g g l P P j g j l P e.;.P z ! ~ I P Q P 2.) c L P c l Q ) Q l l l g l P l P l ( P g P P ~ Q ! Q F F l P F F F h h F h F P F g s s g z z F P P L j I P P ) 2.( ;.e.e.( ( ( 2.e.w.}.}.2.) w.2.( Q / Y ! h f f s s s 7 7 f 7 7 s s z P ) Q s s t g P P ! ) ( P ! ( ( P Y L l l l j j l g g z z g g v Q ! d g 2.e.e.! d j s j s L ....t $ $ # O O O $ % S S %   3 - ; S K 4 @ @ O # # + # @ 3 3 3 % 3 5 5 5 5 3 % % 3 5 5 5 q q 9 0 0 M 0 M S H K H H H 5 # O O O O O O + # 4 S K S D ( k Y j k Y ~ L j g c c j c c L I k j j j c I I L d g j j d g j g Q ( I c P l d l L Y I F l L L l h j l F P h h F h f f h f f K | X.+.+.p.p.p.g.d.d.g.d.g.h.h.h.h.N.N.S. X@X%XtXyXzXCXDXHXJXLXAXH S V M 0 q 9 9 0 9 9 q 0 y 0 0 0 f f f f f f f f f f f f f f f f f y 0 y y y y f y f f D D h h f S f y 0 0 0 0 0 y f f y y f D D F F U ) 2.w.e.2.w.3.e.w.e.;.~ ( ;.;.;.( ~ T Y I Y L I I I ;.e.2.e.e.;.;.;.;.e.r.e.r.e.t.t.t.r.r.r.r.r.r.r.r.r.e.r.e.e.e.",
"z z x x g g F Q Q l z F F z h F z z P / ! g s z F ..e.( F F U P P Q 2.( ) ) l g Q ! F z z l F ! P ! P j j j j l ( ;.) ! I ! ! Q P P ~ Q l c P I P P U P F l l P ~ ( I l l I L d g v ~ P l F P P F P ! Q U h h F h F F F z f f g g g F l l g s j j Q w.2.P ( ;.2.2.2.) ) e.{.}.>X}.( 2.( L f h F F f h z s s f 7 s s y f f f F ! ) Q F Q P l l P F U ! L I ) ) P / Q Q Q Q L g s ! z g g d d c I I l v e.;.e.( g j g c d k Y ( h # $ $ O + O   $ 5 E S O @ # X 9 K 0 @ # # # @ O # @ % 3 3 % * 5 5 5 5 > % % 3 5 5 5 8 q q 0 0 M M M S S H K H H 0 @ X O O O O O O @ q H K V D ( k L j k c L c L c I I c L c c I k c I I I Y I c d j l k s j l g l P l l P c g j F Y Y F j l l h l l l F P h g h h h h D D D D J X.X.+.p.p.p.g.g.g.d.g.g.h.h.h.h.h.N.S.S.XX#XeXyXzXCXDXDXKXLXJX` M S 0 0 0 q 9 0 9 9 q 0 V S f 0 f f f f f f f f y f f f f y y f f 7 7 f D S f D f h D D D D F L D D f y 0 y 0 0 7 0 0 0 0 f h D F h h F ( 2.2.3.{.3.2.e.e.;.;.2.;.;.;.( I j c c c k k L ~ ;.2.;.;.;.;.e.r.e.;.:.:.;.;.e.r.t.r.r.r.r.e.r.r.r.r.e.e.;.:.:.",
"z z z z g g h F F P Q Q U h l U l g z P P l g z l ( ) U l U ! F Q 2.w.e...Q f g z P ! P l P ( _ ! P g j l j j l j v v l l I P z l L L l l l l P P l j P I P P ~ ;.~ Q P Q c P I c l I P l P Q P P P ( ..( F h h h h h z g g g z z g l F ! P g h j Q w.2.L ~ ( 2.2.e.e.e.{.}.}.<X<X( j j k s f y f s h F f s f 7 s s 7 f f f F ! ! z g ..( F z l l g l I P Q ( ~ Q I I Q Q Q I P ! v g g g k c ! P ( ! ;.2.e.c l c P ( P g f L j 6 $ $ O O + $ #   0 K q O O - - K S > + @ + @ # # @ % 3 3 % * 5 5 5 3 > @ % 3 5 5 5 q q q 0 0 M M M S S H K H H M - X O # O O # O - 0 K S y D ( L L k k c L c c c c I I T c j c P I I P L L c j j l L j d l L l d j j j L L l l j F F j j l l j L L F L P l f g h h z z h h D G ] X.+.p.p.p.a.g.d.d.g.g.g.g.h.h.h.h.h.S. X#XeXtXzXZXSXDXKXKXLXf.0 S 0 0 0 q 9 9 9 9 q q 0 S S 0 f y 0 f f f f D y y f f f f y y s 7 0 D / R G f h D D D D L L L D D D y 0 y y 0 q 0 0 0 0 y f f f f f h D L E ^ Y L F j L T ~ ~ T I L I c j j c j k j T ( ;.;.;.:.;.2.e.;.;.;.;.:.e.:.:.;.;.e.e.e.e.t.t.t.t.t.e.;.;.:.:.",
"z g h h h h h h F ! / / ! F F F l z z l F P P F F P ! F l F F F ! ) ) ) ( l g g d l P F l P ! ! l P l j l l l L c I ! l g l P l L I l l l j j l l j j ! ) ~ P ! Q l P I ) P ( 2.( v l Q ( ) ) Q P P ( 2.) Q F h l h g g z z z z g d l ! ) ( j d l l ) P g L L ) ( 2.w.{.}.}.{.>X}.Q d d h d f t t g h h h g f h f s 7 f y y D G Q h t U U F l F U l P ( ( Q ( ( Q P j d g v Q ( ! ! v v v c v ~ ( 2.I I e.2.j g P I ;.( P k L F f % $ O O O X O @ 4 S K 0 q 5 X S S 4 # @ O # # @ @ % % % % % 5 5 5 5 % @ @ 3 5 5 5 q q q 0 0 M M M S S H K H H S 3 X O + O O # O - 0 S 0 7 k T Y L c L Y I c c c c c I T L k k c L L c c c l j L L L L j l l j j c L c c L c L l c l l L I P l c P L P P F h h l l z l h h D D J | X.+.X.p.p.a.g.g.g.g.g.g.h.h.h.h.h.S. X#X*XrXlXCXSXDXPXJXLX-XM S 0 0 0 q 0 q 9 9 9 5 q 0 S V S 0 0 0 f f S S f f f f f f f 0 f f f D G R G h D D D D D D D k D G D f y f y 7 q 0 0 0 0 0 y f y f h h f f f h y f y t y L Y L k d d L Y Y Y ( Y Y Y I I I ~ ;.;.;.~ :.;.;.;.;.:.;.;.:.;.;.e.e.e.e.;.e.e.t.e.e.;.;.;.;.",
"l h g g h h h h F F F F l F h g z l l l l F F l l F P P l z l ! ( ( z F ! l F z h h g z F U P l l ( ( l d l P L P ) 2.) c l P I L I l l l j j j z l j v ( Q v ! I P ~ Y ( ~ ) ) ;.c g Q ( ) 2.~ U U ! Q Q U F F l h g z l l z z z g l P Q I f f l j P l j l k I I ) w.{.}.w.) e.) l j h h d h h s z g s s s s z f f t s y t h G U h 7 h l ! P g F l P Q ( ) ( I Y L g s s g P Q ~ ( ~ ! ! c j I ( ( ~ P ;.Q c g c c Q Q ~ Y U l f % $ O O O O O X   # q S H H S 0 0 4 # # O # @ @ # @ % % % * 5 5 5 5 % @ @ 3 5 5 5 q q q 0 0 M M M S S H K K H H 5 O O X $ $ # # # q 0 6 7 h Y I I I Y I I I I I L c c Y c k k j j l l l l j j I P Y ~ Y I Y L j c L l j l c l L c c c P I P l g l l c P F h l l l l z h h D D J J | X.X.p.p.a.g.g.g.g.g.g.h.h.h.h.h.S. X+X%XeXyXCXGXHXPXJXLXZX` S 0 0 q 0 0 0 0 0 0 q q 0 0 f S f 0 0 0 f f S f f f f f f f y f f f s y D U G D D D f h D D D D G D D S f y 0 0 0 0 0 7 0 y f f h h f f f y t 7 7 7 7 t y h h L j j Y ( ( ~ Y Y I j j I L v T ~ ~ I ~ ;.;.( ~ T :.:.:.;.;.;.;.;.;.:.:.;.;.e.;.;.;.;.;.",
"z h h h h h h h F h g g g h F ! ! v l l l l l z z l F P l l P Q ) P g z l l P l l z g h F P P l ! ) ( l l I ~ Q P I ( ( Q I P d l P j l l g l l c I c j P I I ( ( ) ) ~ ( ( ) ~ ~ c l Q P ~ e.) ( ( P h F F D F F z g z l l l z l l l l l j d j l L P P Y P c L ( 2.w.{.{.w.Y I d k h g h f l P l l z f t t s g s g s t f s h G F h y F U ! F f g l l j ! ) ) Q j l j d d g v I ~ ( ~ ! ! c d c P Q ) P I j I c c j c c Q P U l h % $ O O O + # @ @ O O @ @ @ 5 5 4 3 # # @ O # @ # @ % % % * 5 5 5 3 > @ @ 3 5 5 5 q q q q 0 0 M M S S H K K H K q @ O X $ # # # O > 5 % t L I I I ! I c c c c I L j j L c j j j j l l l l l j I Y Y I I ~ ( Y j l l l j l c j c c l l c P c j k l l l c l g h k l l z h l G D G J | X.X.p.p.p.a.a.g.g.g.g.g.g.h.h.h.N.S.XX+X%XeXzXGXDXPXKXLXKX-XK V 0 9 M 9 M 0 M V 0 7 0 0 S S f 0 0 0 0 y f f f f f f f f f f f f 7 7 f G U D D D f f D U U D D G D D S y y 0 0 q q 7 7 0 f h h h f S S f y y 0 0 0 y y f D R L L E ( ( L j j L j c T Y j j c ~ ~ ~ v j I ;.:.:.~ ~ :.:.;.:.:.;.:.:.:.;.e.;.e.e.e.e.",
"g h h h h h h h h h h h h F ( e.;.! z l P P l z z z z l l F P P Q f z l z P l P h l F F l z l P ( P l l ~ ) ;.2.P I ) ) P L P L l c j l j g P l l ( ~ v Q ~ ~ ;.( ( ~ ~ ( ;.;.( I I Q ~ l I e.2...2.Q h F F h U U l g f g z l l z g l l F l f j g P l l P Y ( ) 2.2.w.w.{.w.Q k L P h t h f h F ! l F F s s g s 7 x t 7 g f h G / h f ( / F h h g P F g c Q ( ) ( ~ L s t t g l c ! I I ~ v k I c ( ( l I I Q Q c c P l P l P F Q * $ # X O + @ O O @ > # @ @ # 3 # - # # > O # # # # % % % 3 5 5 5 5 3 @ @ 3 5 5 5 8 8 q q 9 0 M M M S H K K H J 0 3 O $ O # # # O % % % y Y I ~ Q I I c c c c j c c c I I c j l j j j l l L P I I L k d L Y L P P I P L I I j c c L c c c c j j P P P L l g h k j F j h F G D D G E | X.p.p.p.a.a.g.g.g.g.g.g.h.h.h.N.S. XoXOX*XCXZXDXKXLXPXLXDX` S S 0 M 8 Z 0 0 0 y 0 7 0 f y y f y 0 7 0 f f f f y 0 0 f f f f 7 y f h f f h G D h f D D D D D G G D S y y 0 0 0 0 0 0 0 y y h D S f S f y 0 0 0 0 0 y y f f f k L ^ ^ L k k ~ ( ~ I j k c v I v I ~ I v j v ~ ~ :.:.;.;.;.:.:.:.:.;.;.e.e.;.;.;.;.",
"h h h F h g g h f h f f G  ...^ l l l l F F l z l l l g z ! ! F l l l l h h h h l l l l l l l P l l F l L I ~ ~ ( ;.) ~ Q I L F F L P Q l d I ! P P Q ( ~ I ~ e.) ~ Q ) ( c l ) P ) 2.( P ~ ) ( e...h g h g h h h x g x f x l z z z F ! F h f s s g P U L Q ) ~ ( ) e.e.e.P ~ h P l l d 7 7 s g l l v l d g F P g F s = d h h G ^ F U L Y h h D l Q j g Y ( ) ^ Q P Q l t t s g v g l v l l P P j Q I P ( ( I I c P k I ( ~ j Y ( f . # @ X # < # # + + # # @ @ - - @ @ # # + # # # @ % % % 3 3 5 5 5 > @ % 3 5 q q q 8 5 q q 9 M M M S H H H K K S S q % % % $ % % * t k l L I I j P L t k I s d j c c j g g j l l l j j l l j I c c I I c L I Q c c I Y I c I c I I c c c l j L L c c l j k g s d h l l c c c P h S ` X.X.X.j.p.p.a.d.g.g.g.g.h.h.h.h.S.S. X@X#XtXCXDXJXPXLXLXPX=XK S 0 0 0 9 0 0 0 0 0 0 0 f f f f f f f 0 0 0 f f f 0 7 0 f f f f y y f f D G D h f y y f h D D D D f D D f 0 0 0 0 y y S D D D D S S D S f y y 0 q q 0 y y y D D R / R Y F L E ~ Y L Y Y Y Y Y L j F L L F Y ;.:.( :.:.:.e.;.e.;.;.e.;.:.:.;.e.r.e.",
"h g f g F F h f h h g F ) e.) h z z z l l l z g l l l l ! ( _ ~ l h h F l g g h g g h l F F P ! Q P P Q ~ P P Q 2.2.) ( ) 2...) Q Q ..2.Q l l j z l P ~ ( ( ( ( Q ;.) ~ I L j g j L L j g l Y Q e.2.F h h g h f g h F F z z l z z l P Q P l h f d f F P P ( 2.2.2.e.{.w.2.l P s l F ! P l l g s c z v P I Q ! l s F l d g f f D Q U P F l d h F L L g j Y Q Y ( P d h j g g s s g l ~ ~ l l I I j P c l I I I ~ P c g j L L g l U F * $ X O < @ @ @ @ @ @ @ - - @ @ @ @ # + + # # # @ @ % % 3 3 5 5 5 3 @ @ 3 5 q q q 8 8 q q 9 M M M S H H K K J J J S y y y 7 = 7 k L Y L j j s t d g k c Q P c j j c c g d d l L P c l j j g j j c c c c L Y I L c L L c j j L P L L L I L j l l L P P L c l h j j l L L P I F F G J X.+.p.X.p.p.a.d.g.g.g.g.h.h.h.h.h.S. X.X+XrXlXGXJXPXLXLXLXJX).M 0 0 0 0 0 0 0 0 0 0 0 f f f f f f f f f f f f f 0 0 f f s s f f f f f f f f f f f f f h U E ^ ^ G D G D f y 0 S S S S f S S S S D D D S y 0 0 0 0 q 7 0 f U R U L L E L Y L k k k h j j j j k k j j k u k I I ( ;.;.;.r.e.t.e.;.;.e.t.r.e.t.t.;.",
"h h h h h h h h h f g U ..2./ f z g z l l l z g z l P ! ( ( ( ! l h l U P g d h F h l F F l l l l h P ) 2.( Q ~ ( Q l l ~ ) ( ^ ) P F c P I P P z z c P ( e.;.v P ;.e.e.2.( l d l d t d j j l L e.2.P g h l h s g z P ! l z z z z z P Q U P L F g h l L P ( 2.;.{.}.}.e.) l P g g z P l P ( ) ! c z l ! Q ( ! j s l P F h f d f U U U P h h l Y l l l j j k f L ( h f f h g d g s g v I ! ~ ~ L j l l l l c I ~ ~ I c g j j j g l U f #   # * # > @ @ @ @ @ > > 3 > @ # + + + + $ # @ @ @ % 3 3 5 5 4 > @ @ 3 5 q q 8 8 8 8 8 9 M M M S H K K K K J E G f G R L j g d f g j c Q s g g j P I I I ! j g c L j d d l L P c j g g d k c c j k k c L c c j l c c j k L c c c I I L j j j l l c P P P P F l l L L P P F F G J | +.+.X.X.p.a.d.g.g.g.g.g.h.h.h.h.S.S. XXX*XyXCXDXKXPXLXLXLXAXJ S M 0 0 q 0 0 0 y 0 0 f f f f f f f f f f f f f y y y f 7 s f f f f f f y y y f h D G G G R  . .G f D D D S y S D D y y y f f S S D G G S 0 q 0 7 7 7 f E ^ U y = t F L h k y k h h h D d u k j j j k u k L ~ ( ;.;.;.e.e.r.r.r.r.r.e.e.;.;.t.;.",
"h h h F h g h F h h g h U U F h h h z l l l z z g z l ! Q ! l h h f g F F h d f h h l U Q Q U P l P ! Q Q Q I L v l j j F F F U 2.Q ~ ) e.w.2.2.l z z l Q 2.e.~ L ~ ( ( Q c j l l g s l I Q P c ) ) ! l l h h h h h F ! l z z z z z P P P I ~ ( U P L l L Q ( ( e.{.}.2.~ g g h l l l z g P ( ( ! ! ! Q Q ~ Q P v z l l g g g t j P P Q F U P / L ~ ..I g g g L ..U h f f f g F d s s g ! ) Q h l l c P j j c I ( ( ( l j k l g g U D 7 * # % # % % % % * 3 3 3 5 4 @ @ + O O O O # # @ @ @ > 3 5 5 3 > @ @ 3 5 5 5 5 5 5 8 8 9 M M M S H H K K K K K D y h U / g d s d g g l c P P I ~ ( Q P l ! l g j l j g j l l l j g g g j j c c j k k j j j j j j l c c j l j k j l L l j F j g k g j L I P L l l l l F l L L G G J | X.X.X.p.a.g.g.g.g.g.g.h.h.h.h.h.S.S. X#XrXlXDXKXPXLXPXLXPXx.K S 0 0 0 q 0 0 0 0 y f 0 f f f f f f f f f f f 0 7 0 y s f h D h f y y 7 t y f D G R R D L / ^ G S D G S f 0 0 f f y 7 y y y 0 y S J E S y q q y D | 3._._. .G f h / ) R / / U D f f f k k k F F h k k L ~ ~ Q ~ I ~ ;.r.e.;.;.;.;.e.r.r.t.r.r.",
"h f g F ! F F F F h h h h h l P g g h h z h z z g g z P U F l h h h h l P ! U F h l P Q ) ( Q ! ! ! P l g l P Q P P l j l F L Q ( ( 2.e.e.2.) ) ) ( ~ I P Q Q L P ) ) P j l g g z g g P ~ ( ! l l P ( ( P f f F g s g P P l l l l l l P F I ( ) ) ~ P l L Q ( ;.~ w.}.{.2.P l U l l v l d d z l ! P v c c I Q I ) c j j j l l s g c l I L U L P I ) 2.Q g d j F ! F F f f h h l g g d g l l z l F l L P j k j c ! Q ( l g d l d d h h f 7 = % 5 3 3 5 5 6 6 6 5 q 5 3 @ + O O O $ # @ @ @ % % 3 3 3 3 > @ @ > 5 5 5 5 5 5 q q 9 M M M M H H K ` J K K D y f F Q ! F d s s g l c P l I ~ I Q ~ L P c j d d k l c l l j j j j j j k j j k j c L j j l l l l l l j l j j j j j j j P F j g g j P I P P L L L L l l U L F G J J X.X.X.p.p.a.g.g.g.g.g.g.h.h.h.h.S.S.S.XX%XyXDXJXKXLXLXLXLX-XS S V S 0 0 0 0 f f f f 0 s f f f f f D f f f f 0 7 y f f f D D D f y 7 7 7 y f D D G G D D D D h D D S S y 0 0 0 0 0 0 0 0 0 7 0 f D J G D y 7 y D  .O. . ./ ^ R F Y L ( .. .L f y f f f f k k k y f k Y L c c I ~ ;.4.2.~ c v ( :.;.r.:.v :.e.",
"h h U ( / F F U F h g h h h h F g g g h h h l l F l z z h l F F h l l l Q ) ) Q l F U Q Q ! P P l g l P P c Q 2.! P g d c I Q Q ( ) ( ) 2.( ) ) e.e.e.2.;.~ L P ~ 2.2.2.( P l l F F l L U Q P j z g P ( ) U s f s t s P ! ! l l l l l l g c Q Q Q Q P L I I P Y I ) e.2.) Q l z g g l ! z d z l l g k g j I ~ ~ ) c c L c I Q I P P c P l l l l ! ! P P g s j g F l h s f l f s l l g g g s d l l l l j j g g j j P ! l g g j g d g g t 7 t 6 7 6 7 7 7 7 7 7 7 0 5 * # # O O $ # # @ @ % % % 3 3 5 5 > @ - > 5 5 5 5 5 5 q q 9 0 M M M S H K ' J K K G h h U / U U P U U P g s j d j l g P ( I c P c d s g l c j j l l l j g d k k j j c L L j g g j j l l j j L L F F j j j L F l j h h l F L F P P I I P L L Y L l L G J | +.X.X.p.p.g.g.g.g.g.g.h.h.h.h.S.S.S..X+XrXZXHXKXLXLXKXPX=XS S V V 0 0 0 0 f f f f 7 7 7 0 0 f f f f f h f f f f D D D D D D f f y f f f h D D D D D f y y y D S 0 f 0 0 0 0 0 7 0 0 0 0 y y f S D J G S y y S D D D D D E ^ D h f f D D y y h h f t t y y y y f D D k j I ) ) ( Y c k k ~ 2.;.~ ;.~ d v ;.",
"h ! ( ( U h F U h g g h h h h h h h g g h h F F Q ! F z g h h h h h h h F Q Q / f h F P P P P ! z z P ~ Q l c Q P v g g P Q ! P l ! g Q 2.~ ) ~ ) 2.( 2.w.e.2.2.) ) ( ~ P l l Q ! ! P l P ! P l v g l Q 2...l g g t s l ! v l l l l P P h j l l l Y U I Q P k k ~ / ( Q Q 2.) U v l l v z g g g g j c c l Q ;.2.( I I I I I ~ ~ ~ I I P P l l P ~ ) P Q l g ( L U P h s g g t s z l g x l z f g g l g g P c j j g P l j j l g j k d s 7 t f t t t t t y y y y t 7 5 * # # O O O # # @ @ % % % 3 3 5 5 > @ - > 5 5 5 5 8 8 q 9 0 0 0 M M S H K K K K K D D G / Q ( / U F l F F l g l j s d c I I c c l g g g j j g j l c l g d d j j L L c j j j s s d j l j j l l l l F l k k j g k h j j j j h l L U I P L L L F L c l F R | X.X.X.X.p.a.d.g.g.g.g.h.h.h.h.h.S.S.|.XXeXCXDXJXPXKXKXLXuX] J D y f 0 0 0 y f f f s 7 7 7 7 7 0 7 y f f h h D G G G G D D G G D D D D h D D F G G L h h D D D S S S f 0 0 0 0 0 0 0 0 f S S f f f S S S D D D D D y f f D D y y t 7 y y y f f y t y y f f f h D D f f L ~ ( Y F y F k h T ;.;.~ ( ~ k I ;.",
"F U ! D h h F F g g g g g h z l h h h h h F P U Q Q ! F l F l h F h h F P P U ^ P U U P l g l P g z l l g g g j d j g d z L j d j ~ g I ) P ..) ) ) P Q w.w.2.2.( 2.2.I F ! Q Q ! P l P ! Q Q ! v l ! ~ ) 2.Q Q l s s z l z z z l ! ( Q P c l j P Q U P ~ I L Y j P ) I F ..2.) l z g g g l g s s g v j s j ) e.;.~ I I I v v I ~ P ! I ~ z c I ~ e.) ~ l l 2.Q ! I I F l d t d d l z g h z s s s l l l ~ ~ l j l ! g g l P d h L s t t t y = t t t t t t t t 7 0 5 * # O O O O # # @ % % % > 3 3 5 5 > - - 4 q q q q q q q 9 0 0 9 M M V H H K K J J S f G U F ^ / / U L F j d j ( I d l P c I c j g j l j g j j j l c l g g l k j L L c k k j g s d j j d d h g g k j j f f d g h h h h h h g h F P P l j g j k L v l l R  .X.+.X.X.X.p.d.g.g.g.g.h.h.h.h.h.h.S.S..XeXCXDXJXPXDXPXLX=Xo.E ] S S f 0 y f f f f f f 0 7 0 y 0 7 0 y f f D G R / R G G G G R R R U D h f D G R E D f D U G S S D D S 0 7 0 0 0 0 y f S D D f f f S S f S f 0 0 f f D D D h f h f h f f h h f h D D G G D D G D f f f F F k k D L D L L Y ( ( ~ T ~ c ~ ;.",
"h h h h h h h h f g h z l h h z h l l h h F / ..! P ( P h z f l h F F F l F U F F l l h g h h h g z g g z z z P P g g z l l g l l l j l v I ( ) ( P l c 2.w.w.e.) ) ~ Q 2.e.) L l v ~ ~ ( ( 2.e.2.) ~ I ~ ) ;.( P l z l g d g l l l v ! ~ ~ ~ ~ ~ I v I I I I c j P ~ Q P ~ 2.e.) l z l g g z d d l ! I g j P c k j Y ~ v k Q e.e.2.2.e.I I l ( ( ( ) ~ c I 2.e.2.( 2.2.( P l g d j l j g g d s g d l P Q ( ) ! U P ! ( Q l h l P j j t s k r t y t 7 t t t 7 7 7 5 % @ # + O + @ @ @ @ % > > 3 3 3 > % # - 5 q q q 8 5 8 9 0 M 0 0 0 M M H H H H K K S f f h F G G G h F F F h P P P l j I ~ I l g d k j j j l k k k L L j j L k g g j L L j k h d g l h h l h g d h l d d f t g h l l g s s h y f h j j j j j L Y Y c f D E | +.+.p.a.a.a.j.j.h.h.g.g.g.h.h.h.h.|.@XeXCXDXSXKXDXLXPX'.^ E E R G G y 7 y f y f f h s y f f f 0 y f f D G / R G D G G G D G L U U U h y D G G U Y Y E D D D f D D S y y y y y y f f D D f f f D S y y f f f f f S D f y 7 7 f D D D D f y y y y f h h f f h D f f D D y 7 y D U G D D Y ^ ( ( T ( ( ( ;.",
"h h l F l h h h g g z h h z z h h h h l F Q ) ..U Q ) Q l z f g h h h l h F U F h h h l l l h h d g g z l l l ! l g g z l l j l v l l l c ! ! c c c L I ) ) e.2.2.( P P ( ) Q L P P ( ) 2.( 2.w.{.~ l v v ! ( ( ~ ! l d s g l l v v l l P ~ ) ;.e.;.) ) ~ I I c P I I L j Q e.w.e.;.) ( v l g d g c ! I g g L c t s j Q ~ ~ ;.e.w.w.e.e.) c v ) ~ ( Q c k I ;.e.w.2.) 2.2.) ( Q l l z g g g g g s d P P ( ( ) ( l l l F P l l l P P P j d t t 7 t r r t t 7 7 7 7 5 % @ # + + # @ @ @ @ % > > > 3 3 > % # > 5 0 0 q q 5 8 9 0 M 0 0 0 M M S H H K K K S f h h F D D h h F h f f h l P U I Q Q v I c l l j d g l g g j L L j k g k g j j F F l j F h l F h g g f g f f g k h k t h h h h d y s f y f f f k k h j j c c j g D R E | X.j.g.g.j.j.d.g.h.h.h.h.h.S.S. XS. X%XlXCXpXZXLXKXAX3.;.( ^ E R G y 7 f f y f f h f f f f f y f h G U G D D D D D G D D G U Y E Y D k D D D D E F D h G R h y y y f f y f f f f f S f y y f D G D h D D D f f f f f f f f f f f f f y t 7 t y y f f f f h h f y f f f f f D D D D G Y Y Y L F j Y ;.2.",
"h h F F h h h h d g z h z z h h h h h l F ! Q Q h U ( F g h h l P h g h h l F F g g g h h g g g f g g g z z l P l l F ! Q I I ! ) v l j c ~ ! I Q P I ) e.2.e.~ ! L g g j g l ! P ! 2.e.e.( 2.w.}.~ j c P Q ;.;.( ( Q l v ! P g g z l l I ( ) ) I I ( ( I P I I ( ( ) ~ P ~ ;.2.2.e.2.) I l l l v I ~ Q j g c L j c I Q I I ~ ;.) r.e.e.w.! g c v c t t c ) 2.2.w.2.Y ( ;.) ;.( ( ! c g d d d g d s g z ( ) ( Q h h g f g l l l P c l P L l j t r 7 r t t 7 7 7 q 3 @ @ # + + # @ @ @ @ % > > > > > > % @ > 5 0 0 q q 5 5 q 9 0 9 9 9 0 M S H H K K K S D h h h D h f h F h f f h h l L l P I I P c c c j s d l j j j F F j j k h j l l l h g f h h j h g g h f f f d f j j g f z h g f f s f h f g f h k j F L k j j j l j G G ] | X.X.p.p.g.h.g.g.h.h.h.g.g.g.h.g.h. XeXCXCXAXJXhX{.4.4.~ Y Y ^ G f y f y 7 y s f f f f f f f f D G / G h f f h D D h h F U U F k h L G D F L F D G D G R D f S S D D S S S S 7 0 f S f D D L G h f h D D f y y y y y f f f y f D f y y t y y y f h h h f f f y f f h D G D f y f L E Y L j k u L ) 2.",
"z h z z h h h h s g z z z h h z l z h z l l z h g l F h f z Q ) ( l g g g h l F l l h l h z l F g g g g f g l F f d h Q ( P P I e.l l z I ;.) e.r.~ Q I ( ;.2.~ g j g g s t d P l Q e.w.2.! ) e.e.( P c ! ) ) ( ;.e.2.) ~ ~ ! g z c v v ! ~ ~ I c I ( ~ j k I ( 2.2.2.;.~ Q Q P Q ( ~ P c l l v ! ! ~ Q l d g l j c I I I I ;.e.( r.;.( {.e.P ;.e.2.Q L ;.e.e.e.w.w.( ;.;.~ 2.e.e.;.~ v g s s d j d s s ~ Q P L l l g d g g l c c j g P L L Q t r 6 6 r t 7 7 7 5 * @ @ @ + + @ @ @ @ @ @ % > > > > > % @ > 5 0 q q 5 4 4 5 q q q 9 9 0 M S H H K K K D D D h d D h f g G F h F F k h h d g c Q c c c I c g g c j g k j l j F Y F F l l l h d t s s f f d h h g y h h f h g f l l h g g g h h D h h j h j F L L F h j L L j j j E ] | X.p.p.p.p.d.d.g.g.g.g.g.g.z.h.S.M.*XAXAXhX>X{.6.4.:.T L Q  .U f f f y y f y f f f f f f f D h D G G D f f h f f f D G L F L k k F h h F D y D E D h D h D D D D D D S S f y f f f f y f f j k f f D D h f y y 7 7 y y f f h D D f y y y S h h h h f t t y f f y f D D h f y f D D D k k j Y ( ( ^ ",
"l h z g g h z z x h h l z z z h h h h z h l l l P U P P P P ) 2.( l g h h g h h l l l F l z l l l z l z g l Q ( l h l 2.e.! P ! ! d l z Q e.e.w.e.I ;.( ;.2.~ l ~ Q c g l j g d g I 2.2.2.( 2.e.2.w.e.2.e.e.2.;.2.e.e.( ! v v z ! ! v l c v I v I Y ~ I j c ~ ) ) ( ( Q P P I P I I c j l l j l c v c c k s s g d g c I ~ ;.e.w.2.{.2.( e.2.= P ;.2.~ c Y ( ( ) w.r.) ) ) I 2.w.e.e.2.;.~ c g g g z l g I j j c c l j j g s g v P P P I g d Y g t r = 6 t t r 7 5 * @ # # # # # @ @ @ @ @ % > > 3 3 > @ @ > 5 q q 5 4 4 4 4 5 q q q 0 0 M S H H K K K K G G h f h D h h G Q P h g g l L j g c I ! v v Q I c c I h s s k k f F ( U F h k F F h f f s s f f g g s f h g f k k f j z h h h h h h h f h j l F L L h j j L I P j j j G J ] X.j.j.X.{ p.p.a.j.g.g.g.h.g.|.#X$X$X=X-X_.6.6.6.:.:.T T ( ( F h D D f f D 0 f y s f f f S h h f f D D h f f f y f D U L D Y F F F h L R Y L L E L F U D D f f y y f f f f D D D h h h D D L F D D D D D h y y y y y y f f f f D f y y y S h f y y t 6 7 y f y y y y y y y f y f k F Y ) 2.w.3...E ",
"l z z g g z l l l l h h z h h z g g g g z z l l ! Q ! ( ( P ! Q F g g l g f f g Q Q ( ) Q P z h F l F l f h Q ! g f g ....l g g g d l d c e.w.e.e.c I g I 2.;.) ) ) I j l l g s h l Q ( 2.2.e.e.e.w.w.2.2.;.~ ( ;.e.w.2.) ) ;.) v c g g z c v I c j c I Y ( ( Y I L L L l L P l v l g g c c g d g l g g k g d g l c I Q I I Q ) ;.;.L t d ( s e.;.) I c ~ 2.2.;.w.2.I I c k Q ~ ~ ;.e.w.e.~ v g z z v v ~ l l l z j z l g s d c I I P P l c Q I j t 6 6 t t r 7 5 * @ # # # # # @ @ @ @ @ % > > 3 3 > @ @ - 4 q 5 5 4 4 4 4 5 q q q 0 0 M Z S K K K K G G G h f y h h g F U h t f f l P c l I Q ~ I v I I c c L k y t f f t h / Q F h g h F l h f y f f f f h f g f y t g l k d g h h g h g f f f g j l L Y L j j c L P L c c L h D G ` X.+.s.j.j.j.j.d.h.h.h.h.h.j.h.f.O.4.:.:.>.>.>.:.:.:.:.:.~ F k D D h h h f f 0 y f f f f f h f f f f h f y t t f D U U F F F Y Y E ^ ^ Y F F L L Y E U U D f y t y h D h h D U R R R Y Y Y U L D h f f f y y y y y y y f y y f f y y y y f y y y t y f D D f f f f f f D y y h G U E ) 2.3.) F h ",
"z g g z z l l l l z h h z l h z z z z z z z g g l P P ( Q l F z l g z l g f g g ) ) 2.e...Q F l F l P P f g F z h l h ( ) h j g g g z g c ) 2.( Q P c j ~ ;.e.;.( ) ~ P ! ~ ! L h j Q ) e.2.2.2.e.e.e.;.~ ~ ( ( l ~ ) Q ! ;.e.;.l z g l v c v I I I Q ( ( ( I k j j c P l l j s l s d l l l k s d l g d c c j j g c I Q c d j ~ ) Y I c c ( l ) ;.) ( ~ ( 2.2.( e.) ! I v l l z c ( e.e.e.~ v z v d g v ~ v P l v P P c l d g j ! c c l P ( ( ~ Y j t 7 7 7 7 7 5 * @ # # O # # @ @ @ @ @ > > > 3 3 > @ @ - 3 5 5 5 4 3 4 4 5 5 q q 0 0 0 M S K K K K K G G h g s f f f F P g t k f j l l P ~ ~ I I c c c c c c k d y y y f f D U F h h h h h h f y f h f f h F h f s y s h h s f g h g g f f y f h h h F Y Y F j c c c l L L L l h S S H J | o.j.j.s.s.j.j.j.j.{ H J J D W =.:.>.:.>.#.>.:.:.:.~ L F F D D D h D f 0 y f f f f f f f f y f f f y y y f h L R U E E E E ^ Y h h t t k h D F D U G G h y f D D D D G R ^ / Y j k Y Y F h y y y y y y y y y y y y y y f y y y y y y y y y y y D G D f f f D D G R G D D F h y k j 2./ L F ",
"g g g z z l z z h g f f z l l h l l l l l z g g f F l F F l ! P l l l l f s g z h l P Q Q l h h z z ! Q h l P z s h h Q U d g s g d g ! Q P c k ~ w.e.;.2.( w.w.2.2.) ) e.w.2.( h F 2.e.w.~ Y ~ ) I ~ Y d I 2.Q c ( Q d l ;.w.e.) ! v I I c c I ~ Q Y L k k c j c l c L j g d s c t s l d g c d d c j g c I l j c k l I I c I ( ) l c Y ( ( Q P I ;.w.e.( ( 2.) ) I ~ ( ~ I l d c ) e.e.;.~ v c l s g c c g I I ~ ( ~ I c c g d I P I l l I c ! ( L f t 7 7 7 7 5 * @ # # O # # @ # @ @ @ > > > 3 3 - @ @ - 3 4 5 5 4 3 3 4 4 5 5 q q 0 0 M S H H K K K G G h h h h f g U U l h f f g l L I ! v k c c L I I L c h h g f f h h f f h F G F h h h f y f D f t f F h h h f 7 y h f s g h g g h g f d g g d k L L j l c c k j L Y L l F D S 0 0 V V H H H K H H V V V M V V V W =.#.#.#.:.#.>.>.:.T T L L E Y R ^ U G D f 0 f f s f f y y f f f f f f f f f h F U R ( E h k L h k Y L k j L Y G h D G G D y y h D D / / / R Y Y Y Y Y Y F h y y f y y y y 0 y y y y y y y y y t t y t y y y 7 y y y y 7 7 7 y f G R R G D h f f F ( ( L k h ",
"l g g g z l z z x g g g g g z l l c l l P P P P ( Q 2.! e.2.Q 2.;.l l c g g j l g g z g z z g g g l ( 2.( P L L j P L j c P P c g s g l l g I d c Q w.w.e.2.e.2.( 2.e.e.e.e.e.( g l ! 2.e.) P P f g l l j I 2.~ j I d j ( e.w.) ! v Q 2.) ~ g v ~ Q j j g d l c P s g L j g l l Q s t s d l j d l g g c c c c P c ~ Q c I ( ) ) P l g I 2.( ( c j L ~ ;.e.2.( ) ~ ! ) ;.) v s d v v v ! ;.;.! ~ v v v c I s v c v ~ ~ ~ ;.v d c ( ~ ! v l j j j Q ! c g t 7 6 7 5 % @ @ @ @ # # # # # @ - > 3 3 4 4 3 - # @ - 4 4 4 4 4 4 4 4 4 8 q 9 0 0 M S H H K K K D D D h G D h D F F F F / F d s g P P l k c c c c L Y L g k g f y f f h g h h h h f f D f y 7 y y 7 y f h h h g y t f f f f f h h f f h h f h F l j F L c L c c c Y Y L G f 7 5 6 t y r y y y y y y y y y y y y k b b =.#.#.#.:.>.>.:.:.T :.T ~ (  .U G S 0 f y f h y f f f f f f f f y D y 7 t f F E ( / L k j Y L k k k j F F D f f f f D G L F F F F L F F k h Y ( ) E Y L L G D D f y y 7 y y y f f h f h D f y 7 t 7 t 0 0 y y y y 7 7 y y f f f f f f D U R R /  .Y D h L ",
"z g z l l l l l l l z g g g g g g l P I ~ Q ( ) ) I Q l e.e.e.w.( z c Q ! l g j l z g z z g g g l g l I P l l j P U Q ( ~ c d g l ! P l l s l I L P 2.e.2.~ ( P P I ~ 2.w.e.) l g g l ~ ) ~ L c z j g j g c ( Y s l j P 2.2.( l c l ~ ;.) ~ g j l l d g j g c I Q g g l j g c L c d j j d j l l l j g j l j l c I Q Q I Q Q I Y ) I j I ( ( ~ I c j j Q e.e.Q P I ~ e.e.2.! s s v g d z ~ ) ! ~ ~ ~ ! I ( k I v v v ~ 2.;.I k c c v v c g g j l v I P j t t 7 6 5 % @ @ @ # # # # # # @ - - > 3 4 4 3 - # @ - 4 4 4 4 4 4 4 4 4 8 q q 0 0 M S H H K K K D D h h f f f h h h h F P l g s d l P P d k c c c L I T P j g h h f f g h l D h h f y f f f f f f f f f f f h f y y y f f s y f f f g h f f f h h j F F l L I c c L Y L f 7 6 3 3 6 t r y y t t t t y y y y y y k k b b b b #.#.>.>.>.:.:.T I 2.4. .R E y 7 0 y f D f f f f f f f f f f D f t t y f F I ~ Y L L Y F f d h L Y F k h D D f G E R L h h h h f f f h L R Y h L Y R G f y y D D S S S f y f y y f h f y y f D S f y y y S S t y y y f f y 7 t y f f y f D D f k D F ",
"P l l l l l l P F F F l l l l l c Q ( ) ( P P ( e.( ~ P ;.) e.2.~ v P P I I l l d d g z g d l ! U l g g j j l j l P ( ;.;.Q l L P e.Q L P l c 2.) I ~ ( I j L l l L I e.{.w.2.Q j g g l I P j l l l d g j j c P P l L l ;.( Q ( 2.;.2.( ( ~ P l l l g j l j P ~ ~ z d z z z c c g d l j d j l l g g g j j l c I Q Q ~ ) ;.Q I Q ~ l d l P ) ( ) ~ Q Q ( e.e.~ P ! ! ) ;.) ~ l l g s s g v ! I ~ ;.~ ;.;.2.Q ;.;.;.Q ~ ;.~ I Q ~ d l v c g g g l v ! I j f y 7 = 5 * @ @ @ # # # # # # @ - - > > 3 3 3 - # @ > 4 4 5 4 4 4 4 4 4 8 q q 0 0 M S S H K K K D D h h f f f f f g h g g l d s g g l ! c c c c c c L T U h f g g f t t h F l F h f y h f f f h h f f f f f h f f y y y y 7 7 s f h g f h f f h h j l j j L I c j c j j y 6 3 * * 5 7 t t t t r t t y y t t y y y u u i b #.#.#.>.>.>.:.b v ( ) ^ W E E 7 5 7 0 f f y f f f f f f f h f h f f y t t f j L ~ ~ Y L j k d F Y ^ E E Y L h D L Y D k k j j f j Y Y Y Y L h F h D L U D f h D D S D f y y y y y f h f y f D f y t 7 t y y y 7 t y S D S y t 7 y y 7 6 7 y y h L Y D ",
"P l z z z l l P l F P P F l l F P ~ ) ) Q l h Q ..( Q I ~ Q 2.2.Q ( ~ P ! ( I P g g z l l ! ~ ~ ! l g g g j l j s P ~ ~ ( ( ~ ~ ( e./ Q ) ) ( e.2.~ P l j g L L l ! ! ) w.e.e.e.2.Q l c ! P j l P ( P c P l l L P P ) ~ e.) ( e.w.e.2.c c P c g l Q c g j l P Q P g d z l z j j g t d d d c l d g d g g l c I Q I ! ~ ) ;.~ Q ( ( L l l l Q L ~ ) ) ( ~ ) ( c c I ! ;.e.e.) z d g d g z z c l I ~ ~ ;.;.( Q ;.2.2.2.;.Q v ~ ;.;.g g g k d s s s P I v g f h y 6 5 * @ @ @ # # # # # # # @ - > > 3 3 3 - # @ 3 5 5 4 4 4 4 4 4 5 8 q 9 9 0 M S S H K K K K D D h D h f f h h h s s g s s z g d P Q I L I L c c I h h f t s h f 7 g h h g h h h G f f h h f y f f f f f f f s s y 7 y y y f f f f h f f f g k j g k c c j j j j k f 7 3 % 3 5 6 7 7 7 7 7 t t t t t r 7 r r t u u b b #.#.:.>.>.>.b d ~ ^ E G E S 5 3 7 0 y y t f h h h f f f h f f f h h f y y f j L Y Y W L L L L j h F Y Y L D k h k y k Y ( Q Y Y / Y j L Y Y Y L F R / R G U D D f f f f f f D D D h f t y h D h y y y y y y t y f D D D y y y y y t 7 t f k D L F h ",
"P F l l l z z z z F U U P F L L L P U U P l F ( ~ U l l l P e.2.P Q ) ) 2.) ! P l l z z ! ( ! z l l l l g g g d g P I P P P U / ( 2.( 2.2.2.) ) ) Q P L l L P L I ) Q Q ) 2.w.{.{.2.! ( ) Q P Q ( e.;.~ ~ I c c j I e.) 2.( ( e.e.;.( d g l l d l ( I g g j l j g g d j l g d g j t d d d l j s g g d k g j c c c I ! I ! I ~ ) ( P Q l c l l Q ) ( ! l P P j L I Q e.r.r.2.I P v g l v v v c c v ~ ~ c c v ~ ( ;.e.2.;.;.e.2.2.~ v g g l j d d l c j k l Y D 7 3 * @ @ # # # # # # # # - - > > 3 3 > - # @ 3 5 5 5 5 4 4 4 4 5 5 8 q 9 9 0 M S H K K K K K D D h h h h h h h g s d s s l l g v c k k c I I L Y g l h y y h h f g F l s f h F F D D h f f y y f y 7 7 y f f y 7 s f f y t f f h f y y s f g h f j l c j j c j f f 0 * # % > % 5 6 6 6 7 6 r r 6 r 6 6 6 6 r u u b b b #.#.:.>.>.:.r t R 2. .E q 3 3 0 0 0 y 7 f f h f f f f f f f f h h h f s f h j j L T Y Y ~ h k k L Y F k h k h L L Y ( ) ( Y j k g l Y Q L t u k F F f y f D f t t y y f f f f h h h f D R / R R G G D D S D D D D f y y y f y y f f y f D F D k f ",
"2.( U l h h g h h F Q ( ( ( ( ( ) ( Y F j h F Q Y L k l F Y ) P L l ( 2.2.( P ~ z ! Q ! v v l g z l P l g g g d j j l P I l L ( ) 2.2.e.2.) ~ L L P l l h L L U / ( P L ( 2._.w.e.Q l ~ 2.) Q ( ( e.2.Q I l j k l P ( L P c ) e.w.) Q g g l L I U e.( l l l f t g g d d g d d c l d l l d g g d k d d g j c c l c I P j j c P ~ l d l g l j I ( Q Q P j l l l ( ;.) e.w.e.) ~ e.~ v v I ! ~ I v v v v d k Q ~ ~ Q ;.;.2.r.e.) ;.) ! l c ! Q P c d l l l I / D 5 3 % @ # # # # # # # # # @ - - > 3 3 > @ # @ 4 5 8 5 5 4 4 4 4 5 4 8 q q 9 0 M S H K K K K K D D f h G F h g g h g g s s j l c I c c j c I I c k h h g g f f g F h P l y s h F h D G D h f f f f h y t y y 7 7 7 7 s f h f y y f f s f f f k l k F L j j j L F k f y 5 # % > % 5 5 6 6 6 6 6 6 = = 6 6 6 r t u u k b b #.=.:.:.>.4.r % 6 G | J 3 5 5 0 7 7 7 6 7 f f f f f f f f d f f f g d d g h g f j L L L I I Y T ( Y j k F L Y T Y L L L c c j L ( ) ) T j j j F L Y Y L L D f t 7 t y f f y y h D D G / ..( ^ ^ E E R U G D D D S y y y f y 7 0 f f y y h D h f k ",
"e.) P h h h z z h l U ( 2.2.2...2.2.) Y F l h F l l j Y Y / / l l d U ( Q Q ~ ;.! ) e.e._ v l P l l P l g g z g d d g P I F L ( Q ) ) ) ) P P l F L h F g j l Q ( Q F Y ( 2.e.2.j g g I ) ) ( ) ~ 2.~ c j d j c l l P P l l ) ;.e.( P l g g l ) ( e.( F P h s s g z g d d s s c l d c v g d d j k k k j c I P l l v l g g l l P l l j l l j P I l l j g g d g ( e.) e.{.w.) ! ;.) Q ) ) ~ ~ Q ~ ~ v v v I ;.;.;.;.;.~ ~ ;.;.~ ~ I l d c I I v c d c v v P F f 5 3 % # # # # # # # # # # @ - - > 4 4 > @ # - 4 q q 5 4 4 4 4 4 4 4 5 q 9 q 0 M S S S K K K K D f f x G / U g s f g l l g g l I I ~ T I I I L k t g d f g y 7 y h z l h f g h g f G D D D h f f f U D f f 7 7 6 7 6 7 f D D f y f h g h f f k j k j j j k k j j h f D q @ > > > q 5 6 6 6 6 6 6 6 6 6 6 7 r t t t u b b b =.:.:.:.b r % $ # y y * 5 q 0 7 7 f y 7 f f f f f f f f f f f f d f f f g g f d k f f F ( ( T L j L Q ( ( Y F j k j j c ( ( ) ;.( ~ Y L L j j j L E U D D D h y f D G L R G D D h h h F ( ( ( ^ ^ E E E D f y f f f f S y 7 7 y y y y y t t y h ",
"P l h l F F z g h g l I ) ) ( Y I ( ) Q Q / U U U Q Q I L P F l d d / Q c ( 2.2.;.2.e.w.e.! z z l l z s s g l d g l l j l j j F P U z s l d j c P U F Q F l l ) e...( 2.2.2.2.( s j L Q ) ;.( ( ) ) I l l g I ( ( I l Q l l ) ( ) P L ( L j h ) Q ) F g l g s l z l g d g s s j l t g c l g g z j k g j L I L k z l g g l l j l P Q l ( Q I Q Q Q l s d F l s l ;.I ) {.}.r.;.e.) ) e.e.~ v ! ~ ~ v v ! Q ( ~ 2.e.2.( v c I ~ c z g g v ~ ! I I d c ! I l h y q 3 @ @ # # # # + # # # # @ - - > 4 4 > @ # - 4 q q 8 4 4 4 4 4 4 4 5 q q q 0 M S S S K K K K f 0 s s h ! / F d s s l Q L g l I L I T I I I L k t s g h f 7 7 t f g f f g F h f d D D D D h h f f R D f f 0 7 7 0 7 7 s f f y f D h h h f y t d s g g k t t k k h f J y > > 3 3 q q q 6 6 6 6 6 6 7 7 7 7 6 r r t t u b b #.=.=.b p = % 5 O % % % 5 5 q 5 f / R G f h h f f f f f g g h h f y y s f h h d d f k l k L ( ( 2.w.w.2.( j t u L ( ( ( ( Y ~ ( ( ~ c t k L L F h k y 6 y f f y y k G Y D h f f y y f k / ~ ^ R L D D D S 0 7 y S f y y y 0 0 y y f y y y f k h ",
"U F h F P F l l g h U ) ..( ~ ) ( I I ( ) ....( ! Q ) ) Q l l g g P ) ) ! P ~ ) ) ~ ( ) _ l v Q ! z d d z z z z z g g g g z l l z l z g d d z z l z U ..2.) ( ) w.2.w.{.e.2.) ( P Q Q U P F F P Q j l L P I I ~ I Q ~ P g l I Q Q I c g d d c Q ) P P h s s d l z d d z z g d z g d g c v v z d g d d k c v c g g d d g z l l l l l P ) ) 2.~ Q I l t d j l L l z g g ~ r.}.e.e.) ~ ! v I ! v ~ ~ Q I I I I I I 2.2.2.e.;.;.;.~ s s c Q I c c c k v ~ I P h f q 3 % # # # # + # # # # @ @ @ - > 4 3 > - # - > 5 4 4 4 4 3 4 5 4 4 8 q q 9 0 M S S H H K K K D S f s s G Q z f F d d F P f g c j c c I I b c L Y h h h h g s t y g P d d l h h f R h t f R ^ U D G D f 0 0 0 0 0 y f 7 0 y 7 7 D h h h f s y y y h g d d d f h D ^ / y > 4 > @ q 7 t 7 7 6 7 r r 6 7 7 7 r r r r r t u b b b t 6 % % % % # @ > 3 4 0 q 5 y ^ .. . .R h f f f f f g h h h h f y t h h h g f t d F L Y Y Y 2.w.e.;.k t d Q ;.~ T ( k g c Q ~ l s d L Y Q ( Y y t y f f y t y D G f t t t y f f h L L U G D f y y f S 7 7 y y 7 7 f y t 7 y y y y y y h h h ",
"F F F F l l l l l g h / 2.e.2.) l P F L ( 2.2.2.P ! ) ) Q l j j h F Q Q F l P ! v l P P l l l P l l d g l l z z z g g l l l l g z l l g s d z l z h / 2...2.e.2.2.) e.w.e.2.Q Y U ( ( U F F P Q ) g j c j P I I I I Q I j g l c L P P P l g g l ) ! U g s f d g s s d z l g g l d d g z v c g d d g l l l c l g g d d d g j j j d j c ~ Q ( ~ ) ( P t d j P l s t g j c 2.{.w.w.v v ! c z ~ ~ Q ;.;.( ~ c k c I 2.;.;.~ Q ;.e.e.Q c I ~ Q c l l l v ~ Y Y h f q 3 % # # # + + + # # # @ @ @ - > 3 3 > @ # - 3 4 4 4 4 4 4 4 4 8 8 q q q 9 0 M M S S H H K K D S s x f s f g g h d d h l k F Q I c c L I c c L P P F h s y f f y d F h l U F F h G f y D R / U G D f 0 7 7 7 7 7 7 f f y 7 7 7 f f f h g f f f f h g d f k h G J | D 5 @ q 5 # % 6 7 t t 7 t t t r r t t t t r r r t t u u r = & % % % % # @ 5 5 8 5 4 q G / / R G h f f h f f h g h h h h f f y f f h h g d h h j L L j j I ~ ~ d c ~ ) I k k v ;.~ ( ;.;.~ Q ~ ~ j y k Y E ^ ^ E R G G G R U D f y y h D F D h f f f y y y f S y 7 7 0 y y f S h f y f f y y y h h h k ",
"F Q ( P l l l l l h h U ( 2.) ( g g d P ) P j ) Q ( ) ~ P l j d l l P ! P P P l P ! ~ ! l P ! P l P l z P P g g g f d z P ! l z g z z g s d z l F g ( 2...e.w.w.~ Y 2.e.e.2.P f F U U F h h P ( 2.j l P l Y ~ l P c Q ) ~ P P I Q I P P L l c P Q F F f s g d s s s z z z g d g d g c v v z g g d c I v l g g d g d d d g g j j s s s l P ~ ( 2.Q Q g l g l l d s l c s l e.{.{.) g g c c ~ ~ c ;.( ;.) c j I Q ;.;.~ Q v Q ;.;.I k v ~ ~ g g d c k c c Y f 7 5 3 @ # + # + + + # # # @ @ @ > > 3 3 - @ # # > 4 3 3 4 4 4 4 5 8 9 9 9 8 q 9 M M S S H H H K S S 7 z F f s s d h g F F k l L P L l k j L c c L l g F l d g F h t t h g h h f h h f f y f G G G D D f 0 7 7 7 7 q 6 7 f 7 7 7 y 7 7 y f h f f f f h g d f f G R E G q # > q 5 @ O % 6 y y t t r r 7 7 7 6 6 6 6 6 7 r r r = & % % % # # # @ 3 5 4 5 5 5 5 D R G h f t t h h f f h g h h h h h f f 7 y f f f g h h d d k f t t c ~ ;.2.;.~ c v ~ ;.2.;.;.) Y Y Y L L j j L ( ) ( ( ( / U U U G D D f y y h D D h f y 7 7 7 0 y f D 0 0 7 7 7 y f f f y y y y y y f h f f f ",
"F U ! F g z z g g h F F j F L P c l L ) 2.F s Y P ( Q j g j g s h g F Q ( ( P g P Q ( ~ ! ! ! z ! ( ! P Q P g f g s s g l P l g d z z g g z l P F g ! ) 2.w.e.w.) P 2.....e.Y f g h g g g g F ( ( g l P c Q I l l g I ;.) I L P ~ P j l P Q Q Q F g g s s g f s s z l l g g d d c c v ! I c d d g v ! v z d d d d d g g j l l c d s t l I Q Q ~ l I j L j P L g F Q ~ g g 2.{.}.{.! g g c ! I v ~ ~ ( ~ v I ) ( ;.;.;.( ~ Q ( ( j t j v I s g c ~ c c c Y f 7 5 3 @ # # # + + + # # # # @ @ @ > 3 3 - # # # - 3 3 3 4 4 4 4 5 8 9 9 9 8 9 9 M M S S H H H S D S f f G G h t s z h Q U l P P l j j d k c c c j g s l F z l U F f d h l h f y f h f f y f f f f f h f y 0 0 0 7 7 7 7 y 7 6 7 f 7 7 7 f f f y y y h h g f D R E ] 0 % @ 4 4 3 > # % > 6 7 t t 7 7 7 7 6 6 6 6 6 6 6 5 6 , % % % > % # % 3 5 q q 3 5 q q 7 D G h f f 7 6 f D h f f g h h h f f f f y y y t y g h h f f f j j k c I ;.2.2.;.;.;.;.~ ~ ~ ;.;.~ ( 2.;.2.2.) Y L T ( ;.( Y D h f y y y y f f f f y y f f y 7 y 7 7 y D D S f y y y y y y y y y y f f k y t y f ",
"! P P F l l z z g g g g h l j j j c ~ ) ( Q P g l F h d j j g g s s z ! ( ~ P d z P ( ) ( ) Q F ( ) ( ! Q ! l g g g g g z z g s d z l l l l ! ~ h h l F 2._.e.w.w.( ( P I 2./ F l l h h l h h P P c P c Q ~ I ~ Q c I ) ( c j l j g g l P I P P P f f f g g s d d z l g d g l g c l c v v l d d z c v c g d d d d d g z l v P P g j l ~ ~ j l l L P g P Q ) ! d F P ( ! P ) r.}.}.e.~ d d c c ! ~ ;.;.I k I ;.;.e.;.I Q Q I ) 2.Q k c c g t l ~ 2.! c j L f 7 5 3 @ # # @ # + # + # # # @ @ @ > > > @ @ # # @ > 3 4 4 4 4 4 4 5 8 8 8 q 9 0 M M Z S S H H K S S D f x F h 7 s F d Q Q L ~ ~ P I j g k c c l j g g F L l k h F F h h F F f y t y f f f f f f y 7 s f f y 0 0 7 0 f 0 f f 7 7 7 7 7 t y y t 7 7 t f k k h D E ] J > # 3 4 @ 3 5 % # % > 6 q 6 6 6 5 5 5 5 > % % % % % % % % % > > > 3 q q 5 5 q 4 5 * 5 D E D 7 y 0 6 7 f D h f h f f f f f f f f f f y t f h l h l j D F L I L c v ~ e.e.;.~ v c v I ~ ~ I ( 2.;.~ T c d j ( ;.;.Y j f h h f f h F G h f t t y y y y y y 0 7 y D G D D D S f y S f f f h h D D k y t y f ",
"Q ! P P F l l l l z g h h l l z l z P Q P P Q P Q l g L ~ l d L f s g l P P l g l P ( 2.2.2.) ( ! ! ! P F F l g s d g l l l g d s d g g l P Q ( l ! h f ( w.e...e.( U l l Q P d l l l l P l g l c I P l Q ~ I 2.) I P Q P l l l t d l L l j l L ( g g z z g s d d g g d d g c v g d g c v c z g g l l g d d g g d d d z c v L c z z l ) 2.P P h Q ! L I ( ( ~ l g j P P c Q e.}.}.e.~ g z k d I ~ e.e.~ c I ( ;.2.( j c I v ~ 2.~ v I ~ c d c ~ ;.Q v j j t 7 5 3 @ # @ @ # # # + O # # @ @ @ @ > - @ @ # # @ > 3 4 4 4 4 4 4 5 q q q q q 0 0 M M S S S H K S S D f D G h s f z h / U l I I L I j g j L c l l j d k F F l h F U h f F F f f t t y y f f f f 7 6 7 f f f 0 7 7 7 y 7 y f f 7 7 7 s y y y t t 7 7 f h h D R ] ] K > @ 3 3 @ 5 q @ % @ @ > > 5 5 5 > > > > > > > > 3 > > > > > > > 0 H J K q 4 q 0 5 5 q S J G f y y f D D h f f D f f y y f f f f f f f f h h h k h F F D L Y I v v ~ ;.;.( ~ ( ;.~ ~ I j d k c k k j j c Q ;.( Y d d k L / / / ^ ^ U D f f f y t t y f f f f D G D f f f f y y S f h h h D D f y t t y f ",
"l P F z g z l l l l l l h g h P ~ P P I P l Q 2.e.) P ! ) P d c h g x z z l l z l P Q ( ( ) ) Q P z F P z z l f s d g l l l z g s d d d g P Q ( ( ^ h h F ^ 2./ ( U l L l l F t g P ! P P l g l g j j s g c l P P j g j j l l j d g l c j g l P ! g g z g g s s s d d s t s j v g g g c c c c c z l z g d g g g d d d g l l g s g s s ( w...2.^ ( ~ Q P ( I ( ~ l P Q l g l ~ w.r.! z v I v l ! ;.w.w.;.~ Q I ( 2.2.~ Q ~ I ~ ~ v v I 2.) ( I I ( ~ ( Q P y 7 5 3 @ # @ @ # + O O O O # # @ @ @ - - @ @ # # @ > 3 3 4 4 3 4 4 4 8 8 8 q 8 9 0 0 M S S S H K S S f f G / G z g g F U F g l l j l g g c L c j l l d f j L Y F F F D g F F h D h h t y y f f f y 7 s f f f 0 7 7 7 7 7 7 f f 7 7 y s y 7 7 t t t 7 t f D D R | ] H > - - @ 3 5 5 3 4 - # @ # % % % 5 3 5 5 5 5 5 5 5 5 5 4 4 4 3 > ` X.f.X.S 0 S S q K J y S E E D D G G D f f f h f f y y f f h f f y y f h h g f f h h h h L L I c c v ~ ;.e.e.2.;.( I c v ~ ~ Q ;.;.;.( ( ( T c u k L ( ....( ( Y U F G G G D y y f D D D G G G y y y y y t y y y y f f k D y t t y f h ",
"l Q ( l g l ! ! ! l h l l l l ! ! ( P g l l Q e.w.e.Q L ~ Q j g z g f g z l l z F P U P U ) ) Q ( l P Q z g l f h h h z l z g g g g d d g P ( ( e./ h / F F e...Q Y h P l k Q l g ! ( Q F g g l j d g d d l j d g g j l L I I j g j l L L l l l z s f d d z d s d d d s r r s c l l l l g g g c c v v l g g g d d d s g g g t 7 d s f ) w...w.e.2.Q P j ( ! 2.) P 2.2.I l l j ~ ~ d g c c ~ ) ( e.r.2.( ;.~ v ~ ;.e.;.~ ~ I I c c v v e.2.e.~ I c I ;.( L 7 6 5 * @ # # # # O O O O O # # @ @ @ @ @ @ @ # # @ > - 3 3 3 3 4 4 5 4 8 8 q q 9 0 0 M S S S S K S S D f G _ ! z z z g g d d F L c L s d j L j j F F L F j j F U F h F y h h f h f h f f f y f f f y 7 y f f f f f s f f f y f 7 7 f 7 7 6 7 t t t 7 7 f h D E  .] H > ; @ @ 3 3 5 q 5 4 - @ O O O % # # @ @ @ @ > > @ @ - - - @ @ - H ` X.] H V V 0 0 | O.E K E | ^ J G f y y f f f f f y y f h D D f y y f h g g h h f f h F L c c c j k k T ;.2.;.;.~ c c :.2.;.;.;.( ~ ~ ) ;.~ c L Y ( ) ) ( U D y j U ^ / R G D h h D k D G D y f D D y y y y y y y y f D L D y f D D k ",
"! ) ( l l P P L l l z g l c P P Q I I P j F ( 2.w...Q P l l l g h g d f g h h h ) 2.) P f ! 2.) U P ( ..U F F h g g g l z g g z g g g g g z l P Q F F ( ..! U ( e.P l I j j P c g 2.;.P P l d c l d g g s l I g g s l ~ ~ P v P z P ! ;.( l l d g g g d g g g g d g g d d s s d g g l l l g g g Q ! v l l l l d g s s s g g f s s s s F ....) e.e.Q ( 2.2.) e.e.P P e.e.l g d l g z z g c Q Q ~ ;.;.( ! ! ~ ( ~ ~ ( ( v ~ ;.;.~ ! ! c ~ ;.2.2.v g l ) 2.F 7 6 3 * % @ # # # # # # # + + # @ @ - @ @ @ @ # # @ - - - 4 4 4 4 4 4 4 4 5 8 8 q 0 0 M M Z S S S S S S h h g g z z g d g l c P Y P j L k j L j f j l l F j f f h l h f f f h h f y f h f f y f h h h f f 0 0 0 y f f 7 h D f f f f y y y y y y y t 7 = t f D E | | | > > > - @ 4 q 8 q 5 3 @ @ @ @ # # # + + + + # + # + @ ; @ # @ - 8 q S M 0 9 > 0 H J S J K K S K K J G S f f f f y D f y t y f h y y y f f f h G h D D h h h h h s g g k v :.;.;.( v v ~ ;.;.;.;.( ;.;.( ;.;.( T ( ) ( Y L L Y Y Y / / U F D D D E D f f y y y t f G E G y y f h h t 7 f L G k f y y y y ",
"l P P P I I P P x z l l P P P L c c I Q Q ( 3.w.) U F l l P U P h F P F h f f g Q ..2.) F P ..2./ F L / U U U l h g g l l z z z l l l g g g g z h g F ..e.( G F 2.L l I P I P j I ( P z I I c Q ~ j g g d z v g d s c ) 2.) ! l l l z ! P z l g g g d d g g g g g l z d d s s d g d g g z c c l l c I I v j d s d g g s s d f s s g g h U L P ) 2.U ^ ..2.e.e.w.2.P ) 2.) ( z g g z v l v ~ Q ( ~ ~ ~ I v c v v Q c I I ;.~ ( ) v ~ ! I I ) e.( c v ;.2.F 7 7 3 % % @ # # # # # # # + # # @ @ - @ - @ @ # @ @ - - - 3 4 4 4 4 4 4 4 4 8 8 q 9 0 M M S S S S S S f f f f g z z g j c P P L L l j l d d j k d f k g h h d f f k h y 7 t f f f f f F h f y f f f f 6 7 7 f f 0 y 7 f D D f f f f f f h g f f f f t 7 7 y h R | | X.K 8 + - 3 - 4 9 5 q 5 4 4 > @ O + + + + + + + + # # # + @ @ - 4 8 4 0 4 4 0 4 q S ] | O.o.] ` o.J S J | G f 7 6 t y y y f f f f f s f d d f f h D D D h g h h h s d d d k v ( ;.2.;.:.;.;.~ I v c Q ( ~ ~ ( ;.;.~ I j k j Y Y Y j L L j h h D D Y L L L j L Y Y D h h h D F Y L h f D G G h y h h k h f ",
"l j l ) e.2.I c z l l l l l c l g j P ( ) 2.e.w.) Q ! F l F P l l F U U F g g h h U ) 2.( F / ..) P F F h l F g h g f g l l l z l l j g g g g g g d h Q 2...Q / 2.P I I I I l c Q v g j c l l ( ;.c d g d g z d g d z ~ ) ) Q l z g d z z g v l g d d g g g l l g l g d d s d j l l g g c ! I c d j I ~ ! l d d s z z s s g g s s h h k D h h Q Q h F ! / e.) e.w.) ( ! P ~ v g v g d g ~ ;.~ ~ ! v v I I v I ~ ;.Q ~ ~ ;.I I I c I v c c ( e.e.c P ( ( j 7 7 3 * % @ # # # # # # # # # @ @ - - % > @ @ # # @ @ - - 3 4 4 4 4 4 4 4 5 5 8 q 9 0 0 M S S S S S S D f f f f g g g g P Q I L L l j j g d g F l j L f h h g f h h h f t t f D F G D h y 7 7 t f f f 7 7 7 0 f 7 y 0 f h f f h f f f h D F D D F G h 7 7 t f R | o.o.X.M ; > 4 - > 5 4 5 8 5 q 8 4 - - - - - - - - - @ + O + # # - 3 3 - 3 O 4 M q 4 q M 0 K J ` | o.| S J ..| R G f y y y y f f y 7 y y s s s t f h D h h h h d f h h f d d u d v ( ;.2.2.;.;.T v k d v ;.;.;.~ L k k c ~ ~ ~ ~ L j L / ( ( / U L D k h h f t l Y L k f f h D L R R D h h h f t y F U U Y L ",
"I j l ) r.e.~ c l l l l l l c l j j P ~ ~ ( ) ) P P P z g l l g z g z F F h h z g h F ..) U G U P l l l g h F F h g f g g j l c c l j g g g g g F h g h ! ^ ^ ( ) Q ~ L h l h ~ ~ l g v v l c Q ) v g d d d g d j g l l v I I l z g g z z z l z z g g g g k k k g g d s d d d c v v v l c I v z s d v ~ ! c g l d d s s s z l d d g f j Y Y Y / h l l F Q ) Y 2.e.) ) ! c ~ ~ ~ ! g d l ( ;.~ ( ;.! v I ! v v ~ ~ Q ~ ~ ;.) ;.( ~ c k c v v I Q k g P P f 7 5 3 * % @ # # # # # # # # # @ @ - - > > @ @ # # # @ - - 3 4 4 4 4 4 4 4 4 5 5 8 9 0 0 M S S S S S S D D h g f s s g g c Q I L L F j t s t s j j k L k h k g g h h h l g f h F U U G f t 6 6 7 f f f f 0 7 D D 0 y f f f s f h f f f h F F G G / / U 7 7 7 f J ]  .o.o.K M > ; - 4 3 4 5 5 5 5 q q q 5 5 5 5 5 5 5 5 4 - @ + + # + @ @ # @ # q S q 4 M q # - 5 q V V S J o.3. .J G D D f h y f y f f y y t t t t g F D h h F D g f h F k t t d k c I ~ ;.;.;.;.;.~ I ~ I v v I I c k L T Y L c Y ( ( ) ( ~ Y F k y t k k t t s P ( ~ L l P ~ ( ( ( Q h h f h f y k F L F F h ",
"Q l g l ( ( P P ! ! ! ! Q Q P l l l P I P P P P l F P l g F P l l g g z l z h z U F F / ( U F h h h F F h h F F F l l g g g l P P L l l g g f s l F l h h h h F Q P I j s g F ) Q g d l l l l g P P c g d d g d d l Q ! l l P c g g l z g g z g z g g g g g g g g k s t d g z c v I v l g z g d d d g I I c l c g s s s d g g g g j D L R / Y Y h Q P L ( Y ) e.w.) ( 2.) v c ~ ~ z v ! ! v c ;.) ! v ! v c c ~ v Q ~ I ( ;.2.;.;.Q I ~ ~ ~ I I d d g g f 7 6 5 3 % @ # # # # # # # # # @ @ - > > > - @ # # # @ - - 3 4 4 4 4 4 4 4 4 4 5 8 9 0 0 0 M S S S S S D D G F h d d g c P P L l F j k t s y y g g d l h g f s f h k f F h g h h F G G h f y t y y s y f 7 f  . .f 7 f f s 7 y f f f h h F F G G R / U 7 7 7 f D E | o.s.o.` M ; ; 4 3 8 q q 5 5 5 q 5 8 8 5 4 5 5 q q q 5 4 3 - @ + @ + + - 4 0 0 8 q V M q 5 > - 0 V 0 0 5 y |  ./ E ..R / D D f f 7 y s s t t s h h y 7 7 f f y t f f d f u k j c l c ~ ;.;.;.;.;.~ I c d d c ~ ( ~ I c s t d T ;.;.( P d t s j L L I L L c l I ( ( I c c Q ( ( L k h D G U Y D h k F F F F ",
"l P c j j l l P 2.) ~ ! ! ! P F F l F P l l v P P P P P P P P g g z l l l F ! Q ) ) U F F F F l F F l l F F h f P F l l g d z v L c l l l g g g g F F h g g g l F h h h h P ( ) Q I P l g g d s z v ! l g g g d g I ) ( c c Q ( z z l d s d d d d d d d g g k k d d d s g g k c c I I c g g d d d d d c v c j g g d s d d d g l j L Y Y L F L L l ) Y F / j 2.{.e.;.) ;.~ l g I ! z v ! v d d ~ I ~ ~ ~ ~ v Q ;.;.;.;.~ ~ Q ( ) ;.;.2.;.( ;.;.2.L l g s t 7 5 5 3 % @ @ # # # # + # # # # @ - - > > - @ # # @ @ ; - 3 3 3 3 4 4 3 4 4 4 5 5 q q 0 0 M V S S S S D D G U F z g v I P j g j L L j d h h g g g d d h f y y f k h h h h h h h h h h F h h f f y 7 7 7 q f  ...f 7 f h f 7 6 7 t f h D F F G D D D D f 7 7 t f D ] O.O.O.O.` M 4 - # 4 5 q 8 5 q 8 5 q 8 5 4 4 5 q q q 8 4 4 - ; ; - < - < 8 q > 3 0 q 0 0 0 q q J ] S S q q S S D O.3.R  .G / R D y f f s t s f f f y 7 7 f f f f f t k j k d d g g d c v v I I v k j c L T ~ I j d t k L I ( ;.( Y j d d c ~ ( ( ~ c I ( ~ c j I ~ ( ~ ~ ( ( ( Y j D Y / E Y D h k d k k j ",
"j I Q I I P P P e.;.! l l P U ! ! F l l l l l l g d g P ! ! P g f z l F ! ( _ ( ( ) P l l z l l l l z z P ! P l F l l l z g z v l l l l l z z l z l z g g z l P l h f F F U ..Q ( ) ) I g g g g g l v v I v g g z I ( ~ l v ( ) v z l s t s s s s s s d d g g g t d d g l l j c c v I v l g g g d d g l c c c l z g d g g z l l L I ~ Y h h F F L / F F L j ..w.Q ( ( ~ I c ! ) v v v v v c k I ~ ) ;.;.~ ~ ( ;.;.;.;.;.) Q ;.2.2.2.e.) v ! ~ ( ) Q g t 7 7 5 5 3 % @ # # # # # + O + # # # @ - @ - @ @ # # @ - ; - 3 3 3 3 4 4 3 3 4 4 5 5 q q 0 0 M V V S S S f h D P P l z v P L j g j L L j f f f f s f f t j g f f f h h j h h l F F F h f f f h h f y 7 7 7 7 y R / f s f f s 7 7 7 t f h F h h h h f f f f s t t y f J  .| o.f.f.X.H 0 > > 4 q q q q q q q q 8 5 5 5 8 q 4 4 4 < ; + ; 4 8 4 4 8 4 # > 0 0 q q q q q K K M 0 q S | | J | K f | D J /  .R G D f t f h D f 7 7 t f g f t t s k g g d t t s s d g k j c j s I I I I L j d u k I ) ) ( ( ~ c t d l ~ ) Q k t t l ~ ~ v v ~ ~ I Q Q I j L Y j h F L D k k h F k j L Y ",
"P Q ! Q ( ) Q P ( ~ P l l P Q / ( P l l l z z d l g l Q _ ( ! l f g g z ! ) ( P ! ( P l P l l l ! Q P l l F l F l l l l l c v P L P P l l g g g l l g g z z h l l h s F h h ) l F Y L j g g s s d g g P ~ ! g g g l I ! c P ! Q v z l s t g s s s s s s d d d d = s g l v c l v l c v v z g d g g j g g l v I v l g s s l ! P j I I Y L h F Y L U I F L j L Y e.L L c I v d d c c ~ ;.! v v c I I ~ ~ ~ ~ ;.;.;.I ~ ;.( ) ( e.w.e.;.e.) v c c ( 2.( h 7 7 7 5 5 3 % @ # # # # # O O O + # # @ - @ - @ @ # # @ - ; - < 3 3 3 4 4 3 3 4 4 5 5 q q 0 0 0 M V V S S f f h F P l z z L L l l L Y F f f y f k g j l y g g f f d f k F g h F P U U h f s f h h f y 7 7 q 0 f G D s s s f f f t f f h D h f f h f t t y f s s f f y D E o.o.+.s.f.s.] V 5 q q q q q q 8 q q 8 8 5 5 5 5 4 4 4 - + + 4 8 9 9 4 8 4 @ 4 M 0 q 0 0 0 0 S 0 0 q q S ] O.| S S f  .f 7 f R R ../ h s f G / J U U ^ ....( P h s t t d g s s g d g z c P ! I c c k k c I ~ ~ ~ ( ( T c L ~ T c j j c ~ ) ~ I c l Q ( Q v Q Q c I I c k j Y L u t f f f h F F h t d j Y ",
"l P Q ~ ( ( ! l P P ! Q ! P ! Q v l z l z z z l l z l ( 2.;.Q j F F l Q Q ) ! g z z l v c l l c P P ! ! ! P P l F l l P P P P l g l F l z g g l l g z h g z F l g g g l h h l U P g g z z d s g g g d j I ~ I c l g d g g l l d g z z g s t s g g s s s s g l t 7 t s g l l l l g g l l g g g d d z c l l v I ! v c c l j c I P I ( ( I L l L / j l l g d g I ) ! c l v z d d c l ) ! v c c g v ! ) ) ~ d ;.e.~ v v ~ I Q ;.2.2.~ v ;.( v k I ( ) e.Q 7 7 q 5 5 % % % # # @ # # O O + + @ @ @ @ 3 @ @ @ @ @ % % 3 3 3 3 4 4 4 4 4 4 4 4 4 5 q q 0 0 0 M V S V S f D h g g l l g h F F F j j k d s g d d F U F h F g f d f f h l h G G ^ ^ h f 7 7 f h f f f 0 f f 0 7 7 0 0 7 7 g F F f f h f f s s f x f 7 7 7 7 s s s f g g s G | O.f.s.s.a.j.K M q q q q 5 5 8 8 q 8 5 5 4 3 4 - - > 4 > 4 9 0 4 4 4 ; < 9 M 5 q M q 0 S 0 S 0 0 q S | J 0 S S 0 o.J D D 0 ^ 3.3. .S G O.3.w...R / 2.e.w.e.~ d t t d v P j d k k j j j l l j u d d c ( ( I ~ ( ( ~ I ( ;.~ T I ~ ;.( ( ( ( ~ ~ I k t d v ~ ~ ;.( Y L ^ ( ~ j Y Y Y Y Y I I P Y Y Y Y ",
"c v v v I I v d v v P P l l l v ! ! v l l v l g z g l Q ) ) ~ P 2...! U ! ) P g l l l P P l j j d z P Q ( ( ! ! l l l P P l g s l l F l z g g z z g g g f g h h l l l l l g h l P l g l v z v ! ! ! ! c l v Q ~ v l l g d g g s z z z g s s d g l d s d s g z s s d g l z z l z l g g g g l l g d g z z z l v ! P c v P c c c j I ~ Q P l g j L l j j l j d g c v l g z c l z c z ~ c c c c g I e.e.;.~ k ;.e.2.v ~ ~ c I ~ ~ ;.~ c ~ ! c d z P ! ) ! y 7 7 3 4 % % % # # @ # # O O + + @ @ @ @ 3 - @ @ @ @ % > 3 < < 3 4 4 4 4 4 4 4 4 4 5 q q 9 0 0 M M V V V f D D f g l z d h h h k j j g t s f d s f l h y g h f f f h h g h G h F F d f s 7 h h f y 0 7 7 y 0 7 0 0 f s s f F h f f f y 7 7 f h h s 7 7 7 7 s s s g h g s y J  .O.s.s.f.s.x.X.S 8 5 5 q q 9 8 4 4 3 3 - - - > - ; 4 q q 8 4 - + @ - q S S q 8 3 > 0 S 0 0 V S S H K H S M 0 0 o.o.| E y E ^ O.O.D 0 S E o.R G U ^ ) e.r.e.;.~ ~ ;.e.e.I r s s d d d g k j L T ~ ~ ~ I k k ~ ( ~ j c I c s k ~ ;.;.I c c L ~ I I I I v c k I T T Y Y Y L j F Y Y E T Y j t F j k k ",
"l l z g c ! ! P P l l P P l l l z l l l v ~ Q P z g z v I I P L 2.e.( P P ( P l l z j l l l z j g z v ! ( ~ ! P z l l P v l l l l l l l z z z l l g g g f g h g g g z l l g z l P l l l l l ! _ ~ v v v c ! ~ P z l l z s s g g z z z g d d d g l g d g g g g g d g z c z g g l l g g g g c v g g z v l g g v ! ~ v c c c l l j l L P I I j d d j j j j g g g g l z d g c v l g l c g z v v g ! r.w.e.e.~ ;.;.2.v ;.~ c ~ ~ v ( ;.I ) P c l d z z P h 7 7 5 * 3 % % @ # # @ # # O + + + @ @ @ @ - - @ @ @ @ @ % - - < < 3 3 4 4 3 3 4 4 4 5 q q q 0 0 0 M V V V f S h f g l h g F j k k j j g d f g h g f h F f d F F f f h h d f h f h F h s t 7 f h f y 0 7 7 0 y f 0 0 f f s s h h f f f 7 7 7 f G F f 7 7 7 7 7 7 7 f f s 7 t f G ] o.s.f.f.+.f.f.{ H 9 4 4 - < 4 4 < @ @ - + - > 4 8 q 8 - @ @ + O 4 0 M 0 S 9 + > 0 M M M J 0 S K M 0 M 0 4 S | J S y 7 J ^  . .S 7 y S K D D G F I 2.r.r.r.r.r.r.r.r.2.P t t s g k g k l c I I c k s s j ~ I k d k d t t k c v k d c ~ ;.;.~ I v v j j v ~ ~ ~ ( T L L L ^ Y j d d h j g L F j j ",
"l l z l v ~ ( ( ~ Q ! ! ! P l l l v v l v ! ! l v v l c l g g j P ) ( P I Q P I l z g g z c P I Q ! P P I I P l l c P P c l c P l l z l l l l l l z z z g g g f d d d g z z z l P v c c l l v ~ ~ z g c v ~ Q g d g l l g g z z g g g g d d s s z g d d z g g l s d z l z g g g v P ! v v ~ ~ v z v v z d g P ~ Q c l P P l l j s j c I ~ Q l k j I P d d ! ( ~ g g d g c I v k g g l I ~ ! I ;.w.e.w.r.e.) ~ ~ c ~ ( ( ;.;.( ) ;._ e.v l P z z z z s 7 6 3 * 4 * % @ # # @ # # + + + + @ @ @ @ > @ @ @ @ @ @ @ - - - < < 3 3 3 3 3 4 4 4 5 8 q q 9 0 0 0 M V V y S f f g l l g F j j j j j j d g h F h s l U h f F F g f h h f h h s g U F t t t f f f f y 7 0 0 f f 7 7 s f s 7 f f y f s 7 7 7 f G F h f s y 7 6 7 7 7 y 7 7 t y y S J ] o.f.f.f.f.s.s.X.H M 4 - - 4 < - ; - ; - 5 0 0 5 ; @ + ; + ; 9 9 4 - 0 0 < 9 S 0 0 S M q V H 0 q V V q J | 0 q 0 f J  . .J y y S V V D S D G Q 2.e.e.r.r.r.r.t.r.r.w.e.e.2.e.2.( L j j c c j d d c Q ( ;.;.;.;.~ I I c v I I I ~ T L c j v ~ ( ~ ( ;.2.;.( ( ) ( ( ( ( ( L j j Y L j k k h F ",
"l v v l l v ! ~ _ _ _ ( ! l z z z z l v l l l v ! ! Q ! v z c I P ) ) Q ( Q P P v v l z l P Q ~ ) ~ P c c P P P l P ! I v l j g z z z z z l l l v z g z g g g g g g g g g g g g z l c c z v ! ~ ( I I P d j P l z z l l l l z x g g g g g g d s g d s s g g g P s s g g z z c c v v I c z P ! v l P v d s l ! Q c j v ( ( I j d s j l l I ~ ! P P ( ( l g ~ 2.;.s d g g c ~ ~ I z z ~ ~ ( ( ) w.w.) 2.e.w.Q Q Q v v ;.2.2.e.e.;._ ) e.z g F z x F h 7 7 6 5 3 3 % % @ @ # @ # # + + + # @ @ @ - - - - @ @ @ @ @ - - - < < 3 3 3 3 3 3 4 4 4 5 8 q q 0 0 0 M y y V S S f g F F j j j F F j g d s f d F h y h F h f g g f s f f f g g d f h h s s z g f h h 7 7 0 s f f 7 7 y s s 7 7 7 7 y y 7 7 7 f h D h h f f 7 7 7 7 y y 7 7 t y f f y y H ] s.s.O.s.f.).f.X.` V 4 ; - < < ; 4 8 0 M 9 - + @ O @ @ 4 0 5 @ @ # 3 3 M S 5 3 4 + M K 0 q V K S q S S 0 S S D J | J K 0 0 V 0 S S y f G Y ) e.r.r.r.r.r.r.r.r.r.r.r.r.r.e.) j t k c Y I c c c c u ( 2.;.~ ~ I j u c ( ;.( I c j j v ~ ~ ( ;.;.( I c c v I j k j Y Y Y L L Y F t h k h D ",
"l v v v l l v P ~ ~ ( ( ! v l l d d z l l z v ! l v Q ~ ~ Q ( ;.( ( ( ! ) ( ! v v v v v v v ! ! ( Q P c c c c l g l v v v v I ! z l l l l z z z v g d g g g z l z z g g g g g g g z c l g z v ! ! ! ~ ~ z d l l l z l l l l l d g g g g g g d d d s s s d g l l s d g z v P Q ~ l g g d s d z l z v z s s z P P c l P ~ ~ P j d s l l l v I P P P P ! P l P ( ) g l l l c ! Q ! I ! ;.~ I Q ) w.w.Q ~ ~ ;.c ~ ;.( I 2.e.2.w.r.4.( 2.2.g d g d t z f 7 7 q 5 3 * % % @ @ # @ # # + + + # @ @ @ @ - - - @ @ @ @ @ ; - - < 3 3 3 3 3 3 3 4 4 4 5 8 q q 9 0 0 0 0 0 V S S f h F F j j F L L j d s t s f h h s f h h f s t s f f f f s d F F g s s g z s s h D s 7 f f f s 7 7 s s f 7 7 7 7 0 7 7 0 7 7 f f h f f f f y 7 7 7 7 7 7 f y f f f y y y M K ] | X.o.s.x.f.o.` M 4 - 4 4 5 0 0 q - @ @ @ ; ; - 4 8 < @ - # - - q M 5 # + 3 S S 0 0 S 0 q 5 q 0 0 S D S J J K S 0 0 0 0 S S y y S D L ) w.r.r.r.r.r.r.r.r.r.r.r.r.r.e.Q d t u j c c I I c v ~ ~ I I I c d d j I T I I Y T ~ ( I k k L I c j c T ( T j k j L j j k h F j k D h h h ",
"v v l v l l c v P P P ! ! P P ! l l v l z z l l z z v ! ~ ( ) ) ( I I v ~ P I v v v v v v v I P Q Q Q Q I P c l l c c c c ! ( ) l v ! ! ! v l l ! z d g d g z l z g g g g g g g g l l g d g c v z v v ! v j g g g z l l z z z x g g g g g g g g s s s d d z l g s d z P Q ~ ~ ~ c g g l g g l z g z g s s s g l c l l c l l l g s g c I I c l P Q F l l l z P Q P P l l c v v v ~ ~ e.I l L / 2.2.F l I I v ~ ;.( ~ ;.2.;.e.w.w.2.e.) l l s s = f 7 7 7 6 5 3 % * % @ @ # @ # # + + + # # @ @ @ - - @ @ @ # @ # ; - - 3 3 4 3 3 4 4 3 3 4 4 5 8 q q 9 0 0 0 0 0 V S S f h F F j l l L L l g s s f g h F h d f h g y 7 s g g f f f t F F f g g g s t 7 s h f s f f f s 7 s f f s 7 7 7 7 y 7 7 7 7 7 7 f f y 7 s h f 7 7 7 7 7 7 f 7 y f D D f 7 y y 0 V J | o.O.O.x.O.K 5 - 4 q 5 q 5 - # @ ; @ 3 - 4 4 - @ - @ 3 4 - - q 0 > - M S M 0 0 q 3 > M M H S V S S J K S 0 q 0 M 0 0 V V V y y f F ( e.w.r.r.r.r.r.r.r.r.r.r.r.e.) l d t s k c ( 2.2.;.v d v ( ~ c c I v c I ( ( I c d c v j c Q I j u j Y T L j j L L c W Y Y L D k f f y y ",
"! ! l l l l l l ! l l l P v l v z l l z l ! ! P v z l P ~ ~ ~ Q I l v l c d c v v v v l v ! ~ ~ Q ~ ( ( ( ( Q ! I ~ ~ I v P I I v ! Q _ ~ ! ! ! ~ l g z g g z l z z g g g g d s g l l d d d l v z l z z g d d z g z l z s s s s d d d d g g g j d s g z d l v s t d l ~ ) ( ! c g s d c c z g d d d g g s t s l d d g j g g j s d g c ! I g l ( 2.( l g g l l v P l j j l v v I v I e.I L Y ( ( ( f g ( v v ~ ;.I ~ ;.) ;.2.2.w.2.2.Q P Q d f 7 f 7 7 6 * 5 5 3 * % @ @ # @ # # + + + # # @ @ @ - - - - # # @ # ; - - 3 4 4 4 3 4 4 3 3 4 4 5 8 q q q 0 0 0 0 0 0 V f f f F L F k f k j j g d d g h h F F g f D h s 7 s g h f 7 F 7 f f t g z g 7 t 7 7 s f s s D f f f f f y 7 7 7 7 7 f 7 7 7 y 7 7 f f 7 7 y G f 7 7 7 7 7 7 5 7 f s f f D G G G G E |  . . .| o.] 0 4 5 q q q > @ > 3 - - 3 - - 4 - + ; 3 # @ - 4 - q M > - q S K M 4 > 5 5 M S J 0 0 K S y 0 0 0 0 0 0 q M 0 V V y S S f y Y 2.w.r.r.r.r.r.r.r.r.r.r.r.e.) k t t d j ) e.e.~ I Q ;.2.;.~ ~ v d u d c L c u d v ~ ~ ) ;.~ j k k j j k k L Y T I Y T Y k t t y y f f ",
"Q ~ P g g l l F F P P P Q ! P v l z l v l v Q _ ! l v ~ e.;.! ~ ~ v z c c v I ! ~ ! v z v ! I v v P Q l v l P v ! ! _ ) Q P P v v I ~ ~ ~ I v v l g g g d g z z g g g g g g g d g g l c d k c z g z I v g d d d z g l z s s f f g g g g g g g g d g g g j l g d s s g I Q ~ ! c g g d d z v z d d g z j g f d f g j g s g g P s d l c P Q P d U Q ! x g z z l g d g z g z v ~ d l I ! ! Q Q Q ~ Q c l v I ! ( ;.;.v Q e.;.;.2.) ;.2.~ ) ) l F h f 7 7 5 6 5 5 3 % % % @ @ @ # # + # # # # @ @ ; - @ @ @ @ @ @ @ @ - - 3 3 3 3 4 3 3 < 3 3 4 4 5 5 8 9 0 0 0 0 0 Z S f f D D h h h h s s l g t s g g l h s d h g s s t s g h f f h s 7 7 7 f f s 7 7 7 7 7 s s 7 y f f f f f f 0 7 7 7 7 7 7 0 0 7 y f f 7 7 7 7 f s 6 7 0 0 0 q 6 6 7 f f f h D G h f h 2.~ ;.) D E E U D E  .o.K 0 > + > 4 - 4 < < - - @ @ @ @ - - - - - 3 4 4 5 5 5 M K S q 5 J S V y S S S 0 q q 0 0 0 0 0 0 0 0 0 y V S S S D E 2.w.r.r.r.r.r.r.r.r.r.r.e.e.Q k t t j ) ;.;.~ ;.;.~ v I ~ Q I ~ Q ~ ( ~ ! ~ Q c l I Q ~ L k f y j L P ~ ~ L Y l L F k k f y f G R U ",
"Q Q l g g l l l F F P P ! ! l l l l P ! v l P ! ! P Q ;.w.e.) ) ) ~ ! ~ ! ! ~ ~ ~ ! v v v I P l l v P g l z v l Q Q ( ) ~ ! I v l l v v c g g g v z z z d g z z g g g g g g d d g g l k d g l g z l I v g d g d v l v z g d f f g g g g g g j j g g g g j l g d d s d l l c v c d d d d g c c z g g z g h j k f g l g d j l ( v l ~ ( ~ ) ~ h F h F l Q ( Q Q ! z g z g z ! ) ! ) ( ~ Q Q Q ~ ( ( I c v c c ~ ) ;.Q ~ ;.) ( ;.) ) ;.( e.w...Q s f 7 7 5 5 5 * * % % % @ @ @ # # + # # # # @ @ ; - @ @ @ @ @ @ @ @ - - 3 3 3 4 4 3 3 < 3 3 4 4 5 5 8 9 q 0 0 0 0 0 0 0 y f f f h g g s s l g s d g g l h d f h f t 7 7 s f h f f s s 7 7 7 s s s 7 7 7 7 7 s y 7 7 s f f f f y 7 0 0 7 7 7 7 7 0 f f f f 0 7 7 7 f f 7 7 0 0 0 q 5 6 7 f s s f f f s y F e.2.2.;.^ (  .) ( ......o.` S q 4 @ # 5 < < - - @ @ - @ - - - - - 3 3 4 5 3 - 4 q 0 M S S S y 0 y y 0 q q q q q q q 0 0 0 0 0 0 y y y y 7 D ^ 2.w.r.r.r.r.r.r.r.r.r.w.e.w.( l t d L c v ;.;.~ z d v ( ;.;.;.;.~ Q c v ~ d s g P P L j f f f L ( ~ ~ Y j d t t f f h h f h U R U ",
"~ ~ P g l P F l F F F ! ~ ! l l l P ~ _ ! v ! ! ! ! Q ) e.e.( ( ( ~ ( ) ( ~ ~ ~ ~ ~ ~ ~ ! ! I v v P P g l z P v ~ Q ~ ( ~ ! v c l l l z g d d g v v v z g g z z g g g d d d g g d d g k d d k g z v ! v z g l z ! P v l z g f f g g g g g j j j j g d d g j j k g d g g d g c c d d d d d z v v v z g g j L F j j L l g l P 2.) P ;.e.~ ( ( j d g z l ( ( ~ ) e._ ! ! z c ! ;.;.) ~ I ! Q Q ( 2.;.Q P c g g v ~ ) ~ ( ( ~ ~ ) ;.;.;.~ 2.w.w...h y 7 6 * 5 5 * * % % % @ @ # # # + # # # # @ @ ; - @ @ @ - - @ @ @ - - 3 3 3 4 4 3 < < 3 3 4 4 4 5 8 q q 0 0 0 0 0 0 V f f f f h f g s s l g s d h F P F h h h f t t 7 y f g f f f f 7 7 7 s s s 7 7 7 7 7 y y 7 7 0 f f f f 0 7 f 0 7 5 5 q 7 7 f f h f y 7 7 7 f f 7 7 0 7 0 q 5 6 7 y 7 7 0 s s s 7 h ( 2.2.2.;.) ) ;.2.2.2...O.o.o.` S 8 @ 4 < < - - - - - - - - - - - > 3 4 4 3 > > 4 5 0 K S V 0 0 0 0 q 5 5 q q q q q q 0 0 0 0 0 0 y y y 7 S / ..e.r.r.r.r.r.r.r.r.r.r.w.e.~ k t f l I ~ ;.;.;.;.) ( ~ I T ~ L j k t d l t t h F h f y t f f Y ( ( ( Y k t t d f f f h h l Y / Y ",
"( ( P l P Q P l l l F ! ~ P z l l ! ) ;._ ! ! ! v v v v ) 2.~ ! ! ! ( ;.) ~ ~ ~ ~ ) ) ( ~ ~ I v P P P g l l P P ! Q ! ! ! v j g l l l z j l c v ! v v l g g z g g g d d s d g g d d g d d d k g l v ! v z l v l P ! v z z g f f d g g g j j l l j g s t s k g k l l c v j j c c g g g d d g c v v z d s j Y I P l Q P l v P e.;.~ 2.e.! ~ ! g d g g z ! ! P ) e.e.( _ v v v ;.e.! g z Q ~ ~ ) 2.;.~ v c g d v ~ ( ;.;.Q ( ( ( ;.( ) ( ..e.w.e.U y 7 6 * * * * * % % % @ @ @ # # + # # # # @ @ ; - @ @ @ - @ @ @ @ - - 3 3 3 4 4 3 3 3 3 3 4 4 4 5 8 q q 0 0 0 0 0 0 0 0 7 7 7 f g h s s z g s s l ! Q U F F h h s s s f f f f y h f y 7 7 s s s 7 7 7 7 7 7 7 7 7 7 s f f s y 7 f 0 7 5 5 5 5 7 7 f f f 7 7 7 7 7 f 7 7 7 7 0 q 6 6 7 y 7 6 7 7 f h s f f Q ) 2.;.~ I ~ ;.( (  .o.o.O.O.X.K 5 3 < < - - - - - - - - @ @ - > 3 3 3 4 4 4 4 4 q S V V 0 0 0 q 5 5 5 5 q q q q q q 0 0 0 0 0 y y y y D ^ ..e.r.r.r.r.r.r.r.r.r.r.w.e.Q g t y k v ;.;.~ ! ! v c s t L j u t k k f k f f f h 0 7 7 0 y f L ~ ~ ( ~ l g g Y L y t y D F Q Q I "
};
