/* XPM */
static char *af5c2acb305a4115ee9539d506f8b76cxreqNUIoMOKytHUm[] = {
/* columns rows colors chars-per-pixel */
"256 256 256 2 ",
"   c #1A1B1A",
".  c #26261B",
"X  c #342B1B",
"o  c #292A24",
"O  c #2D3127",
"+  c #37362A",
"@  c #3A3A34",
"#  c #322D26",
"$  c #211F1A",
"%  c #443C30",
"&  c #41301B",
"*  c #3D4237",
"=  c #474639",
"-  c #544C3A",
";  c #58533B",
":  c #49442D",
">  c #65563B",
",  c #72693C",
"<  c #4A4A44",
"1  c #534D45",
"2  c #585648",
"3  c #5C5C53",
"4  c #585956",
"5  c #4E5149",
"6  c #645C49",
"7  c #635D55",
"8  c #6C4F48",
"9  c #5D6258",
"0  c #5E614D",
"q  c #69644B",
"w  c #64645C",
"e  c #6C6A5C",
"r  c #686556",
"t  c #736B59",
"y  c #79745A",
"u  c #746B4C",
"i  c #6C6B64",
"p  c #686966",
"a  c #736D65",
"s  c #6D726A",
"d  c #74736C",
"f  c #7C7A6C",
"g  c #787567",
"h  c #7C7B74",
"j  c #7C7D7A",
"k  c #767674",
"l  c #6E7072",
"z  c #5E5F62",
"x  c #404043",
"c  c #837859",
"v  c #837052",
"b  c #837B69",
"n  c #827D73",
"m  c #847D79",
"M  c #91796F",
"N  c #7E8179",
"B  c #7E816C",
"V  c #8E845B",
"C  c #898469",
"Z  c #958B69",
"A  c #848274",
"S  c #84837C",
"D  c #8A857B",
"F  c #8C8A7D",
"G  c #8A8775",
"H  c #938B79",
"J  c #98937A",
"K  c #99936C",
"L  c #A49A78",
"P  c #A39070",
"I  c #AEA37C",
"U  c #7B7D82",
"Y  c #837E83",
"T  c #7E8385",
"R  c #848583",
"E  c #8C8B84",
"W  c #8C8C8B",
"Q  c #878785",
"!  c #928D84",
"~  c #928E8B",
"^  c #978A85",
"/  c #8D918A",
"(  c #949285",
")  c #9B9484",
"_  c #94938C",
"`  c #9A958C",
"'  c #9C9A8C",
"]  c #999988",
"[  c #8B8C92",
"{  c #928E92",
"}  c #8E9394",
"|  c #949493",
" . c #999693",
".. c #969994",
"X. c #9B9A94",
"o. c #95959A",
"O. c #969A9B",
"+. c #9C9C9B",
"@. c #99969A",
"#. c #A29C8C",
"$. c #A49B86",
"%. c #A29D93",
"&. c #A29E9B",
"*. c #A99B95",
"=. c #AA928B",
"-. c #9DA19C",
";. c #9DA196",
":. c #9EA18C",
">. c #A9A389",
",. c #B4A98A",
"<. c #A4A295",
"1. c #ABA494",
"2. c #A3A29C",
"3. c #AAA59C",
"4. c #ACAA9C",
"5. c #ABA996",
"6. c #B4AB99",
"7. c #B8B39A",
"8. c #B4B193",
"9. c #9C9DA2",
"0. c #989BA5",
"q. c #8F98AE",
"w. c #A19EA2",
"e. c #A49EA7",
"r. c #9DA1A4",
"t. c #9DA3AB",
"y. c #9BA7A8",
"u. c #9DA6B5",
"i. c #A3A3A3",
"p. c #AAA6A3",
"a. c #ABAAA4",
"s. c #A4A5AA",
"d. c #A5A9AC",
"f. c #ABABAC",
"g. c #A8A7A8",
"h. c #B2ADA4",
"j. c #B2AEAB",
"k. c #B7AAA5",
"l. c #AEB1AA",
"z. c #B4B2A4",
"x. c #BBB4A4",
"c. c #B4B2AC",
"v. c #BAB5AB",
"b. c #BCBAAC",
"n. c #BAB9A7",
"m. c #A5ABB3",
"M. c #ABADB3",
"N. c #ACAEBA",
"B. c #A4A8B5",
"V. c #B2AEB4",
"C. c #ADB1B4",
"Z. c #ADB3BB",
"A. c #A9B5BA",
"S. c #B3B3B4",
"D. c #BAB5B3",
"F. c #BCBAB4",
"G. c #B3B5BB",
"H. c #B5B9BD",
"J. c #BBBBBC",
"K. c #B8B7B8",
"L. c #C4B799",
"P. c #C3BBAA",
"I. c #C2BDB4",
"U. c #C2BDBB",
"Y. c #C8BBB6",
"T. c #CDB3AC",
"R. c #C09E91",
"E. c #BEC1BB",
"W. c #BFC2AC",
"Q. c #C9C3AA",
"!. c #C4C2B4",
"~. c #C4C2BC",
"^. c #CAC5BC",
"/. c #CBC7B8",
"(. c #D3CBB9",
"). c #D8D2BB",
"_. c #D4C9AB",
"`. c #DED0B2",
"'. c #ADB5C4",
"]. c #B3B6C2",
"[. c #B5BBC3",
"{. c #BBBDC3",
"}. c #B5BCCA",
"|. c #BBBECA",
" X c #B8B7C3",
".X c #B2B8CF",
"XX c #9AA9CD",
"oX c #C1BEC5",
"OX c #CEBEC7",
"+X c #BDC1C5",
"@X c #BDC3CB",
"#X c #B8C3CB",
"$X c #BDC4D2",
"%X c #BCC7D5",
"&X c #B4C9D2",
"*X c #BAC9E3",
"=X c #C3C3C4",
"-X c #CAC5C3",
";X c #CCCAC4",
":X c #C3C5CB",
">X c #C4C9CD",
",X c #CBCBCC",
"<X c #C8C7C8",
"1X c #D2CDC4",
"2X c #D2CECB",
"3X c #D7CBC6",
"4X c #CED0CB",
"5X c #D4D2CC",
"6X c #DBD5CC",
"7X c #D9D5C7",
"8X c #C2C6D2",
"9X c #C4CAD3",
"0X c #CBCDD4",
"qX c #C5CCDA",
"wX c #CBCEDA",
"eX c #C5C7D6",
"rX c #D1CED5",
"tX c #CDD1D5",
"yX c #CCD3DB",
"uX c #C7D2DA",
"iX c #D3D3D4",
"pX c #DAD5D3",
"aX c #DCDAD4",
"sX c #D3D5DB",
"dX c #D5D9DD",
"fX c #DBDBDC",
"gX c #D8D7D9",
"hX c #E3DBCB",
"jX c #E2DDD7",
"kX c #E9D4D3",
"lX c #DEE1DA",
"zX c #E3E2DC",
"xX c #E8E4D8",
"cX c #EDE6D2",
"vX c #CDD5E2",
"bX c #CDD8E5",
"nX c #D2D6E2",
"mX c #D4DAE3",
"MX c #DBDDE3",
"NX c #DBDEEA",
"BX c #D5DBE9",
"VX c #CCD3E9",
"CX c #E1DEE3",
"ZX c #DDE1E5",
"AX c #DCE3EB",
"SX c #D7E2E9",
"DX c #DCE5F2",
"FX c #DEF0FF",
"GX c #E3E3E4",
"HX c #E3E5EB",
"JX c #E5E9EC",
"KX c #EBEBEB",
"LX c #EAE8E5",
"PX c #E6EAF3",
"IX c #ECF2F8",
"UX c #F3F1EF",
/* pixels */
"i.9.9.+.| | X.X.i.i.i.f.i.f.c.J.+XJ.S.~.@X:X$X|.#X|.eX8X@X'.'.].].'.}.}.].Z.G.:XfXgXiX2X(.H q (.1X,XaXMXHXMXiX;XJ.G.M.N.M.G.M.C.s.g.+.+.X.+.` _ ` z.~.5X5X5X,XwX0XW Q 8X{.|.[.{.{.#X@X@XuXbXvXbX@XC.c.<.) %.` _ _ ....+.+.+.` g b 2 ; ; y c c y c y c c c c y V c c Z Z K ,.#.] ] %.+.g.g.r.s.-.9.s.-.C.8XmXyX|.B.r.+.+.+.t.Z.N.s.k < { o.d.s.s.9.s.9.i.+.............X.+.+.X.-.i.+.+.+.+.2.i.X.X.| _ / X.X.+.+.| _ _ X...| W _ | ..o.+.....+.r.-.+.9.9.B.].[.@XG.H.H.M.A.Z.@X0XnXsXBXsXsXsXmXvXeXqX#X|.#X,XoX:X:X=XJ.S.S.g.f.d.",
"i..._ _ D E ( ( _ +.X.p.p.2.2.3.2.f.a.b.F.G.G.[.G.].N.M.f.M.d.d.s.s.t.m.N.G.f.3.F.5XfX5X^.x.C !.~.=X,X8X8X=XS.K.K.G.N.N.M.f.f.i.+.X...X.' J C C $.4.c.~./.;XeXsXh J b M.yX:XS.i.m.g.M.[.qXqXyXvXqX$XJ.K.4.#.` ` ..-.w.s.s.i.X.b H G Z Z C J L ,.Z >.L P >.I ,.,.,.,.,.>.>.$.6.P.1.$.' <.i.g.i.g.+.s.t.s.].tXuX|.}.M.f.+.Q W i.d.i.l = 2.&.@.| | ..{ | _ E W | | | | | ` | w.i.2.i.g.+.+.~ E E W _ E _ X.2.X.9.9.i.r.+.| _ _ E E E E E W E E _ @...-.m.N.'.}.#X8X>X:X>X9X8XuXnXmXZXHXNXwX:XV.N.N.'.'.[.}.#X#X9X:XH.S.s.i.i.+.i.i.",
"d.i.2.2.2.2.+.+.X.2.2.p.p.i.2.' @.+.2.<.3.j.g.S.f.f.j.f.p.i.i.i.+.r...M.Z.M.g.2.] 4.p.I.v.b.7.4.K.M.s.M.S.K.a._ | M.Z.m.m.s.m.s.d.g.i.2.#.b y c b H 4.J.=X=X8X8Xg t t -.N.].i.h.OXoXH.Z.B.B.t.M.{.:X XG.S.i.' ) ! _ o.O.i.a.>.$.$.K L L L ,.7.6.8.7.7.8.8.8.!.P.v.!.^.I.P.x.x.I.b.P.h.U.=Xf.e.d.f.s.s.t.t.s.].8X%XZ.f.@.E F _ X.&.k @ i.&.2.+.X.X...| _ ~ E X.+.X...| ( X.X.| X.X._ X.~ _ X.] X.X.X.+.2.i.i.+.i.r.r.-.+.+.+.] ( ( ! ( ] ! ] _ ` +.f.d.Z.}.#X8X8X8XyXmXmXmXvXyX9X0X0XyX@XH.f.s.s.m.A.'.}.}.[.[.9X@X#X[.[.[.S.M.d.",
"Z.H.M.g.2.g.f.j.f.c.g.i.f.f.f.l.f.f.i.%.a.&.3.p.2.p.2.' ' +.2.i.i.i.a.C.{.J.a.<.5.1.' 4.v.%.P.<.g.o.o.O.+.+._ X.Q s.y.r.r.O.s.C.G.G.f.X.H + : % 6 L $.j.S.+.d.W e y b G n H G C 6 q J F E F G G J _ X.M.f.g.3.b 2 7 i.l.c.7.5.1.1.,.,.,.,.L.P.P./.1X6X1X;X1X;X;XI.1X5XiX~.;X^.5X1X!.Q.6.h.h.D A ( X.| W } o.Z.|.$XZ.f.3.H G G G ( e + j R W ..O.+.s.s.r.O.` +.X...X._ F S E F A S A S S E / E ` _ ` | _ | X.| | ~ W | W E ] ( ( ( ] E ] ] ` | ..+...O.9.m.Z.}.[.$X%X%XqXqX8X9X:X}.Z.N.N.M.s.f.f.d.m.M.].].Z.s.m.M.].[.|.#X+X[.Z.",
"d.d.f.f.i.i.+.+.+.X.X.2.i.i.i.M.f.S.M.i.` %.%.2.i.2.2.%.<.2.i.i.+.&.f.M.w.p.%.$.6.1.L P.$.( 4.<.+.s.r.X.| _ E ` | r.r.+.+.+.X.+.i.i.3.) - : = y c J J ( ] ~ ( H G f y t q q 6 - r f f r t G J ) ) ) ' %.f.p.2.g y B a.f.v.6.6.n.P.P.Q.Q.P.P./.5X5XiXtXyXsXsXfXiXtXH.r.G.wXgX,XsX0XiX(./.P.P.P.>.y q f D E W [ O.B.A.M.a.] ( J ( ] g @ 3 +.f.i.+.+.9.+.+.i.2.X.+.+.+.2.+.] ' ] ) X.X. ._ _ | X...X.| X.` _ ` _ / ` X.X.i.+.X.X.' ` X.X.+.+.X.+.-.X.i.s.d.d.t.N.'.}.}.$X$X$X%X$X@X#X'.'.Z.H.S.f.M.f.g.f.M.G.J.M.i.s.M.M.f.f.f.M.G.",
"S.f.i.i.i.i.f.2.a.a.a.S.f.i.i.i.i.i.g.i.X.%.+.+.+.2.2.&.i.p.i.+.i.2.&.&.' 1.<.<.L J C C $.F ! ' E | 9.i.' ] _ _ _ O.o.| ` ( D ! D D 6 6 q q 2 q u b b b a t 6 6 6 ; ; - : + + + * = : = 1 : = = 2 k ! ! A f h <.z.n.D.x.n.z.F.>XGXGXfXlX5XfX:XsXtXZ.{.qXNXnX9XyXwX8X8X{.S.:X0X9X0XsXaX,X5XiX5X-X!.$.r 6 1 7 A _ | ..s.@.Q E ! ` ' D 1 2 X.&.&.+.s.g.i.i.+.X.@.+.9.i.i.X.%.<.%.+.i.i.i.s.g.g.-.2.+...2.| | X.2.X.2.i.&.&.+.` / ( E ( E E ! ~ | X.X.` X.+.9.r.s.N.m.Z.@X}.|.Z.m.Z.Z.m.M.M.d.G.K.G.J.{.{.:XK.M.f.g.2.a.g.f.f.J.H.G.",
"+.+.X.X.X.X.` ` ' _  . . .@.+.i.g.+.+.+.%.<.] ` _ ] ` X.' %.%.%.+.+.` ( ' ( #.>.L L >.>.1.H y C G _ ../ D A f A A S E ] <.>.) J $.J K c u c y u q : : : : ; ; q q r r 0 3 2 ; ; ; 2 q r r q e y q 2 6 t f ] 5.7.n.n.P.P.U.{.].|.0X0X8X0X0XyXqXqXwX}.tXm.C.M.G.[.].N.M.g.f.S.G.|.}.9XJ.,X+XtXsXsXiX6XL.L Z y 7 = 4 p w < 1 3 g n A A y 2 e D _ ' _ E | +.+.X.` 2.2.X.( ] ] %.2.2.g.f.g.M.f.i.2.+...@.2.X.+.+.i.2.2.+.+.+.X.| _ W ! _ ! ( E ~ W ` @.| @.+.9.9.r.9.s.M.G.M.B.B.t.s.t.d.d.M.s.i.f.M.f.f.f.9.i.s.g.i.2.2.2.p.f.s.i.9.",
"f.f.i.2.+.+.2.2.2.+.%.1.5.5.3.f.i.f.i.p.a.<.<.<.' ' ' +.` ] G G F ! ( ' ( >.>.) #.<.1.J #.` H $.G G ( 2.l.n.4.4.4.a.~.~.4X1XaXaX7X/._.L.,.L.L./.7X!.5.J C Z Z Z K Z G C C b c y y b C H Z u C C C F J $.#.6.,.P.P.Q.P.6.3.-X:X$X$X'.N.N.M.Z.Z.B.B.B.m.r.O.+...-.s.M.{.:X:X{.Z.Z.@X@XG.M.m.Z. XeX}.9XrXK.%.1.H q 2 2 w g f h g g n t ; % - % A A G E _ X.X.+.&.| _ X.` %.<.<.<.<.X.+.+.i.9.9.+.+.+.+.X.` _ _ ~ _ | +.@.| | +.+.@._ &.<.X.X.X.X.X.+.X.+.o.+.+.+.+.+.i.9.r.9.0.9.r.r.+.9.f.f.i.i.i.i.i.s.i.&.&.+.-.-.+.;.2.-...-.s.",
"Z.C.S.C.C.M.C.G.M.d.i.X.' X.9.9.o.+.+.2.+.X.X.' ' %.4.g.s.i.4.z.4.3.<.1.<.1.>.$.#.6.x.$.J q J !.!.E.,X,XtX,X4X-X;XaXGXMXMXZXHXMXHXLXzXxXcX7X7XzXLXHXHXzXzX_.,.L I L ,.I P Z K I >.I L L J Z L P $.3.#.#.J >.7./.aXKXzXQ.8./.iX8X$X'.M.9.Q W W W Q / _ _ X.2.3.a.s.M.N.d.S.K.K.s.+.9.+.i.s.d.s.d.B.g.| &.S.F.b.8.C b b f A F ! J b c c y q ; 2 H ! E E W E F E F D H G H ` ` X.E E | O.r.r.+.+.@.| _ _ _ _ ~ ( E _ | |  .X..._ / E R E S _ ` ` ` _ W ` _ _ | _ _ E ....o.o...| | +.+.../ +.+.+.+.+.-.+.O.o.o.+.....+.2.-.r.i.r.s.",
"G.G.N.Z.[.@X8X#X[.Z.C.f.l.f.g.+.9.+...+.-.i.i.X.X.2.g.f.l.S.D.D.D.k.h.#.$.J Z J J b r 1 2 1 z.v.+X{.:X@X8X9XsX,XtXdXtXdXMXGXGXMXHXHXGXzXzXxXzXGXZXAXAXZXHXLXzXxXhXxXaX6X(.Q.,.I I I L P L L P P K L Z L L 7.(.5X9XBXDX:XgX,X@X].'.#XA.Z.d.9.O.+.+.s.f.V.C.C.G.].M.r._ Q ` %.X.` ] _ H _ _ X...+.i.2.h.j.K.G.G.N.p.1.H H ! ] 1.$.J Z C c u t q 7 H E E ( ' <.%.%.#.#.$.X.X. ._ E ` +.+.O.O.O.O.....| | | ` W ( E E E ~ ~ / ` ..`  .` | _ _ _ _ _ _ _ _ W _ ` | _ _ ` | +...+.+.+.| | r...2.X.+.+.+.0.t.s.d.d.s.+...+...+.+.s.M.Z.",
"G.{.{.{.H.d.9.+.+.M.Z.d.M.M.d.s.r.i.s.s.g.f.i.2.i.V.S.J.J.F.p.1.H c u u > C >.) n.n.:.y > G z.f.G.{.{.].}.8XyXtX9X9X:X@X8X9X:X:X0XtXfXKXGXGXGXGXfXyXyXsXZXHXHXGXGXGXGXGXzXxXhX7X).Q.L._.).(.Q.7.,.L P K >.^.5X0X8X%XbXvXqXBXJXnX@XZ.t.o.} O.s.d.m.M.M.9.O.+.r.r.+.i.2.E f f f C J G J ! ( X.E E _ X.X. .| @._ W ~ 3.1.J J ( 4.4.4.5.$.Z C c u 6 - f F ! ( ( ! Q E ` ` _ _ W ! Q D R W W W W Q W Q W { _ _ X. .` X. ._ _ E E E _ ~ E _ ~ _ ~ ` _ _ X.&.2...| / | &.+.&.s.i.i.r.9.+.| ..i.+.i.f.V.M.G.H.s.M.C.s.+.+...X.i.s.i.d.M.",
"..W _ _ W W R N N Q Q W Q W { { { | { ~ | @._ ] 2.i.w.i.i.%.) C Z V ,.Q.7XxXxXUXIXIXPX;X; 6.z.f.f.f.S.G.Z.Z.H.{.G.d.M.K.M.G.H.H.G.].G.{.rXMXM.MX0XwX9X9X8X0XiX0XiXsXMXfXfXGXGXHXHXLXKXLXzXxXxXjXhX).L.L >.-X2X0X8XuXqXbXbX.XyXSXPXPXPXwXG.&.S N W W X.2.h.h.D.-X<X-Xh.#.H C b b b A t y F ` ` W ~ E A y g b C #.1.1.1.J 1.~.~.~.;X~.v.5.L L Z Z Z C C C C y u ; : : % = = < @ @ # o o # # + 2 % . . o @ @ @ @ O o O @ < @ O o o o + % 2 3 i g n S E E ~ W / | | | _ | | | | _ | | | / W W W Q Q Q Q { | ~ W ~ } _ / | _ | o.+.+.",
" .` ' :.4.c.M.S.s.Q = < = @ @ o o o O # # + # o @ o     : n.).(.6XxXCXCXZXPXNXnX|.eX<X! ( x.c.S.M.f.c.H.{.{.G.:X{.C.f.g.i.s.M.f.f.M.M.M.H.0Xj | +X:X{.G.H.+X+X0X9X:X:X=X,X,XiX0XmX .S.LXjXzXLX2XzXaXhXP.6.~.,X0XwXqX|.qXyXIX$X#X|.:XM.o.+...+.g.H.J.~.;XgXsXZXmXmXfX^.1.,.>.J J >.>.J A f g G ( ] ' J C Z Z K J $.$.J 1.K.0XiXrXwX,X,XU.(.Q.8.,.,.,.,.,.8.,.8.8.L q % = + : * : : - = + + % + - = - = = = . . X . . . . . . o X o # # + : % q b b A A H ] ' <.3.h.c.F.E.E.~.~.~.F.S.M.g.&.+.W k w w 4 = @ @ @ < 4 w d S W / E ( ",
"6X5X6XfXMXNXnXqX|.d.4 3 2 2 5 5 5 - = = + : + + o   w 7X6XzXaXfXKXHXdXnXnXvXvXyX|.f.! A ^.^.<X,X,X=XF.M.{.:X:X{.J.S.p.p.2.g.g.i.2.g.i.f.d.C.s.a.~.+X+X@X9X>X0X:X:X=XE.=XU.K.K.H.0Xb.S aXgX0XsXmX{.mXfXzX^.~.J.+X@X8XqXqX[.>X.X'.:XV.p.( ] | 9.-.s.S.J.@X0XwXbXBXbXyXgXaXaX5X5X;X^.~.^.~.!.!.n.5.6.7.7.n.P.n.b.n.I.1.K b 3.D.V.G.d.M.M.:X,XiX-X7.7.8.8.7.P.P.P.Q.(.Q.Q._.Q.7.>.>.>.) H H B 6 - r y y f y C y y y C y u u : : : : : : ; ; >.,.>.1.6.1.>.8.x.x.x.P.!.^.-X2XrXpX5X5XpXsXsXiX0XtX+XJ.g.i.;.N 0 w i f ( 1.z.h.v.I.1X(.",
"GXHXHXKXMX:XM.o.} p l j h d A F E ! ! F ! y - : : E gXsXsX0XsX0XdXsXsXsXwX8X{.d.o.A q F.sX<X4X,XwX,X,X+X+X+X{.H.G.+XJ.j.a.3.2.3.a.+.2.2.i.d.G.c.H.:X@X9XqX9X+X].H.J.~.U.=X~.J.J.K.I.a.+X=X{.{.:X:XqXnXsX0XF.J.>X8XqX%X|.8X#X.X%XG.3.D.c.<.D h h R W +.B.Z.G.A.}.qXmXmXfXmXBXsXdXsXdXMX0X:X;X^.1X(.7X6XaXMXyXqXmXsX~.Z c C %._ @.&.@.+.+.s.oXrX7X(./.Q.P.(.~.;XiXaXaX5X1X;X5X;X;X^.I.4.4.4.6.$.$.1.5.7.6.7.7.8.8.6.8.8.,.,.,.>.L C C J 6.P.Q.Q.!.!./.n./.(.^.6X6X6XaXfXfXfX,XaXaXfXmXmXmXnXNXBXMXwX{.i.( J >.7.W./././.;XzXGXpXF.",
"sXNXoXM.V.9.9.p 2 p j ` h.n.b.F.F.F.F.I.v.5.Z 6 ^.=X:XJ.K.f.M.{.G.V.g.s.@. .m m f f H =XMXZXfXsXHXZXgXiXJ.:X:X@X:X:X=XE.c.a.h.b.c.f.2.2.j.i.s.f.f.Z.|.}.$X:X:X{.M.K.g.2.S.F.S.K.K.i.K.>X,X,X:X,X<X@X}.@XNXJ.C.{.0X8X8X#X$X%X#X$XwXr 7 4 p 2 w l F ;.g.+XdXyXtX9X:XtXNXdX>XdXsXiXiX0XwX:X,XpXaXaXpXjXfXzXfXHXAXPXgXI.$.8.>.A S n b D 3.p.f.j.J.U.U.-XY.U.F.~.J.G.{.:XG.:X:X:X:Xg.| R ~ c.D.D.z.7.1.v.v.Y.I.W.^.^.^.^.I.I.Q.!.P.7.7.Q.F.D.~.=X=X;X,XiX5X5X5X,X:XdXsXgXfXfXZXmXdXMXdXyXnX0XoX8X{.G.{.~ h.I.I.-X5X0XdXdXsX:X8XwX:X[ ",
"&.i.@.E n - : A 4.=X-X~.!.!.~.-X;X;X-X-X~.~.!.3.2.9._ Q W _ .._ ! F D A 2 2 w f Q ( ' f.J.dXGXMXHXGXGXGXfX+X+X@X>X:X+X0XJ.p.a.p.i.2.2.<.%.2.X.-.f.g.M.H.H.#X+XK.K.j.f.p.a.i.f.S.{.S.H.{.:X:X0X9X0X:X}.#XeXM.J.[.'.$X8X@X@XeXqX}.'.{.a 7 w w i k _ i.[.tXsXdX9X=XK.M.i.s.M.{.:X:X:X|.=X=X=XgXaXzXaXaXaXzXzXLXzXGX1X5XgXaXaX~.c.J 6 ; 2 2 i h A D D D S S Q E W W { | @.+.i.+.Q R E D Q W +.&.*.6.6.v.J.J.{.{.J.{.=X=X-X~.-X,X=XU.~.-XJ.f.i.s.i.i.i.S.,XMXfXsX:XoX0XsXMXHXMXdXNXnXwX9X+Xg.X._ / W E E D.oX<XG.d.9.9.s.M.d.@.o.@.` ",
"f g 2 2 1 g p.;XsXdXsXgXiXsXsX,X,XJ.,X=X,X:X0Xa.E S E E A g w 4 % . o $ # 3 p j Q X.] 3.S.dXMXMXMXMXHXMXfXHXMXsX0X0X0X9XiX=Xi.g.2.2.<.<.' ' ) 2.z.S.M.g.s.G.E.c.S.K.F.a.p.g.i.f.s.C.Z.].{.8X9XuXqXeX$X|.M.R C.G.@X}.9X8X:X8XeXuX%XXXM.1 e i p g / C.[.qX|.0XeX8X{.g.&.&.| O.+.s.f.{.tX>X:X0XgXgX7X7XaXiX,XsXdXjXlXSXDXBX0XZXdX5X4.g 2 2 2 - % + + + o O O # @ < 2 w r s p p 4 = + o = = 1 w ^ 6.z.F.K.M.u.A.r.r.t.9.s.g.d.M.d.M.G.H.S.2.W W R S S W @.&.<X,XJ.i.p.p.i.g.V.H.G.N.d.[ R h g i w 2 4 7 p l Q o.| @.~ ~ | _ ~ W ! D ",
"3 e B A ] 2.J.iX0X0X<X:XwX:XyX:X{.:X+X8X:X:X:X=Xf.X.S i = @ @ @ O o o O . 2 p Q _ ' ( %.c.@X:XsX9XvXAXZXZXCXNXnXvXyXuXyXmXmXgX-Xp.g.f.l.<.) J ] ] +.+.p.i.i.i.i.K.{.F.S.J.S.M.S.f.m.Z.G.N.].G.C.Z.$X8XG.~ W f.H.|.@X@X8X@X$X@X9X%XXX%X# - 2 d A h +.d.].B.M.B.M.s.i.f.J.J.f.i.c.>X0X:X{.{.,X5X3XP.1X5XwXmXmXNXHXPXBXDXIXIXIXvX8XtXs a r g 2 6 6 6 ; ; - - 1 1 - - - - - 2 2 2 q ; + ; ; u & H H p.M.M.d.d.0.s.N.m.M.M.g.M.d.M.N.s.s.+.W _ E h d p 7 r f R Q m m m h A D f r 4 4 1 < < @ = < 5 5 2 5 2 w w 3 5 4 2 = + o + = = < ",
"F ] <.5.4.~.=XH.@X[.{.{.]. X].}.:X|.@X$X8X#X8XyX>Xc.-.S a w 4 + O o O # # = p d / 2.4.<.i.H.{.0X0X%XqXtXdXMXMXAXBXnXvXvXvXuXyXZXsXS.+.+.+.%.' ) ] ' X.<.' %.3.a.p.i.a.S.J.K.C.M.C.G.H.{.N.m.Z.G.H.s.{ j S X.S.[.8XqX8X8X$X%X%X9XqX%X'.{ % 3 i S A i.H.s.o.i.f.l.c.F.S.K.K.J.,X,X,X:X:X,X,X,XI.<.z.;X:X0XMX:X.XqXqXVXPXDXAXqX*X'.}.2 6 C y C Z K Z Z K C C f b b C C b c c C Z H ] >.8.>.L y ; 6 2 k Y Q Q Q | t.].].d.d.H.S.f.3.X._ | _ F A g r p w 4 < < = @ = = = < < 2 2 2 4 w w 4 3 3 w w r e f S F S S k d w 3 2 2 3 e s f ",
"a.z.c.1X,XsXdXsX9X$XG.C.M.M.G.s.m.].A.#X#X#X}.|.{.K.c.2.' J D d . O + + # . @ p h ..2.] 4.f.H.G.}.}.qXyXdXyXMXNXAXSXBXSXBXnXyXnX9X=XS.i.+.<.4.2.2.i.i.i.2.2.X.X.X.X.#.&.g.c.S.f.M.M.d.M.N.Z.Z.|.M.&.n g ;.M.H.@X8X8XeX9X@X$XeX9X8XqXu.MX@ 2 d Q A E C.0XsX>X{.=XF.I.!.b.v.5XaXiXgX,X;X;X5X;X;X^.K.C.0XnX,X X]..X%X}.%XqXnX8X$X}.m.2 y g $.7.x.P.h.z.x.b.v.5.>.J J L 5.7.<.6.z.!.-XF.F.v.z.z.5.J 6 6 r 2 5 2 A E Q W ! ) F H Z J 5.x.I.I.a.#.H b y r 3 2 1 = 1 < 2 2 3 3 w i s d l l s s f A A F ] <.<.<.<.' _ E F F F ( ' :.<.4.",
"~.U.~.=X:X>X@X#X8X8X#Xm.m.m.m.M.o.N.N.B.].Z.N.Z.M.J.U.F.h.6.6.J r + + = + + O < p d  .] ( %.g.G.}.[.9X:X:X:XsXBXNXNXmXNXNXNXMXyXtXtX,X~.F.l.a.2.i._ -.-.X.X.+.+.X.` ! _ ` X.&.&.i.i.f.f.G.[.G.].s.e g a i.C.C.{.0XeX8X8X$X$X$X$X$X%Xq.oX@ 2 i j Q S H.9XdXdXdXgX,X1XaX6X7XaXjXzX,XaXaX(.7X5X,XoX0X@X$X{.+._ ..9.9.G.J.M.V.:X0XS.2 2 t <.c.U.oX-X=X-X+X=X>X2X~.n.7.4.v.I.b.F.~.+XtXtX>X=X,X;XF.E.4.y V C f D ~ %.2.v.!.).5X;X1X5X5XrX5X;X;X;X;XW.7.' H b y u q 3 r r r r e t g a a h S E X.;.3.a.a.a.a.h.4.4.5.2.4.<.3.5.4.b.b.F.",
"J.K.J.{.}.|.[.qXqXeX}.G.Z.'.'.[.].}..X}.'.}.].Z.d.{.{.+XF.P.L c b r + 6 - + o @ < p 9 f G H X.s.}.|.Z.N.G.{.:X:X0XBXmXdXmXBXNXSXNXMXZXfXaX=X-XF.g.+.-.-...r.s.9.+.-.i.-.| / _ | ....+.s.d.Z.M.i.n t 6 f M.{.S.{.:X@X|.|.eX9X#X$X$X'.'.0.% 2 d h E k i.H.yXMXfXgX6X1X2XpXjX1X~.5XzXfXaX1X7X5X,X0X%X%Xq.a.#.] ) ' 2.i.| &.` S l w 2 6 _ J.,X{.+X+X>X>X>X@X@X0X,X,X,XiX5X,X5X4X+X>X>XyXyXiXgXaX1XF.-XI.L K K L $.6.2.a.K.g.f.H.:X:XnXmXMX0XMXMXfXGXJX,X<.] H Z C f f g C b C C C C ( ] %.2.a.c.c.c.D.j.c.a.4.4.x.c.c.b.c.F.F.=X=X{.",
"].Z.|.'.'.}.$XqXqXeXqX%X#XqXqXvXmX%X.X.X}.N.'.}.[.8X|.@Xc.P.$.,.J r @ - 1 + $ o * 4 A f C C C ~ 9.s.f.M.G.M.Z.|.9X8X0XyXuXNXDXDXDXGXGXCXfXfXiX,X:X:X:X>X,X>X9X9X>X+X:X+XH.H.i._ R S W ..9.0.9.^ 7 q b A f.S.{.C.:X{.{.8X$X#X@X%X.X}..Xz < 4 w A N S S C.K.,X{.iX5X5X;X^.-X-X5X5X=XjXjXaX5XaXsX>X%X}.g.A n f t 2 1 p 3 1 = + o + 6 A F.{.{.=X+X+X{.>X{.8X|.#X}.:X{.:X>X,XsX@X[.:X8XwXwXwXfXiX,X~./.P.P.8.L.L.P.Q.6.4.3.i.d.|.9XwX0XtXsX9XyX0X9XMXyXJX;Xa.l.p.%.J ] Z Z C ) ' <.<.<.p.j.c.g.f.S.G.S.J.E.F.F.I.^.J.E.F.J.=X:X8XtX#X",
"eX$X.X$X.X%X}.}.'.].|.|..X%XuXqXqXqX#X}.].t.'.A.'.N.8XeX+X:XF.4.` = < - - * $   < 2 p E ' $.C G ' 2.i.f.f.f.M.s.Z.{.:XyXsXNXAXNXNXfXCXGXZXfXU.,X,X0XwX0XtXBX0X=X>X:X[.@XG.G.i.S S ~ ~ X.O...E M - t b ] f.M.C.{.@X{.:X@X:X9X8X}.Z.u.XX< - 2 0 G ] S D ' a.=X=X:X{.0X5X5X:XiXfXiX5XLXaXiXiXiXiXsX9XC.a 1 - = : : : 2 2 2 - : = 2 t p.K.G.G.].{.].M.M.C.d.M.K.{. X@X+X@X:X8X{.{.:X8X#X:X:X0XfXfX,X-X^.!.^.1X!./.(.(.n.' f E i.M.@X8X:X,X0X0X{.H.V.N.Z.H.J.i.@.| 2.) $.$.1.3.a.K.n.1.h.x.I.c.D.J.K.S.H.=XJ.=X=X,X:X:X:X{.H.H.:X:XyX",
"Z.[.vXB.'.].B.N.N.Z.m.|.$X%X%X|.@X:XwXyX@X}.}.}.}.].|.].|.8Xc.p.+ @ 3 - 6 -       @ 5 w D ' >.G G ( 2.i.i.f.f.C.s.M.H.+X@X:X9XnXnXGXMXMXAXZXfX=XF.H.H.:X@XsXdXaXgX{.G.W 2.D.i.@.+.X.X.X.r.f.&.a e t C ( f.f.C.{.+X:X>X:X8X8X9X#XM.0.R = - 2 e D ' ' S S +.c.+XwXN.>XiXsXwX9XsXiX,XZX5X2XiXsX0X0XG.S r r t r q 2 - 7 r y e r 3 t %.f.g.s.M.Z.'.m.d.s.s.i.s.M.f.} C.H.{.].G.Z.{.$X}.|.:X@X:XfXfX0X=X-X~.rX0X,X;X1X1X^.^.4.y t g A @.f. Xm.e.w.{ Y m R Y j j R +.2.1.$.x.4.4.j.p.h.7.P.6.6.x.I.I.F.K.J.K.K.J.oX{.{.J.J.H.{. X|.Z.}.",
"B.Z.0.B.t.B.0.s.d.B.m.d.Z.}.Z.$X#X:XwX9X0X8X%X$X|.N.'.B.'.].V.S.o   2 2 6 +   $ $ o o 4 w n ) J G ( i.f.f.M.M.g.s.i.r.f.S.H.G.:XyXsXsXMXBXnXsXdXJ.M.f.G.G.tXM.{.,X&.i 2 E &.&.p.i.i.g.+.O.M.S.i.E ( J h.G.V.K.H.@X:X:X@X}.@X#XZ.m.@.1 2 2 q 7 r ( <.( G ( %.f.H.0X XsXsX@X9X0X9XtXtXfX<X0X0X0X{.~ e r r r 6 2 2 2 7 r e e 7 - n *.+.E Q Q | +.r.9.+.| ..@.@.w...+.r.m.B.m.M.].].].'.}.}.G.{.:X+X=X=X,X,X,XdXsXiXiXiX,X5X7.] C t r i a d r w e r 2 w h j h S p.h.4.4.z.z.6.4.I.I.!.I.^.I././.~.~.=X=X=X{.J.{.{.{.G.G.{. X}.Z.m.0.",
"].'.[.@X8X#X].Z.M.M.Q S Q r.H.+XH.d. X X[.8X%X8X$X|.@X].}.[.:X,X=   : ; 2 .   o o o $ . w w g H G H ` i.s.f.f.d.f.i.i.2.+.f.K.{.{.:X:XwXBXnXwXNX=X,X-XS.-.;.J.:XK.g $   ` j.k.k.k.c.*.*.*.&.i.G.V.@.p.K.J.J.M.G.+X|.|.|.}.:X@XZ.i.h = 2 q r y g y ) ' H ! %.g.0.].G.G.:X9X9XwX0X,X,XgX:X:X,X:Xi.f t t q r r 6 6 q q q r q q : - a f b b g f f A A A A F ~ | @.2.i.s.C.Z.m.Z.M.m.t.m.m.N.M.s.f.{.@X:X=X=X>X:X$XnXsXwXMX0X,XJ.h.] H g r t r 6 ; 2 = < 4 4 7 ) h.F.h.v.b.F.b.v.~.J.=X;X:XoX:X=X=X=X+X{.J.S.S.N.N.G.{.Z.m.s.e.m.N.'.",
"s.r.g.s.s.r.r.m.r.f.i.O.i.s.d.K.F.S.V.oX-XK.H.:XwXuX8X8X}.@X0X0Xj.# : 6 - + * % o @ # o + r a e a g D ] X.X.2.2.p.p.p.a.a.X.X.9.9.r.M.G.$XBX0XAX{.tX=Xc.i.i.f.E r = % 6.k.LXLXUXUXzX3X7X3X6XjXjX-Xj.j.k.j.2X,X+X{. X}.@X|. XeX:Xp.% 1 - 6 q J J ) ' #.) F ( +.9.d.M.M.+X9X9X0X0X,X,X,X:X].{.K.( c c u u y t y y y u y u u u u u ; - % 6 y y c g g g b b A F _ &.f.V.S.m.f.M.M.M.t.m.d.C.S.f.S.H.[.}.}.H.H.].].].G.8XeX}.qX0X=Xc.z.4.<.' >.G b b y i l k j 3.a.U.K.J.K.F.S.M.f.M.J.S.S.G.}.G.].+X{.=X{.C.d.M.Z.N.M.M.d.d.i.r.d.m.",
"A A N n S S -.r.f.d.| O.s.r.M.].f.E.E.y.l.5.X.i.K.+X+XG.+X#X}.|.<X. ; q - : - : = + @ + + # + w d d A H F ' ' 2.2.i.2.2.<.4.2.i.f.g.f.M.N.|.:X9.0XJ.i.` E ( d 2 % 8 M kXpXMXmXuX'.qXPXMXsXHXKXHXKXHXMXHXIXKXLXfXtX0X@X#X|.Z.o.W a 2 - 6 - 6 b $.5.3.#.#.#.S | 9.R o.o.o.0.G.@X:XJ.J.{.:XZ.i.` C v c v v c c c c V Z Z P Z Z Z Z C V c u u u , t t b b C H F ` X.+.9.s.9.s.i.w.9.9.9.g.H.S.M.H.{.0X>XH.f.s.s.s.i.M.B.m.N.'.8X,X,X:X=X=X-X~.z.<.] C f 4 4 k 2.p.S.J.:X{.oXE.~.{.{.oXJ.=X+XG.}.H.{.G.Z.G.C.C.M.M.Z.M.M.s.i.| _ D A ",
"A g a g a i d N R Q +.+.+.w.f.d.i.i._ ~ p.' ( ' -.i.-.i.X.+.-.s.i.k 2 7 7 t : , > - - + q r 3 2 5 e A ! ` 3.2.%.) ] %.2.+.p.f.f.f.C.C.M.M.9.+...Q F S n n ! 5   < | fXsXtXyX:XZ.t.0.vXBXPXf.C.@XvXSX&X%XvXyXZXJXHXdX0X|.H.d.&.*.6 ; : 6 r q y H h.<.1.! ` m n n n D D S A m R ~ X.| @.+.{ D ' >.K K V V K Z K Z L L I >.L ,.$.$.<.8.6.$.H C C y b C C H D Q E ` +.f.{ +.R o.} 9.+.s.K.H.+X{.f.g.H.>X9X>X>X{.G.d.i.o.o.o.9.M.|.|.#X@XJ.{.9XtX-X1.' E j l N 2.g.K.{.:X:X0X:X:X:X:X{.{.+X#X{.}.}.{. XZ.Z.A.N.m.d.t.r.i.9.&._ F A A ",
"i w 3 2 = 9 i h E X.X.@.i.g.i...W CXLXjX3XF.' g ( ' | ` _ _ ` |  .| E D n b c c u > > - - 2 q 6 3 w s m W i.i.p.;.;.<.2.` _ ..+.p.M.m.d.9.+.W S A h h d h S 5   $ p +XH.C.f.+.@.@.@.s.+X0XfXN ..O.-...| +.s.f.S.H.S.C.C.C.f.i.3.g 2 = 2 6 6 c ) J 1.%.] ) ) n h h d d a a a g g f f h h E a.~.^./.P.L.7.7.8.8.7.Q./.1.8.,.7.P.Y.I.~.^.I.!.7.n.x.b.~.~.=X,X>X:X>X0X0X,X| S } Q [ s.i.f.{.i.+...| ..| ..X.s.H.tX9X+XS.M.s.i.i.r.f.C.Z.J.[.}.eXG.~ ! o @ j _  .+.G. X}.|.|.|.}.[.|.|.}.|.[.G.G.C.H.{.@X8XM.M.s.r.s.C.d.H.s.&.` F f ",
"@ @ 4 S k U +.X.X.+.%.%.+.| @.f.V.GXGXZXaX5X!.] f n X.( ! ! _ _ E W E E ~ ~ E D G b C b y v u t r r r s Q X.2.i.2.%.+.2.2.2.r.9.9.0.0.} } N d d 3 i i 4 a f - . $ . +.@.@._ ~ X._ | E } r.Z.:Xi.~ W ~ ~ ~ _ W W ..-.+.+.2.f.j.2.H t 2 ; u > ; c 1.1.z.p.! H S S R A h h h S A A n F ' z.~.2XfXpX5X4X^.-X;X;X4X,X=X,XJ.I.b.b.v.^.!.-XpXaXfXfXdXfXNXNXAXZXZXMXBXNXnXdX0Xw.4 k l p } O.M.s.i.+.| X.X.` | X.+.i.s.C.C.G.M.Z.{.H.=X:X@X@X{.G.'.B.+.! = : = d +.i.s.d.d.].A.Z.A.[.}.}.].[.|.}.@X:XuXsXnXNXCXCX:Xf...9.-.Q O.f.| S = @ ",
"&.p.J.=X=XH.f.f.i.+.+.@.@.V.,Xi.>X9X@X[.tXtX,Xl.` h f ( F H ! F ! ( E E S h j m S E ~ ! _ J H Z C b y i b _  .X.+.&.+.+.+.O.{ { ..| | | Q S 2 e + % % $ % % & : ; g 2 S _ ~ E ] ` _ ( E / ` i.V.s.| X._ _ _ ~ _ ` X.X.+.i.i.f.K.S.i.D t q - ; ; b ' a.f.p.&.| / | | _ | | | +.2.f.i.S.tXNXPXAXHXHXzXjX;X_ S.+XC.+X{.:X=XF.2.h.b.I.;X5XGXGXZXmXmXvXnXuXSXSXAXNXmXnXyX>X=Xj p | | W r.s.d.i...| |  .....+.+.| X. .+.f.M.G.G.Z.[.@X9X|.@XZ.s.M.E 2 # - 2 E W 2.9.i.0.9.B.Z.H.A.[.'.].'.]. X8XsXnXBXNXDXNXMXfXs.s { w g t a g n H %.",
"sXgXtX=XH.H.M.M.s.r.+...i.oXM.Q f.i.+.+.C.H.H.f.+.~ m f h n G G F F S S S S R W | | | | +.+.s.S.l.2.<.X.X.....o.o.} | o.| | R R [ Q R Q S w = # + = f *.&.%.- * = 7 = + @ d h N W ~ Q ^ ^ / _ O.+.i.-.| W E ~ ~ _  .`  .X.....+.O. ._ E f a 2 - ; t b #.%.%.%.X.+.+.+.+.+...| +.p. .` +.s.M.#XPXIXAXHXLXjX`  .{ J.c.;Xb.J t 6.Q.3X7X,XMXNXmXtX8X#X#XyXBXnXBXnXvXqX].M.S.j 5 l k Q W } _ _ W _ _ ....X.` W | `  .+...| | o.O.+.r.r.d.M.G.H.J.M.+.W E E | 9.2.i.M.[.[.{.H.G.@XG.M.d.=XS.=X:X<XiXsXwXG.@XH.w.{ 9.H.S.&.i.j.F.,XiXiX",
">X>X+X{.G.M.M.K.f.s.-.| g.+.| X.2.' ' +.i.+.i.s.s.+._ W D A f b A m A Q ~ +.+.9.9.9.+.i.i.s.m.Z.{.M.r.+.+.i.+.+.o.} } | | Q p i s d i f m + - ; X ^ ( X.<.G v & & $ $ @ $ . @ < 5 p l j j Q R E E _ _ W W _ _ ~ W ~ W W _ ..f.J.G.S.S.i.@.E D f ; q u v u y C G E E W | _ _ _ ! _ ` ~ _ ( +.d.0XtXmXPXJXMXzXU.k.(.1.=.M L.hXkXhXxXjXdXnXAXdX>X{.Z.G.@XZ.uXqXvXmX}.s.i.f.@ 2 d k j S E ! E S E E W / | _ X.X.@.| _ | | |  .X.X.X...+.+.s.|.uXnXvX0X9X:X8X@X:X@X#X|. X:XoXM.o.+.W ;X2XS.J.nXNXNXsX:XG.o.| +.H.Z.C.K.f.D.2X5X,X=X:X",
":XtX>X+XH.M.<.X.X.X.] ! b.F.F.-X3.; 7 ! X.+.+.@.o.&.@.@.| | _ ` _ |  . .@.9.0.0.t.m.M.s.s.9.+.| { | { | | |  .| { { } | W j 3 1 + 1 n _ ! d | +.~ Q / | q v 1.jXy c c 6 X $ X $ + % 5 w i m A S E D D E ( _ ..+.w.i.+.+.+.o...+.M.+XwX8XoXf. .` D g y v c c c c c b D W ..@.| ..i.M.M.f.i.&.f.f.s.C.+X#Xm.A.S.a.z.7X7XhXjXaXfXg.ZXZXZXsX|.{.i.+.s.f.f.C.G.Z.[.|.G.d.i.O @ 5 3 d h h A A e g f d S E E S _ W _ X.| | | _ _ ` ` |  .X.X.0.d.'.$XuXvXbXqXqXuXyXbXqX[.m.C.2.S N ..J.rXgXrX{.9XyXbX9X|. X&.m } m.0X..p <X~.=X0X,X+XM.",
"d.C.>X=XS.f.h.n G F 1.*.#.h.,XY.x.x.1.=.#.E W { |  .p.f.f.f.g.g.i.2.p.w.w.s.d.M.M.N.|.|.|.:X].f.M.d.H.:X0X:XK.9.{ Q Q k 2 # % % % =.T.OXY.T.M H H C u q q c 3.^ M *.6XUXUXUXLXLXxX6.% # 5 i h S S F R R R W | i.M.H.C.i.o.| } ..+.s.f.G.{.{.f.i.i.+.W D b g c b A W | | +.f.G.G.m.d.s.f.S.s.f.i.i.X.| X.+.| +.E ' ~.1XgXpXfXZX0XsXfXtX:XG.K.K.s.i.i.W g.f.g.G.M.f.oXf.@ o = 4 w i e e r r y r d d j E S h h { _ | X.X... .` | X.X.X.X.....o.O.0.t.Z.[.uXuX#XZ.d.9.+.+.+.@ i / D.+X>XsXS.9.y.H.0X#X@XgXf.s.s.M.@ S.H.f.+.+XH.w.i.",
"9.m.G.$XtXsXgX-Xh.*.*.T.P.c.^.1XkXkXjXhX6X1XU.=X-X-X-X^.U.J.J.J.U.c.c.j.S.S.M.N.].}.8XeX9XqX:X[.G.|.0XsXmXnXMXMXsX:XM.&.m b L.3XjXLXJXJXJXIXUXUXjXkXT.R.T.L.kXUXIXIXIXPXSXBXNXSXSXAXGXk.. @ 5 l k k k N S R R o.9.m.].{.H.d.9.| | ] / o.m.@X:X|.G.K.S.j.3.%.^ %.p.f.p.i.| o.e.s.0.r.9.o.9.i.o.+.i.c.x.` #.!  .~ &.-X=X9X>XyX@X#Xd.M.r.9.9.r.s.f.f.p.+.2.2.i.s.r.f.f.c.@ # + + = = 2 2 3 r e y e i d h S N W { W | X.+...@.| | ..| @...X.' | X.+.O.9.M.s.s.O.O.2.X._ X.= o i h E C.C.C.w.~ o.| O.m.>X#XH.V.e.| o ..| +.+.+.f.f.i.",
"+.O.s.A.H.C.d.+.%._ U.zXLXUXLXLXxXLXLXLXLXGXGXfXaXgXiXiXiX2X,X<X<X-X-XU.-X-X=X:X:X@X@X@X{.|.[.Z.M.G.H.Z.C.[.#X@X}.Z.:X<X~.-XrXfXmXNXAXSXAXPXPXIXPXKXKXUXUXKXJXPXHXNXMXyXtXH.M.M.G.[.uXdX3     . . $ . o h N S W { { { O.m.{.9X{.s.o.~ ~ W | S.0XwX,X<XrXpXjXpXpX3XU.U.V.i.| | | w.G.[.[.|.:XJ.w. .+.F.a...+.+.S.-.{.M.S.s.+.f.+.` ] ` ` ` | +.+.w.i.i.+.+.+.X.+.+...W # O o O . = = 2 = 1 1 3 w e i i d h Q E Q E W / | | X.X.X.X...| ....X.X.+.+.+.@.X.+.X.+.X.E 4 O o + 3 ! X.S W W X.+.O.+.+.+.9.9.G.M.f.2 = W / | X...| | ..",
"@. .@.o.| ..X.h 1 7 l.i.=XfXLXLXKXLXLXLXLXGXGXzXfXfXsXgXiX,X>XtX0X2XiXiXiXiXrXrXiXsX0X:X:X:X:X<X{.g.9.w.@.+.@.o.o.:XsXsXgXfXsXMX8XnXuXqXyXvXAXPXPXPXKXKXLXLXJXPXHXHXMXiX0XH.M.i.f.C.r.C.2X  $ . + $ . $     + < N R / W W [ o.d.@X>X+Xf.r.s.M.y.Z.>XyXdXgXHXPXUXLXjX5X-XU.c.p.@.+.f.M.G.#X0XBXZXdXS.w.f.R R   E | V.f.` ` _ X._ ( ] _ _ ` | &.2.i.w.+.i.i.&.+.i.g.i.2.. : . .   . # O O # @ = < < < 4 e w i d h S E S W _ ..X.........+...@.X.X.X.| X.X.X.X.+._ t = # = : = f _ / W ....+.r.9.+.-.@.| ....S h f / S Q S R E ~  .",
"_ ...._ ` _ i g H e e +.j.=XfXGXLXGXLXKXKXLXGXzXGXMXrX=XH.G.H.{.:X,XiXgXfXfXfXfXfXfXMXMXMXNXMXMXCXfXrXV.p.+.@.g.<XMXNXmXsXdXyXwX9X|.|.Z.G.|.yXnXuXsXSXAXHXHXAXAXMXHXHXHXZXdX>XK.C.f.&.H.wXK.+ % 6 f % r r 1 a w 1 $ 5 s E | | W } y.y.r.r.-.+.i.K.J.G.9XmXDXDXDXPXPXJXGXaX2XD.+.| | | o.r.m.m.#X+XC.i.2. .m r A W | ` ( ` ] ` ` ` ` _ ` ` _ _  .....X.X.+.i.&.&.f.-.+ . : # + o   @ . . O O O O O . < 2 5 3 9 i s j S E _ W W | @...@.o.o.@.X.X.X.X.+.-.+.X.A a a t 7 2 = = = 1 h +.-.-.+...+.+.h 7 d &.W Q  .&.p d Q W Q j h E ",
"h a r q q ; a _ ^ ! ! _ ( a.F.fXGXGXfXKXGXGXzXfXsXsX:XS.d.d.N.H.=X:XwXwX0XiXiXgXfXMXZXAXAXHXJXKXKXKXJXHXHXMXMXMXMXnXBXnXuX0X8X@X+XG.C.M.C.M.G.{.@X9XuXyXiXtXsXmXMXMXAXAXAXHXmXwX{.9.<X@XqXZXA e  .i.X.a A m R m h i = .   4 R | @.| _ ~ _ _ ` | | +.i.M.M.A.A.].$XqXmXJXJXfXpX-Xp._ ` .._ ..~ | @.-.-.` 3 w r ~ @.~ F G A g h h j d d S _ _ X.+.X.-.X.i.9.i.s.s.+.# $ . = % % # +   . . . . . .   . o # O = 5 3 3 d j S Q Q W W | @.o.+.+.X.+.X.X.+.X.Q R W _ R E m 2 1 g a e r 2 = o o E ` E Q h s ~ @.{ p.&.i.m E Q m ~ m O = ",
"~ D t 6 - 1 ( ` *.G G ! n F.iXtXiXfXZXfXHXGXGXgXiXtX9X>X@X{.{.{.:X>X,X0X0X0XyXyXnXnXnXmXMXAXHXAXZXHXAXHXAXAXSXmXnXyXuX8X$X@X{. XH.G.{.{.G.V.i.f.M.M.C.H.J.H.>XyXnXmXBXyXuXuXyX0X8XsX8XG.[.#X{. .p.i.| h e s 4 s i p i i 7 7 < p s / / / / ..` _ ` _ | O.O.| _ ..w. X0XnXdXmXZXfX5Xj.D m D ` X.X.;.] 2 = 2 ) F &.p._ f H D m h n h d d d k s d 1 1 2 l R +.i.-.N R  .r . . X : - : % X = 2 % % - 2 2 1 = + # O w w p i d j E E / | / | O...| Q Q Q R j Q W +.+.+.9.%.` D ` E ! b t r + = N E / ` ` f W f.i.s.f.M.&.X...+.~ d 1 m ",
".. .f ) J H #.1.b P L 7XaX0X>X:X0XtXsXdXsXfXgXsXtX>X>X:X0X0X0XtXsXsXsX0XyXuXtXyXuXwXtXyXwXwXsXdXsXyXtXuXtXyXyXuX9X$X@X@X@X|.{.{.].Z.[.{.{.G.f.i.r.s.f.f.S.S.H.[.[.Z.Z.].].#XwXwX9XyX#XC.2.M.M.S.S.M.p.X.F g h 3 s p 1 k d s 3 7 2 = 4 3 3 w w 9 4 3 3 w d E ` ` _ -.d.[.@X8X>X0XE.+.| E n f 2 2 X : 2 ! _ E / S.S.z.%.3.3.&.%.#.#.#.` ` X.&.&.m 6 b &.s.9.~ s @ k ..2.M M - % - + # a g G g t b f t g 7 + . . @ < 4 9 p s s N k j R N l d k l l k N W ..2.i.i.| +.2.3.) ] X.! b b y a b W .. .g n t Q K.g.f.f.K.C.f.i.i.2.+.+.i.",
"f.c.h.~.~.3.&.fXHXCXmX9X8X[.8X9X@X=X=X{.H.+X0X:X>X0X9X8X9X0XyXsXmXdXmXwX0X0X:X@X:X9XwX0X0X9X>X:X{.H.H.{.:X,X>X=X:X#X[.}.}.G.].M.].{.{.@X X[.C.s.f.i.i.i.X.+.i.g.g.i.9.d.G.9X9XqXqXvX#X9XyXMXtX>X0.o.f.2.X.F F 4 s k l j k d a a 7 t e e w r 6 r t e a i r i d N / .._ _ _ _ ..+.i... .` ] H f J ; 2 r 2 e i D x.h.v.I.D.I.v.c.c.S.V.p.j.S.s.w.{ ~ +.f.s.f.+.h i X.a.2.2.c.c.3.X - M D ( ! H D D ! E m n 6 7 - 5 2 7 7 2 w 4 = * l k p i s j S W Q | +.+.r.s.| X.( A ] = M t 1.P.P.k.p.&.+.p. .*.*.*.x.P.6.3.&.f.C.S.K.S.i.+.s.M.",
"j.D.~.-X;XaXfX,X{.@X:X@X{.@X9X@X[.+XoX=X+X+X{.:X9X8XwX0XuXyXsXyX:X:X:X{.G.:X0XuXyXyXwXuXyXwX9X:X:X{.J.{.@X>X9X8X@X}.Z.[.[.Z.G.H.[.@X#X@X].].C.f.+.i.i.i.s.i.s.r.r.r.s.g.g.d.m.].#X$XNX@XG.Z.Z.#X].G.M.i.d...~ h g d l T j j k j h b n n D ! #.` ! ! D b g g g t g a f g d s h Q  .i.s.i.X.( ! ' q - - q 6 - M 1.7.P.^.^.7X7X7X1X7X1X;X~.-X-X~.oXj.D.K.{.G.U.D.2._ c.b.%.%.a.%.#.$.1.<.4.3.p. . .W _ Q ! n t r 2 4 9 w w d i i s h N h A j Q | | | +.s.f.f.j.h.f ) 6.I.;X;XiX9X:XH.G.H.G.V.V.S.J.;X5XsXgXpX-Xh.c.F.=XJ.=X{.M.s.f.",
"~.;XpXzXjXfX{.C.8XqX@X@X0X9XZ.Z.}.H.{.{.{.{.{.:X0X0X9X9XyXyXsX#X>X@X:X@X:X[.{.#X#X[.8XuX9X8X:XwXwXwXtX9X8X@X@X[.Z.M.{.].Z.M.C.K.|.@X@X8X#X+X[.M.M.M.f.s.i.+.+...O.| X.+.+.O.9.r.9.s.G.G.].M.0XuX8Xo.].M.0.r.+.! b A h k k p d m |  .@...@.+.S.F.l.%.*.*.*.#.=.^ D D D D ! ~ &.j.D.~.(.!.P.6.1.*.P M P ,.P ,.T.).hXhXjXxXGXGXKXGXHXMXfXfXfXgXfXjXjXjXfXsXgXrX,X,X-X^.(./.n.x.h.7.7.#.7.z.6.x.p.a.W S _ ` 4.3.^ t 7 7 w p k S l j Q W ~ | o.o.@.+.+.+.+.i.V.c.v.I.F.K.>X>X$X#X@X:XH.@X>X>X:X:X+X:X:X>XmXsXfXfX6X-Xh.h.I.j.p.c.f.h.",
"jXaXrX:XoX{.H.{.$X9XqXeXeX8X}.Z.@X:X@X+X+X{.{.{.|.@X@X8X8X:X0X#X:X>X#X9X@X@X@X@XZ.Z.G.].0XwXnXnXnXnXyX9X{.K.M.f.f.M.G.G.[.{.J.+X{.].Z.H.[.[.H.G.M.d.g.s.i.+. ._  .+.i.i.i.i.f.S.M.G.Z.yX9X[.@X@X8Xp } t.} +.@.2.! D h f g n D _ X.i.i.i.p.a.%.*.k.^.7XaX4X;X-X=X=X=XU.D.D.~.2XfXzXzXjXxXxXjXxXLXxXxXjX6XhXhXzXxXLXKXHXZXSXSXBXNXNXyXdXZXHXGXZXMXGXHXHXJXKXLXKXHXjXaX7X(.).(.Q.P.P.7.7.7.7.P.P.I.' %.1.` 3.c.~ D.3.H b g R Q R Q W | +.w.i.9.i.9.+.&.g.S.K.J.=X{.G.o.9.s.d.r.i.f.0X0XyX0X:XJ.:X:X8XoX0XyXyXtX0XfXfXpX-Xb.P.P.F.5X",
"fXgXgX9X|.:XoX8X8X}.|.eX8X8X|.:X8X@X|.{.[.{.:X:X:X8X9X8X@X#X#X#X+X{.+X:X9X9X:X#X@X[.H.Z.d.9X9X0XnXuX0X8X:XK.M.f.M.G.H.@X:X0X0X>X>X@X#X].M.s.9.9.s.+.+.+.X.X.@.&.i.i.i.+.d.M.M.M.V.{.|.sXnXyX{.H.Z.k k T ....i.S.c.2.! D D ) %.2.h.x.x.P.7.Y.kXLXLXLXGXfXiX,X=X{.{.=X,XiXiXgXfXGXLXHXHXHXZXZXAXAXSXAXJXHXKXGXHXHXZXZXyXuXmXmXdX9X@X{.#XnXNXNXmXmXsXdXmXmXAXJXPXPXKXLXLXzXxXxXjXxXjXjXhXhX7X(.^.P.7.z.x.x.a.f.S.+XE.!.x.1.+.! E _ _ ' <.2.i.p.f.c.c.K.g.J.H.+X9X,X2XiXD.j.h.I.J.G.{.:X0XsXfXfXMXGXMXdXtXwXwX9X:X+X:X0XpXjX1X5XfXGX",
"dXsXmXyXwX0X9X9X0X0X8XqX8X@XwX:X[.{.Z.].@X[.{.#X].].].@X#X].m.m.C.H.G.{.Z.{.9X:X{.[.d.f.d.i.s.i.9.9.s.t.t.M.M.[.+X>X0XyXsXyX9X{.{.A.N.B.r.+.@.+.{ | _  .2.f.{. XZ.M.H.Z.Z.Z.Z.[.@X#X8X%XuXyXtX>XH.k ..i.S | O.t.Z.S.c.%.2.3.v.c.c.I.!.^.6XGXAXHXHXJXJXHXZXiXiXrX,X,X2XfXfXfXMXZXgXfXfXfXiXwXyXuX0XsXGXHXMXdXyXdXsXdXsXwXqXqXwXwX:X|.Z.Z.{.:X:X+X0XwX9XwXsXwXuXmXAXJXGXLXGXKXHXHXKXKXKXKXLXLXzX1X(.!.Y.^.c.` X.d.H.:X{.2.%.2.j.3.a.x.h.4.z.c.F.K.F.+X{.@X@X{.:X:X|.8X0XsX0XfXaXfXgXaX5X1X2X2X,XtXtXSXyX8X8X].{.tXyXsX>X:X@XyXMXAX",
",X>XyXvXwXqXuXqXuXBXBXsXyX0X8X[.+X+X8X8X$X].m.t.r.9.s.i.i.9.9.+.i.M.M.H.{.{.G.G.C.f.C.G.Z.d.s.i.i.s.s.i.+.f.H. X{.9X0X0XyXtX8X}.M.9.O.9.i.d.M.V.G.V.G.:X8X@X].G.Z.G.M.N.M.M.Z.N.m.G.[.$X@X|.9XM.i.J.S R | @.+.r.s.H.K.F.c.D.Y.I.^.7X6XgXMXMXdXmXMXmXMXZXHXJXJXGXCXgXgXMXGXCXGXMXfXfXsX0X0X0XwX9X9XyXyXmXdXsXyX0X=X{.{.H.H.Z.@X#X8X$XH.S.f.f.{.H.:XwXdXsXtXiXMXZXHXHXAXMXHXGXLXLXzXGXLXLXKXJXPXHXHXxX7X5XgX=Xw.s.K.S.&.h.x.P.c.S.S.V.K.S.F.S.{.H.{.+X>X>XtXsX0XsXqXdXsXrXiXpX5X7X7X6XhXhXaXzXGXsXK.f.+X+X@X9X:X[.H.G.H.M.H.0X@X+X",
"J.G.H.8X9X0X9X9XyX9X@X8X0X|.[.{.|.@X8XeX#XC.g.r.+.+.+.+.+.+.9.s.i.s.d.d.M.M.G.G.C.M.Z.M.M.s.t.9.&.+.w.i.S.:X0X9X@X X[.+X+X+X{.G.g.i.w.i.M.{.:X{.{.9X0XwXyX:X{.@X[.{.{.G.G.{.{.{.{.{.+X[.#XZ.[.+XG.S.5 m | W R | | {.H.J.U.U.I.1XaXaXaXfXMXsXsXmXsXtXsXdXdXMXGXHXGXGXiXgXMXGXGXfXfXiXrX,X+XJ.H.G.[.[.@X9X0XiXsXdXiXiXsXwX+XG.m.m.G.{.Z.f.g.V.f.=XuXbXdXtXsXmXsXMXMXHXHXMXAXHXKXLXLXGXHXJXJXPXHXHXPXPXCX=Xi.S.D.4.%.' X./.7X;X-X^.=XF.F.K.S.J.{.:X:X:X:X@X@X0XiXgX,X~.6X7XaX(.7X7X7X6XhXxXfXgXdXsXtXMXfXsXMXmXsXyX0X0X0XH.f.M.[.{.",
"+X+X{.#X|.|.@X8X[.|.:X:X:X{.[.G.[.A.A.}.#XM.+.@.&.i.f.d.f.M.M.f.f.s.s.f.M.M.S.M.M.G.M.G.M.d.d.d.d.V.G.{.9XyXyX@X0XG.H.C.f.s.p.g.g.S.f.G. X:X@X8XwXyXvXbXuXqX8X8X0X:X{.0X8X8X|.|.{.[.Z.m.H.:XG.s.s.| p j E N d N l s.S.<X=XU.^.aXfXfXLXZXmXsX0X9X9XtX9XtXsXsX0XdXlXfXgXrXiX,XtXfXsXgXiXiXiXJ.V.J.8X0XqX:X>X=X{.+XwXnXMXmXmXNXBXyXsXMXdX:X{.S.S.@XuXqXyXyXMXsXyX9XtXsXNXNXAXHXHXJXJXJXAXJXAXSXSXNXNXbXuX:X4 c.5X6XpXjXCXHXHXHXfX1X;X1X~.-X~.U.=X=X:X:X>X,XiX5X;X7X^.7XhX6X7X7X6X7XaXjXMXHX,Xa.h.Y.aX;XrXsXMXdXsXsXiX0X:XJ.9.+.G.{.",
"iXyX9X8X0XuXyXvX@XH.C.r.......r.i.i.f.@.i.H.G.M.V.M.C.C.M.M.M.f.f.f.M.V.S.V.M.H.{.:X X{. XZ.Z.G.H.{.#X:XuXuXuXtX0X=X{.{.{.J.K.V.K.{.,XyXyXyXyXsXyXuXuXqXqXvXuXvX9X0XwXuXqXnXnXnX:XZ.C.H.O...} o.+.. w a w 9 3 w l g.=X=XE.!.~.2XgXZXHXMXdX0X0X0X:X=X+X>X9X0XnXNXSXMXMXiXiXgXiXsXfXdXsXtXgXsXsX:X#X@X$X[.{.oX:X9X9XmXmXBXmXBXBXSXBXmXnXsXMXdXrX[.G. X:X>X+X0XyXBXnXyXyXsXmXmXyXsXyXyXSXZXSXSXSXnXnX8X[.<Xp i.tXsXdXdXmXyXuXyXHXGXaX5XiX,X=X~.,X,X,X,X;X~.I.P./.(.P.).7X7XhX7X6XaXCXMXPXNXGXjXxXjXjXjXaX5XiX,XiXsX0X0X<X{.+.f.{.wX",
"sX@X$X8XmXyXdX:Xo.} | i 3 N S E d S E F X.{.yX0X@XG.G.d.d.s.M.{.C.G.H.G.G.{.:X9XyXyXuX@XG.B.m.Z.G.].#X{.[.#X#X#X+X@X{.:X+X:XwXdXdXdXdXyXnXyXsXyX9XuXnX#Xt.}.m.A.Z.#X@X8X@X$X0X#X+XZ.d.g.| O...s 5 2 1 w w w h Q _ a.p.K.F.-X6XaXfXfXdXyXtXyXsXsX0X:X:X:X0XwXyX0XtX0XtXfXZXMXfXfXfXdXsXsXmXNXMXNXuX0X8X0X@X{.{.{.#X8X9X#X9XvXbXvXvXnXBXHXHXKXHXPXMXsXrX:X{.+X0XyX9X0X0X9XtX0X0X9X0XuXdXsX0XuXyX0XH.V.0XHXW f.Z.+X+X+XH.H.+X$X$XdXGXfXiX5X,X,X2X;X,XaX6XjXhXhX7XhX).).).).).7XjXxXLXJX>XdXuXyXZXZXZXfX6XjXaXpX,X=X>X,X{.=X9.s.8XsX",
"{.:X$X9X=Xf.| d 3 w 4 < < 4 p d h _ +.+.2.J.wXuX#X].M.s.r.t.m.M.G.[.{.@X@X9X0XwXuXuX$X#X}.G.M.N.G.G.Z.Z.A.A.Z.Z.].|.{.@X8X9X0XyXyXuXyXuXqX9X:X9X{.[.M.9.+.9.s.m.M.G.Z.C.C.T y.s.m.Z.r.| O.R = w r - e 3 i a f n t A ) v.^.1XjXzXzXfXgXdXyXyXwX>X+XwXwX:X9X>XK.f.g.U.gXiXsXdXMXdXtX=X+X,XtXNXNXNXmXSXBXmX0X0X=XH.G.M.m.M.Z.[.[.@X8XsXnXSXHXGXJXPXPXHXsXMXdXtX+X[.>X0X9X>X:X>X:X@X:X@XH.H.@X9X0X9X8XMXDXmXR i.m.s.r.9.M.@XuXsXPXPXKX,X5XpX5X5XiXpXfXiXiXpXaXpXpXfXzX6XaXfXfXjXGXsXMXNX@X#X9XnX0X0XiX;X5X2X,XiX,X;X,X=XJ.M.f.d.H.+X",
"+.i.+.+.` A a R j S h 2 A n m g.H.:XJ.%.z.F.@X#XH.Z.s.M.m.[.]. X].[.[.[.@X@X+X[.m.A.Z.Z.N.Z.G.G.H.G.H.H.S.G.Z. X|.|.:X@X8X0X0X0X0X0XtX8X8X@X#X].Z.s.i.i.g.f.M.Z.M.g.M.r.+._ W E W W } _ F   + 7 e A g g a g H $.6.I.6XaX~.zXLXKXGXZXsXuXqX9X:X0XsXsXsXrX:X=X,XCXUXKXMX0X0X0XtX>X9X9XiXtXtX0XsXdXbXvXbXnXnXyXsXyX0X:X:X:X{.{. X9XyXnXbXbXnXZXHXHXHXHXAXAXAXSXnX{.M.f.J.+X{.K.J.G.G.:X:X=X{.9X@XwXNXbXuX].k R i.+.@.+.r.N.qXyXnXmX:X,XiX5XiX5X-XiXfXtXiXtX,X0XtX0XiXfXdXmXmXsXMXmXBX8X{.s.+.+.| 2.g.-XfXfXpX2X5X,XwX>X{.K.f.w.+.+.",
"D F e y t H E j k R i.k.3.v.h.;.a.^ J 7.$.I.{.C.s.s.9.M.G.[.G.H.{.[.C.].Z.M.M.s.9.9.m.[.@X}.[.#X#X8X8XmX>X0X:X:X:X:X@X8X9X9XuX9X$X$X#X#X[.].y.o.| ..O.d.Z.].G.f.s.-.| } W _ / E / ..| d . 1 4 w n _ S ( G ( ' v.^.2X~.(.5XLXLXGXZXMXyXyXuXnXMXmXNXmXMXHXJXPXKXHXfXsXyX:X<X+X=X+X0XsXMXfXsX9X+X[.[.].Z.Z.#X9XqXvXuXwXsXmXmXnXnXnXBXvXyX0X0XtXsXMXAXNXNXMXmXSXmXmXmX>X@X>X>X0X<X0X0X9X:X+X{.H.{.0XqXuX8Xs.N R +.9.o...+.s.G.#X#X@X{.,XiXgXiX2X=X-X=X,X,X=X,X{.{.+XC.-.S.].:XsXyX@XH.S.s.+.` X.S.0XMXCXHXGXzXjXfXpX,X:X:X:XS.e.| ` ",
"_ E F A ' X.` !  .f.r.K.-.#.*.6.^._.`.).7XpX{.C.M.M.C.Z.m.m.M.G.S.Z.C.C.M.S.d.s.M.M.H.{.[.[.|.8XqX0X@XZ.{.{.8X8X9X0X9X9X8X8X8X8X@X#X].A.m.O.+.+.-.r.s.f.Z.'.t.0..._ / / R R / _ / i < 5 @ 2 7 g E  .( ] ! X.h.F.F.-X~.b.pXGXZXGXfXtXsXnXmXNXNXnXmXmXmXmXNXdXdX0X=X+X+X+XS.f.i.K.J.{.9X0XuX>X8X@X+X+X{.S.{.0XyXuXuXyXvXnXBXmXnXvXuXqX:X:X9X9XsXsXyXnXyXnXvXmXBXnXBXSXmXAXZXmXmXsXwX@XH.[.{.H.C.m.t.r.s.l s j ..s.+.+.| +.Z.#X9X0X0X,XaXfXiXaX-X-X;X2X1X2X,X<XK.S.C.S.{.@XyXNX8XC.g.i.s.m.M. X8X:XH.H.:XsXgXaXjXjXjXaXpX2XJ.j.@._ ",
"+.+.9.e.V.g.p.h.` X.h.H *.^.jXzXjXfXjX6X;X;X=X{.G.H.{.@X:X{.{.H.H.H.H.{.G.G.G.{.|.:X8X}.@X9X8X@XZ.Z.[.{. X].Z.[.[.H.>X[.A.Z.d.s.r.{.m.O.} } t.d.C.s.| { } [ } / W T h h N d < @ = + 4 1 = < 4 Q | X._ ' ] a.^.-X5X7X(.~.fXMXAXZXfXmXmXBXmXyXyXyXwXyXsX0XwX:X,XJ.f.g.i.f.f.J.=X,X,X:Xf.g.f.M.f.i.w.w.f.H.+X$XqXuXyXnXuXmXbXvXmXvXuXuXwXwXyXwXsXBXnXmXNXmXmX$XvXvXqXyXuXuX9XuXmXqXuX#X@X{.G.9.+.+.+./ p k h S Q E _ ..i.G.[.G.s.M.J.,XaXpX5XjXjXjX6XaXzXzXGXHXMX:XoX:XwX>X:X9XJ.S.H.=X,X,X,XiX0XsXsXsXdXfXfXzXjX6XxXxXzXjXpXU.j.p.",
"S.C.K.G.g.p.c.a.x.z.2XjX3X(._.Q.Q.).7X3X6XpX:X{.{.:X0X:X9X:X:X>X@X{.[.{.[.+X:X9X@X#X8X8X#X|.H.H.H.H.{.{.{.H.Z.G.C.C.Z.H.Z.m.d.9.O.| } / | | 0.t.B.r.} / W / _ 5 @ @ * = = O O = 3 2 2 2 5 1 w A @.+.2.3.<.h.^.1X7X1XI.,XiXmXmXdXfXMXmXmXyX0X[.{.{.0XrXrXdXfXiXgXgXgXfXfXMXGXfXMXGXGXzXfX2X,X=X=X,X,X0X:XH.Z.Z.].#X8X8X8XuXvXmXnXBXmXBXZXnXmXyX8X:X0X0X0XvXyXvXnXvXqX8X8XuXtX8XuX8X}.[.G.S.i.+.3 = 2 3 3 k S T _ _ _ r.M.t.+.s.H.>XiXfX5XzXxXaX6X1XaX5X,X>XtX9X,X<XwX{.M.o.9.f.:XsXMXGXzXGXGXzXzXaX5X-X~.aXjXxXjXxXxXzXfXzXjX6X~.",
"rX+X[.:Xj.4.4.^.^.1X(./._._.(.(.7XhXhX1X5XsXiX0X9X@X].@X8XyX9X0X0XwX0X9X8XuX8X9X9X@X{.@X:X8X8X:X:X@X@X{.{.C.g.r.r.M.d.9.0.r.r.r.+.9.9.r.d.+.+.O.} O.O.T N *   $ # # + = = @ = < 2 5 4 - : < 4 s | i.2.2.a.v.;X;X5X^.^.0X0XsXsXtXtXsX0XyXvXuXyXsXNXZXfXMXgXiXsXHXHXmXNXMXdXiXsXiXfXMXHXHXGXHXHXGXJXHXHXHXHXsX+XK.{.@X@X@XqXwXuXuXvXmXSXSXnXyXsXwX0X9XwX0XyXuXuXuXqX8X8X8X@X8X8X#X[.G.G.C.g.A 2 r g t n e i Q R ..X.i.i.+.X...+.r.+XgXgX5XlXzXjX5XJ.J.J.J.S.{.>XgXGXMX:XM.M.{.0XAXJXJXGXHXMXGXjXhXxXhXhXhXjXxXxXjXzXLXGXGXGXGXLXfX",
"0X9X>XtX,Xc.aX4XiXfXfXlXfXaXpXCXHXjXkX3X5XiXwX0XmXuXnXyX0XnXyXyXwXmXyXtXyXuXyXyXyXuXwXwXyXnXyX0XyX8X{.H.M.C.f.f.i.O.O.O.+.+.9.+.9.O.9.O.} o.W / Q 5   O O O o . # = = < = = 2 1 5 2 1 - : : 2 3 R i.f.f.F.-XiX5X(.~.,X>XsXtXtXyXdXsX0XyXsXmXMXmXnXnXsX+X=XV.S.s.d.C.G.{.:X,X,X0XsXdXMXZXJXPXPXPXPXHXHXmXnXmXmXmXnXnXvXuXdXuX8XuX9X$X@X>X0XqXuXuX9XyX0X0X{.>X9X#X[.@X$X$X9X9X8X].{.:XS.r.s i d 2 h d E E _ ..W E +.+.X._ @.X.X...f.fXmX5XaXaX7X5X~.=XJ.0XsX0XiXiX>XyX0X0XdXsXZXHXLXGXHXHXLXKXzXaXjXaXzXjXGX2X5X1X=X=XiXZXmXNX0XsX",
"C.C.H.[.>X=X5X>X,X0X0XyX:X=X:X0X0XZXjX7XaXaXsXsXsXnXmXyX9XyXyXwX9X#X:X0X0XyXnXnXyXvXbXvXuX0XtXqX:X|.G.M.i.f.f.i.i.+.} | | +.9.s.Z.H.Z.M.m.N.s.O.k   + + o O . $ . + @ < < = 5 5 5 = < = = @ 1 3 j i.i.i.l.K.>X5X~.=X{.[.].>XtXdXsXyXyXyXSXAXmXmXdX0XJ. .c.g.+.m +.X.E ` X.w.i.p.p.S.{.>X0XtXtXdXnXyX9X@X@X9X0X8X#X$XuXnXdXyXyXuXqXtX9X0XuX0X9X@X9X0X0XyX:X[.H.@X>X@X@X#X@XG.H.Z.H.:X} w d i A h n S | ~ W ..| j | +.| ` ..X.X.+.d.>XdXlXzXxXjX7X,XfXMXsXiXfXiXtX:X9XyXsXsXMXZXZXHXHXJXJXMXgX,XfXfXiX;X-Xc.E.c.X.+.X.+.-.+X:XK.M.",
"+.g.C.W r.E.4XtXtXwX:X:XH.H.{.+X+X@XgXaX7XaXaXsXvXnXwX>X8X0X0X0X0X9X0XwXsXsXwXMXwXuXuX9X}.'.[.|.G. XoXJ.f.V.f.S.f.r.o.| | | 0.B.u.B.m.B.t.t.-.} @ @ + @ O + + .   . % - = = < 5 2 5 = * O = = 2 i Q _ -.a.S.=X-X!.J.|. X|.@X:X9X9X9X$X9X8XuXuXtXH.+.D a.2X1XD.k.*.%.! ] X.%.p.h.4.a.v.c.S.S.j.S.H.H.O.=X>X@X@X9X@XH.m.M.].#X@X}.@X#X$X#XqX8X8X8X9X0XwX@X@X@X:X+X{.9X9X[.G.S.f.g.+...p l j j Q R ! ` _ @.@.| +.X.W _ ` ` ' X.&.f.M.o.8XzXzXjXxX1XaXtXsX0XMXZXdXZX9X:X>XsXAXAXAXHXHXAXmXH.+X=XE.tXgXsX;Xf.-.2.+.+.X.' ' ` -.2.g.-.",
"X.S N s j C.+X>X=X,XiXiX6X=XS.S.C.H.;X6X1X,XiXwXnXsXwXsXyXwX9X0X0XyX0XyXsXyXnX0XyX>XC.y.9.9.t.B.].#X:X{.S.f.M.G.[.M.i.o.+.+.0.0.t.t.s.0.} o.N 9 = + . . @ . = 1 2 - = 1 6 2 2 1 2 1 = + . . + 1 3 s Q W +.f.=X,X,X:X8X:X+X:X@X@X@X@X#X@XZ.m.f...E ! ~ jXUXUXUXKXKXIXUXUXkX;X-Xv.k.p. .b.D.c.p.D.F.I.= _ +.i.X.X.i.s.f.f.f.M.H.@X8X9X$X#X#X8X9X9X@X:X8X9X0X0X9X+X{.0X+XH.W p.S.p.S  .Q j E E ~ ~ ~ ` S X.+.+.X.A < | _ X.+.2.2.s.M.r.M.a.-X,XaXpX,XJ.S.gXiXfX>Xf.s.s.H.>XH.dXsXMXMXgX:X+X=XH.=XiXtXtX:XK.f.i.+.2.%.+.X.X...2.i.;.",
"g w d E _ +.G.=XiXiX,X,XpX2Xf.f.S.M.3.j.J.:X>X{.9XsXdXsXdXtXsXwXyXtXsX0XsXyXuX9X[.d.9.s.M.s.s.s.Z.+XA.d.M.M.m.m.s.d.r.O.+.+.o.{ } @.r.M.C.K.i.W 2 1 1 - + @ 2 r e 2 2 2 6 > 6 6 q ; + X X X . X + 9 s j W f.J.=X:X:X[.H.G.C.S.{.H.{.{.C.+.E E E D p.jXgX=X9X9XuXyXyXSXmXDXJXKXKXUXUXUX6XU.` a.I.Y.^.2.S 9 _ h f A A ..+.-.-.i.K.+X9X:X0X0XuXuX0X8X8XwXyX9X0X0X0X@XC.| E X.1XjXjXY.*.*._ X.` %.*.x.4.4.z.c.c.S.2.Q 2.-.Q +.X.....+.+.9.X.g.;X5XaXjXfXfXrXS.f.p.w.f.S.S.f.s.s.g.=XfXfXiX,XE.f.i.X.g.J.wX{.J.J.S.g.i.s.g.f.f.i.a + ",
"a i d i.K.>XtXJ.iXiXiX0XdXE.f.H.0XyX=XJ.=X:X{.{.0XdXMXsXiXdXsXsXyXdXfXsX0X{.Z.s.i.f.G.S.s.f.i.+.o.+.+.i.s.i.9.@.@.+.+.+.+.w.i.9.i.s.+X,XiX2X;X+.e 7 7 r q t e i e 3 6 b b c J x.x.6.H q 7 - + = - + 4 l i.S.S.J.{.+X#X@X:X@XH.[.{.{.K.i. .p.3.h.3.GX0XG.G.[.{.:X:X:X[.#X9X9XyXdXdXyXmXfXMXfXGX;Xh.] ( + * = : 0 f n X.X.X.s.f.M.s.s.H.G.H.[.@X>X9X0X9X>X+X>X8X{.i.Q ~ D 6XGXGXJXJXPXIXIXUXLXkXkX-X-XU.&.3.v.p.j.a.c.U.%.2 f +.! S _ / ` p.S.F.J.=XtX,XfXsXU.w.i.g.i.i.-.+.+.X.E.fXGXGXZXgX=XF.S.g.i.g.S.C.g.+.X.&.+.-.2.i 2 - 1 ",
"i ..G.+X+XA.#XH.=X+X+XH.G.r.s.}.}.$XyX0X>X{.K.J.sXMXfXsXsXsXdXdXMXGXKXGXZXsX0X:X=X,X:X{.S.M.S.S.S.i.+.+.+.+.+.+.+.X.+.@.i.i.f.J.=X,XiX5X,XpX2XX.g n G n A D E A g y D 1.1.z.1XjX7XP.6.J g b r 1 2 2 @ O { f.i.f.f.M.[.@X8XuX0X:X:XU.j.| c.S.-XF.J.s.M.K.G.H.H.H.{.=X>X0X0XoX{.,X0XsXnXmXnXdXdXdXGXP.G X . + O = r f X.X.+.+.s.i.s.M.S.S.C.d.M.Z.[.{.:X9X0X{.i.&.! ` ~ jXiX+X>X$X%XuXqXyXmXmXAXJXJXPXKXPXUXpXc.2.a.~.!.z.N = F A n g D F X.-.-.2.S.H.+X:X0XdXMXsX0X:Xf.X.X.' X.~.fXMXCXZXfXfXfXfXiX,X=XJ.f.` ` _ ' ] S 1 a h g 7 ",
"W C.y.r.s.9.s.i.-.-.-.X./ W +.m.{.}.[.:X:X>X0X0XyXfXgXfXfXfXdXMXMXGXGXGXGXZXfXiXiXiXdXMXZXsXsXsXtX:X:X=X{.J.f.+.@.X...+.f.H.:XtXC.,X,XiX,XtX,X-.( ( +.X.` X._ A D E ` 3.h.~.sXAXsX;Xb.x.1.H g e 4 4 O   2 M.i.2.i.i.m.Z.@X@X[.@X:X,X;XU.p.g.+X:X+XV.V.:X0X0X:X{.+X:X+X[.#X{.{.0XsXyXuX9X@X>X9X0XwXnXLXT.- & # @ 2 a D ` i.g.i.i.i.i.C.H.V.M.s.m.M.m.Z.H.f.i.a.j.a.h.ZXfXH.M.H.{.oXoX:X@X#X$X%XtXyXyXuXnXMXMXsXKXgX^.X.' = * * = - e h ] X.| +.i.f.g.r.C.H.H.H.[.+X{.K.i.X.X.2.=XMXfXgXsXfXfXZXMXMXfXfXfXiX,XF.a.%.] ( g ! E _ S ",
"f.{ o.} W < d _ W W D E A A _ r.C.+X+XJ.{.{.:X0X0X0XfXfXMXMXMXHXGXGXMXMXGXfXMXGXCXfXsXgXfXMXdXtX9X9X:X{.@XyXmXMX0XG.H.[.{.[.H.H.Z.H.H.H.H.Z.t.+.i.p.f.2.i.X.X.` _ ` g 3.K.{.@XvXuX9X4X/./.!.z.f i 4 O O % Q 2.p.f.C.f.g.r.d.M.|.wXnXtX,XJ.d =XS.f.{.{.[.}.@X8X X[.M.C.f.s.[.tXtX@XZ.A.H.:X,XsXyXuXnXmXAXUXT.- % 6 t b A ( ' X.+.+.i.G.0XmXNXNX0XoX{.U.D.X.i.c.-X-X~.i.-.M.K.H.{.G.H.+X>X,XrX:XH.:X>XsXdXBXBXuXyXiXZXzX^ - $ X + * 2 a E +.&.&.i.i.s.M.C.M.C.d.s.Z.C.H.G.C.i.i.E.,X,X2XfXfXfXfXfXfXfXiX<X,X,X0XgX,XK.c.2.X...-.d.",
"i.d. X{.f.p S j l k a r 2 1 _ +.r.s.M.H.{.{.:X,X:X0X0XyXdXAXHXHXGXZXMXfXfXfXfXCXMXZXfXfXfXfXfXfXiX>X+X{.{.0XyXtXsXH.r.r.r.s.9.r.2.+...X._ / / +.f.K.g.a.i.a.%.$.J J ) h.J.{.#X8X>X{.gX5X~.2XF.' h p i i E | K.=X,X>X{.J.S.H.@X@X#X}.#X+X+Xd i.i.i.d.C.Z.[.G.].:XwXmXMXsX<X9X:XG.M.G.:XsXNXmXyXtX0X9XnXMXSXKXLXa H b G ( E ` ' X.X.+.9.A.%XuXyX8X#X:X,X,X,XF.X.f.+X:XJ.G.oX0XyX:X+X{.H.+XG.G.{.{.>XyXnXuX@X+X@X>X9XyXyXZXLXJ - & + < a f E +.p.i.+.i.s.f.H. XG.m.s.f.s.m.[.[.[.{.E.~.E.=X;XgXfXfX5XE.E.~.~.{.+XH.J.C.p.R Q W { | ",
"S.M.G.s.o.| f.d.o.Q R f t g R W s.C.K.G.K.K.~.5XtX:X{.{.=X>XiXgXiXiX,X,X,XsXgXiXfXMXMXaX<X<X,X0X0XtX+XH.S.d.r.O.y.i.{ o.o.o.k = E R S S F A E a.W W X.2.4.1.7.6.P.(.6X5X,X:XtXsX0X0XH.sXfXsX,XJ.j.K.H.H.=X,XsXsXtX9X>X+X{.[.:XyXyX9X8X0X>Xi.j o.M.C.C.f.i.f.G.$XBXDXPXJXHXBX0X|.9XmXJXSXSXvXqXuX8X8XmXdXyXqXyX;Xh.h.) E A E _ X.-.2.-.r.t.s.d.M.}.8XbXuX0X,XR f.S.g.C.[.[.[.}.8X|.{.H.K.G.d.Z.8XuX9XZ.M.G.:X0XsXsXuXuXmXBXIXxX=.% 2 r g b ( ( ` X.+.9.d.+XbXSXHXmX0X:X|.9X@X@X$X9X+X+X=X=X=X=XK.~.E.K.F.a.f.g.-.....+.+.| ~ | i.",
"M.K.r.d.M.H. X{.M.i.@.~ n A E Q | +.i.f.K.-XiXiXtX@X=X,X,X0X,XrX=XS.F.E.~.c.iXfXfXgXU.S.J.F.J.{.H.S.C.i.~ j R Q W +.S.G.:XS.| d Q j l i e 1 h c.X.f d E +.S j.D.~.sXfXsXtXtXyXMXZXZXZXmXfXgXsXtXdX:XG.f.S.+X0X:X@X[.Z.m.Z.G.9X0X:X{.uXyXyXyX9X:X>X@X[.].[.H.J.#X@X|.[.nXSXmX0X[.m.y.y.C.[.$X}.8X:X$X#XuXuXtX0X<X^.I.' 1 e S _ ..f.:X0XK.p.V.S.|.8X%X'.}.H.H.i.3 +.i.d.M.C.Z.C.G.|.wXMXAXMXsX0X0XG.V.G.wXMXNXMXyXuX0X>XtXNXSXSXHX3X) ) G ) / ( ' X.X.X.O.r.#X%XSXDXSXvXyXqX9X>X[.Z. X9XtX9X0X,XJ.f.C.g.X.` _ Q R j ..f.f.s.w.+.d.",
"MX0Xp.=X:X:XN.9.o.X.&.W d h h S R _ i.K.-X2XsX:X{.=XfXZXZXfXMXMX=Xc.S.K.F.J.U.J.F.K.=XJ.a.f.i.g.+./ / ..+.+...| i.M.G.G.d.s.| s.M.s.| Q D e E f. .E R Y W R S.K.;XgX9X@XJ.:X=X0XiXiXaXgXsXiX9X9X+X+XS.s.i.f.K.G.d.g.r.s.9.d.G.{.[.@X:XyXmXyX0X0X0X@X#X|.[.@XH.{.J.f.T +.M.{.wXsX,XK.w.+.i.C.Z.M.C.C.Z.}.%XvXsXiX;Xb.3.F h X.M.G.#XnXNXAXNXdXBXyX#X].m.d.Z.K.i.p 5 f.d.f.f.9.s.S.#XvXSXPXPXJXAXyX:X@XtXmXmXmXbX9X9X9X@XyXyXyXwX8XyXb.h.( D a R E _ X.X.....O.Z.#X%XuXqX9X$X#X[. X8X0XyXyXyXuXyXyX0X{.M.2...| @.+.+.r.d.C.H.{.{.,X",
"tXtXmX@XH.0XCXOXD.j.p.*.~ m n n ^ 3.c.2XfXsX0X:X{.MXZXZXAXSXsXsXK.p.M.S.=X,X-X=XJ.K.f.f.X._ _ Q N j W f.M.M.i.9.f.K.M.9.@.S.S.:XoXK.9.+. .D A ` W W W +.i.S.U.iXiXtX9X:X,X0XrX,XrXiX>XtXdXyX9X@X[.G.[.{.f.&.i.f.f.i.w.i.+.9.Z.].{.@X@X+X@X|.[.[.].].|.M.-.i.M.J.~.j.a h R _ _ V.{.{.AXdX:Xf.g.i.f.g.d.M.C.m.G.K.S.i.X.+.i.S.H.H.Z.A.$XSXmXtXG.H.G.C.f.C.C.f.2.f.k K.H.G.m.d.s.M.Z.}.$X#XuXSXSXbX@XZ.t.O.s.m.#X#X#X@X@X#X8XqXuXtX:X-X~.4.G = a E S E ` X.X.&.M.@X|.@X8X$X[.@X:X{.H.].Z.].[.|.[.].{.{.{.{.{.G.i.i.M.M.g.K.0X,XgXrX",
"@XdX0X:X>X@X@X{.:XMX,XV.+.X.+.a.c.j.iXGXGXMXsX0X0XsXsXsXtX:X+X{.f.f.J.sXgXrXgX,X=XK.j.g.+.| _ ..+.r.i.r.m.[.{.:X:XdXMX,XiXsXrX|.9.} W 2.@.h g h m j W +.j.=X2XpX9X{.oXgXZXAXMXMXHXdX9X8X>X9X:X:X<X<X9X{.M.i.&.g.f.p.i.+.w.M.G.{.{.@X{.Z.M.N.G.G.{.{. Xf.i.S.{.K.=X+._ h 4 5 O 2.j i.0XdX9X:X{.K.M.g.w.+.+.2.i.+.+.&.+.i.i.i.s.g.i.+.r.s.J.S.-.g.g.r.r.f.+...i.f.+.:X}.}. X8X8X|.|.|.qXqXqX8XnXMXCXCXrXV.w.9.f.C.d.f.M.m.'.$XvXsXfXiX-X) H : 2 F G E E _ X.+.r.].qXqXwX8X|.N.Z.$X>X@X{.|.9XsXsXwX:X:X{.@XyX0X>X{.G.S.V.=X,XtXtX>X",
"s.[ d.G.[.[.A.M.Z.Z.>XJ.+.9.g.S.S.J.fXHXMXdXsXiXiX,X,X:XJ.J.M.S.i.S.J.=X=X{.=X=X=XJ.K.j.i.2.3.X.X.i.G.g.G.0XsXfXgX0X9XMX9XM.:XsXCX-XI.c.k.! E S m ! 3.k.2XgXfXtX:X{.rXMXZXMXmXmXyX0X0X:X@X>X#X@X{.:X8X@X[.d.f.j.S.C.G.f.M.{.@X8X|.@XH.G.C.M.Z.|.|.|.G.Z.H.H.H.+XG.K.X.+ A 3   # %.D.C.m.A.G.K.S.S.M.f.f.f.i.+.X.` E E ` X.| ..+.X.+.' X.X.X.X.X.X.X.` ] ] | w.J.J.<X9X9X8X9X8X@X#X$X8X$X#X8X9XyXZXSXPXPXBX:XS.g.g.f.f.s.d.G.A.$XyXsXGX( A = = N s A D E X.+.+.d.0XmXyX9X8X+XM.O.r.t.r.y.B.H.uXNXBXyXuX#XA.H.y.-.| S ..f.f.w.o.9.",
"{ i.M.s.t.o.{ k m m m { r.Z...w.g.+.+.f.l.h h S s 5 p Q | i.C.H.J.j.h.E D %.~.^.D.Y.~.-X-X^.1XpXjXCXpXrXdXnXZXmXqX:XyX0X8X9X$X#X[.G.tXfX-Xp.X.+.g.c.D.-XKXHXGXfXtXiXsXiX0XsX=X[.+X{.+X{.{.{.|.:X[.H.M.g.s.G.[.Z.Z.Z.Z.N.Z.'.|.uXnX8X@XH.M.Z.].[.].].[.|.G.G.{.{.J.oX~ 3 . .   . 2._ | } | ..+.O.+.O.+...X.| | A 2 e w i w k s w d B / ;...E E _ E ! h 2 e i.K.+XG.9XyXdX>XV.w.s.d.m.Z.].[.:X8X8XyXyXuXqXmXuXyXiX,XJ.K.i.9.M.}.8XuXbXAXg.e % % t X - F X.X.X.+.r.d.&X%XvXdX@XC.| o.o.+.9.o.o.+.C.C.r.r.-.+.R j R ..4 k W X.&.{ { ",
"*.*.+.w.w.p.p.Y.pXjXjXCXrXe.&.%.%.&.2.i.! 3 7 3 - f h Q W | O.Z.H.J.U.T.3.x.^.;XaXjXpXpXfXdX>X+X+X>X>X>XyX#Xs.s.d.d.9.9.t.G.M.m.d.B.Z.+X=Xj.+.i.S.J.F.CXPXKXGXZXMXMXiXsXsXtX,XH.G.[.+X=X:X:X9X0X0X|.H.d.d.d.s.9.s.].G.[.|.|.8XZ.Z.Z.9.B.d.s.s.r.d.N.{.sXdXMXmXwX,X,X&.( f O   o h <._ X.D A d h j h h d h R W ~ A 3 3 r e 7 2 1 % X + + $ X 9 s 9 7 e 7 E | 9.K.Z.#XuXuXtXoXH.G.S.S.d.d.M.M.}.@XtXyX9X9X$X%X$X9X@X{.K.S.r.M.H.Z.G.m.s.i.2.g %.<.D t r 1 / `  .+.X.X.&.d.l.+./ d R ..O...O...} O.T N R N h w s D %.n M ^ 6.3.=.D ",
"LXLXLXLXGXGXHXKXdXZXmXAXNXPXoXi.p.&.i.i.Q Q ^ m %.&.j.%.&.@.i.{.:XiXfX6X6X1XfXfXsX0XdXsX0X:XoXM.s.d.r.s.y.{.K.i.0.9.o.w.| | { } R { O.} -.s.f.i.S.J.=XHXHXMXfXGXHXGXgX0X:X0X=X:X+XJ.J.K.H.{.0XyXmX:X[.Z.M.d.e.i.V.H.{.wX0X9X:XN.}.Z.B.M.Z.f.g.w.+.9.].nXSXAXmXyXyX=XQ B 2 O   $ : w ~ g e a g g S W R m R ~ X.| ` 3 r r t t t r 6 ; & : - 6 w 1 w ! j.*.p.g.W W O.d.'.[.M.M.d.s.g.i.+.+.-.r.9.r.r.s.d.C.Z.Z.+XG.S.M.+.....-...} ....' _ S X.p.p.h.*.) ! f S ..-.-.2.` S 2 < + 5 < 2 O o @ @ w o * 5 o d E D m I.jXKXUXLXLXLXUXUX",
"PXPXHXHXMXmXMXBXsXrXmXmXBXNXNXNX=Xf.+.V.m.d.M.i.+.C.{.S.f.j.-XK.,XiXiXiXsXfXwX8X8X>X{.>X0X8Xd.o.O.d.f.K.f.e.i.r.m.H.{.s.9.@.~ ~ ~ R Q ` i.G.K.c.V.M.:XiXsXgXfXfXGXGXiX0X:X:X:X+XH.{.{.oX:X:XyXsXMXyX8X}.|.0XMXKXCX,XwXsXyXsXyX].Z.Z.Z.[.G.Z.f.i.s. XBXBXyX$X8X9X8X[.Q r - # o .   n p.@.X.X.@. .| ..@.w.w.i.i.X.r % r ^ *.3.4.#.6.3.*.) 6 - - 2 ` 3.c.c.F.p.X.n a R -.-...O.r.O...+.+.X.X...X.X.| ...._ ....+.+.+...W E s 4 * 2 r a n %.X._ 2.a.j.` p.%. .A +   O o . = = = < 2 = = # + # . .   . = w A E 3.jXGXHXJXHXZXMXAXHXHX",
"MXGXAXGXGXfXiXgXMXMXNXBXnXyXvXqXsXwXS.S.S.i.V.M.V.Z.|.:X{.F.5X;XX.S.-X,X:X}.}.|.}.[.G.:X:X}.M.-.X.-.S.yXSXNXmXeXN.N.].:X].i.i...W _ | j.F.H.U.!.f.@.:X,XiXiXfXGXHXGXfXiX0X:X:X:X@X:X:X0XsXMXNXyX0X8X:X0XMXHXHXAXPXPXMXnXyXuX[.[.H.[.[.t.].'.m.G.>XyXvXwX$X$X8X{.8X@XU.n t 1 = . # m p.+.+.9.+.+.+.r.d.M.t.+.g.d g b =.j.S.=X;X<X-XU.F.1.1.P.z.z.b.h.3.j.J.J.k.$.D n i w 1 = 3 d p p i a d d N R N l p l E S d s s s k A d = . r g ! X.p. .3.U.~.I.c.S.M.r._ d < = = 2 r g a 1 = = = 4 i w @ = 1 2 ! e 3.(.aXGXGXMXMXCXfXMXfXfXMX",
"fXfXHXCXGXfXfXgXgXdXnXyXsXmXsXwXsXZXZXoX=XoXK.M.s.A.#XZ.r.H.iXCX^.P.-X{.].N.[.H.M.m.N.}.#XG.9.| | +.g.A.#X[.H.dXmX9XnXuX8X{.{ m S / f.oX~.] S.@XC.| H.H.0XsXMXGXHXGXGXdXsX:X@X@X9X8XqXwXnXnXmXmXmXMXNXHXAXmX9X@X0X9X@X#X9X8XB.m.B.m.A.}.}.{.|.{.0XyXuXqX#X@XC.f.K.+XJ.s.J.m a     c.3.*.*.p.p.9.@.+.s.K.K.M.K.~.&.*.v.^.6X6XpXpX3X(.6.7.,.!.^.4.$.(.(.3XT.jXkXjX7XP.=.M b b a t i i d k k h j h d e w w p O   @ O o . # = = - 7 ! +.i.p.p.F.c.l.f.S.J.+.@.f.X.g 1 r n ^ ^ E _ a r 7 7 p 4 z [ +.g.D.&.1XjXzXLXZXGXMXdXfXNXMXMXfX",
"GXGXMXMXGXHXGXfXMXMXNXBXnXNXmXsXmXyXyXrX,X,X<X:X:Xm.m.{.o.H.H.0XaXjXGXGX0X].G.Z.t.r.s.9.y.t.M.g..._ ..+.| E -.H.G.G.o.y.d.r.i.R W +.i.M.J.a. .f.D.f.i.f.=XsXgXfXiXMXZXsX>X{.C.s.Z.[.@X@X@X9X0XwXyXwXnXmXsX:XH.Z.M.Z.Z.G.Z.s.s.s.s.s.m.m.t.}.8X9X9X@XH.'.#Xr.+.g.i.i.f.E./ B ; X b D kX3X6X^.Y.x.z.k.D.oX<Xj.&.p.Y.k.jXLXxXjXLXLXKXLXxXxXjX6XT.7.P.(.jXxXLXGXGXKXKXKXKXxX1Xv.j.j.3.*._ ^ _ !  .m d k d s f 6 % X $ . @ w h h A _ _ _ p.f.@.@.@.f.=XE.X.*.^ k.6XkX3XY.OX7X6XJ.w.&.d S Y W W j k 9.M.J.-X,XfXfXMXMXMXCXMXMXdXsXsXMX",
"MXMXMXHXHXHXZXGXfXdXsXBXvXwX>XnXwXnXsXnX,XrX0X0X:XK.M.9.i.{.9X@X0X0XdXdXMX0XN.M.r.+.+.o.O.| O.+.Q E S D S S A A Q +./ +.s.G.M.o.s.d.i.N.G.c.4X=X+XE.%.&.C.>X>X>X>X>X=XH.S.s.i.+.O.9.s.t.M.M.[.[.$X#X}.{.[.H.G.M.f.H.{.G.G.G.G.H.Z.d.i.r.m.'.#X#XZ.m.O.d.s.+..._ _ Q E h r + % 8 Y.kXGXJXJXHXKXKXjXUXKXUXKXLXGXfXpXGXGXKXGXzXGXGXHXHXJXKXKXKXUXLXxXkXcXcXxXzXLXLXKXKXIXKXUXKXjXrX;XY.D.h.D.j.h.*.E m m R ~ F ) ( g g m R p +.2.p.+.+.j.p.D.I.I.F.v.m P.7XjXJXIXJXSXSXKXLXLXMXM.M.@.{ { +.R l W C.C.f.H.{.0XdXfXdXMXMXMXHXMXMXMXMX",
"CXMXMXsXsXdXZXZXMXmXnXnXuXnXqXBXNXBXBXBX=XiXtX0XsXsXMX:X| s.H.{.@X@XmXAXMXmXs.i.+.9.O.| o.i.+. .+.E D f f n f g g f i S / W | | +.+.r.N.N.i.E...E _ ] X.2.f.C.i.i.2.g.r.+.+.+.X.+.O...} ..9.s.m.Z.Z.[.{.{.C.C.d.G.G.{.tXwX|.|.{.{.Z.t.s.t.'.}.].Z.s.o.| | E A F S A ;.+   1 k.LXpXdXdX#XA.0.N.BXDX>XH.nXBXDXBXbXBXHXZXPXJXKXKXZXnXSXHXSXmXmXbXAXKXLXxXLXPXPXDXnXyX9XH.sXPXKXKXzXxXzXGXKXKXHXjX1XI.3.h.3.i.2.X._ 7 | @.| l r.-.+.S.g.U.U.1X4.6.x.).(.kXzXKXKXAXBXuX0XsXvXBXNX[.f.f.} o.o.9.+.9.H.H.H.H.C.+XtXdXdXMXNXNXZXGXGXZXZX",
"JXmXMXsXsXsXmXSXNXBXmXvX8X@XvXmXBXNXBXmXsXfXfXfXsX,XwXf.l T m.[.G.|.@XuXuXsXMXoX9.w.i.9.r.r.G.f.&.%.H A h i e r r 3 w d d W ..X.| +.i.s.9.W U.k.Y.!.%.! ( X..._ | ` _ _ @.| | _ W W W W ~ | o.r.s.M.[.[.H.G.s.d.M.:XmXyX9X[.@X$X].Z.B.t.M.].G.Z.t.+.| W E A h h h n d O   @ 9X>X@X+XH.s.+.s.M.@XmXHXE.-.d.m.C.0.y.d.G.>XtXtX:X:X:X:XJ.C.i.M.H.{.yX0XSXdXK.f.K.i.f.S.i.r.tXAXJXUXLXLXGXHXPXPXJXJXGXpX-XU.F.D.p.h.d w.i.9.o.i.&.&.&.i.U.F.Y.Y.(.hX7X5XZXHXHXHXNXnXyXnXmXBXbXmXsXi.R [ } O.U i.V.M.{.M.i.+.| | r.s.A.>XdXdXmXZXZXAX",
"$XyXsXsXyXnXNXvXyX9X%X}.A.#X#XqXvXnXmXvXBXiXgXpXsXmX8X[ +.H.Z.{.9X0X8XeXBXMXGXLXoXf.9.9.s.m.y.Z.K.+.F w 9 < = @ i 5 p R Q _ X.X.&.i.+.~ _ ,XLXLXlX5X(.>.y b ' ..] ! ] ` _ ! / W W W _ ~ ~ ~ W [ o.r.M.].G.M.K.{.0XnX0X8XA.u.y.y.m.s.s.m.Z.s.0.0.} } Q A h d k d i h F #     d s.w.+.@.| ` _ _ -.s.Z.8Xf._ ~ | W ~ ....} +.i.s.s.i.f.F.F.a.3.<.X.T T [ s.a.S.K.K.G.:XrXs.r.G.0XDXHXZXHXHXBXbXSXPXIXKXLXCXzXjX~.2.i.i.f.i.o.i.p.U.K.j.D.I.^.(.7XjX6XfXMXMXHXNXNXAXfXfXnXnXAXnXsXrXz R 9 j k o.o.f.M.i...| ..` X._ ..+.m.@XuX9X0X9X",
"{.#X#X0XuXqXqXyX@X|.}.Z.G.:XuXvXvXuXmXBXyXiXfXfXfXsXM.R | g.s.M.:XyXBXmXAXDXDXNXHXwX+.Q +.= w f ( D a 6 w p k +.K.M.f.f.i.2.2.+.+...i.:XM.sXnXmXmXdXiX~.+.A g ! ! F ! ! E E ~ W ~ E S S m E _ W _ | | +.M.:XsXyXwX[.M.s.i.O.0.O.+.+.+.o.o.O.| | / Q j e s = 5 * + r X - % : g N `  .~ _  ._ _ / / ..r.K.g.@.~ _ _ ! ! E ~  .X.X.+.p.f.H.=X,X=Xf.X. .~ +.i.g.g.G.[.}.G.s._ | +.s.A.+X0XyXwX{.#XyXPXPXIXHXLXKXxX-Xg a.K.{.G.N.oX{.=XF.c.P.P.^.5X6XGXHXZXmXAXBXmXyXAXAXAXNXmXNXsX0XV.j W [ W +.m.Z.M.d.+...| | @...+.+.X.X.+.i.f.G.",
"s.r.t.m.C.M.M.Z.{. X|.@XwXrXyXvXvXuXBXnXnXdX,XgXMXMX| 2.+.X.c.K.:X:XsXmXmXvX0XyXH.M.R Q f.~  .2.E ` j.;X;X2XiX,X>X+XK.f.f.i.-...W g.<Xf.Q K.S.r.m.H.=XH.g._ S g A G H F F ! E E S h j A R Q W W ~ | ..r.[.8X$X$X[.s.9.9.9.y.} | o.| | W W | { R W j i * + # = 1 a =.- : > 6 k + < N S N / _ _ ^ ^ ! ` i.s.i.i.X./ ~ _ _ | _ | X.X.+.+.9.i.r.2.+.<.X.X.2.i.+.+.+...+.+._ _ ` ` _ ......w.S.f.| X.S.{.@XyXIXPXKXLXjX*.W 9.s.+X+X<X~.G H /./.(.1X=XGXMXmXyXyX8XqXdXBXmXNXnXyX8X[.M.,Xk p Y W R o.} ..| _ _ | X.X.X.+.| ` ` X.2.i.r.",
"| | ..o.+.+.r.9.Z.8XyXvXnXBXyXuXuXnXuXnXmXbXyXfXfX{.p X.] 1X-Xc.:XwXsXsXyX:XM.s.r.d.M.H.G.j.&.p.U.iX4XtXtX0X9X+X+XG.C.K.M.g.+.+.+.V.f...W <.<.X.-.g.g.g.s.+.| Q m f g f b A A m Q W | | o.+.+.+.+.w.d.G.[.G.m.y.r.9.9.+.o.o.| } | | R s k j k d D n < + # % g ] ` %.J X $ # % + .   2 9 w l U R Q Q R E _ X.+.X./ Q _ _ ~ W ~ _ _ | o.i.f.g.2.+._ | _ ` | X.| _ ` ( E F n n D _  .` ` ( `  .! ` ] ` r.#XmXyXPXHXKXLX;Xk.) Y.*.6.- v L.).hX7X6XsXNXDXsX,X{.H.@XuX8XuXvXmXmX{.s.S.i.o 2 s j S Q _ ~ E E _ / | ` | _ ..X. .X.| _ _ ",
"` `  .| | X...+.m.#XyXbXBXvXbXvXvXqXvXmXvX#X[.J.2.i d ( ;XpXaXJ.@XSXmXmX9X]. Xm R m.#X{.J._ J.;X,XfX,X[.[.>X>X+XH.M.M.g.i.2.2.` ` h.p.f.F.! r ! X.+.+.+.+.i.w.@.| _ E F D Q Q ~ | @.+.9.0.t.s.t.s.w.+.o.O.+.+.....@.| @.o.{ W / | } h w 2 2 i h ! D = E ~ f ` ` S C b 6.M 8 > A <       % * 4 p l k Y D E E E E E _ | X.X.@.X.......+.i.V.J.:X9X{.V.X._ ( _ E E S h h S E E Q Q W E Q W W +.g.&. . .i.M.H.+XyXmXyX>X,X~.c.(.P.(.).cXjXaX,XKXHXNX0XyX>XS.i.f.C.G.H.#X[.8XwX].O.i.@ = 2 i N h N S F f A d j E _ _ / _ _ | X._ ..` ",
"` _ _ ` |  .X.X.o.o.y.u.Z.@X#X#XqXuXuX#X].t.i...w e w F.;X>XdX0XC.A.%XuX0X]. XV.j O.[.tX@ E.=XC.9.>XC.Z.H.@X>X>X+XS.c.S C E D *.#.h.c.^.b.%.b n ! Q _ @.@.o.| +.w.i.&.&.&.+.&.+.+.9.s.d.M.M.].].G.N.N.r.@.....+.s.i.@.{ W { [ Q h d @ = . $ g ` k.%.) ~ &.S h F r u L hX6X- u b v P L.T.R.8 & + 3 e h A F D D D E ~ W ..i.f.f.i...+.o.| +.g.].9X8X{.V.&.X.@.W E ~ ! ` X.+.....| +.i.f.f.f.M.M.G.K.p.g.V.i.+.| r.r.r.d.c.X.! 1X4XpXaXgX+XtXmXwXsX9XG.S.2.&.i.+.o.S.d.G.H.Z.M.K.W o + 3 4 p e a f r 2 e a a d E D A p j W X.| X. .",
"@. .| | X.X.@...' ` ..O.+.+.s.Z.8XZ.r.r.i.X.` +.< O d N l.H.[.+X9...| o.m.#XmX:XS.w.s.W 9 i.s.+.9.G.H.9.i.O.C.{.=X@XtXiXh.x.) *.*.3.-XU.^.(.(.^.Y.P.h.p.g.S.D.I.D.S.K.S.F.c.a.f.f.f.s.N.N.]. X8XeXqX8X|.{.[.{.0XyXmXMXmX0X Xd.+.` - % H T.kXjXLXKXKXUX3Xx.$.H v > : - ^ -XUXUXIXPXPXPXIXPXKXLX=.. @ 4 s j j A S R S R { 9.M.[.[.K.i.| / { | _ O.s.|.:XJ.V.M.V.p.3.3.3.g.f.g.i.&.X.+.d.N.M.s.s.+.+.f.i.O.+.f.3.` ' ! R X.m 3.-X,XsXgXZX[.uXtX=XG.d.m.K.S.M.f.i. .2.f.f.d.r.S.J.g.o + = < 9 0 3 3 r e e e g d h A S S Q W E | X.X.",
"| ..X.....| | | ..X.X.X.X.+.w.+.X.+.+.+.%.Q p @ o @ e F R | +.+...o.o.o.O.s.C.H.[.M.i.  i W _ | | _ X.O.O.r.r.H.@X0X:Xg.i.a.a.;XjXxXxXxXxXLXLXLXLXGXfXgXiXiX5X2X2X-X<X-X=X=XI.D.D.U.J.J.}.{.@X$X@X$X$X#XZ.Z.#X$X$X8XuXuXyXuX].H.S.v.c.2XgXfXGXAXPXPXPXIXIXUXUXUXLXUXUXKXPXAXAXAXmXyX@X@X#X0XuXAX5X  $ $ = 4 2 5 k R N j { o.o.s.[.[.|.{.+.| W _ | +.d.=X9X:XoX=X;X2XiX;X-XI.D.S.f.@.| | o.9.M.M.m.M.f.+.| @.F.I._ 2.i.i.2.g.J.K.H.+XQ {.+._ _ _ | ..X.i.i.g.i.r.-.+.&.+.-.+.i.U.$ . o O + = 5 3 < 2 r e e i i d j R E ~ _ ~ _ _ ",
"_ X.| X.| | | | ..@.X.+.+.X.X.X.X.X.+.+.E w . O + + y ] +._ j | -.s.d.s.i.....| r.s.X.3 w S W / W | ..@.@...+.@.@.9.r.+.D 2 h J.-XzXLXLXUXLXLXLXKXLXGXzXjXfXiXiXgXgX,X0X2X,X2X2X,X2X5X,X0X0X0X@X|.].[.}.G.M.d.r.i.r.s.s.9.s.|.rXrX5XgXgXMXAXBXBXmXAXAXHXIXPXKXKXKXKXLXHXHXNXNXiXtX+XM.s.s.d.m.s.H.o   . .   $     + 9 p R / / W W 0.u.[.+X+XS.g.| _ +.M.+X0X0XwXsXfXKXLXLXjX3X^.S.j.&.| +.M.H.+X#X8XsXdX,XS.+.c.g.p N Q X.g.=Xf.+.X.| | _ _ ( _ _ _ | +.+.e.w.w.2.+.+.-.i.p.2.X.o =   . . # O O @ + = 2 3 2 4 w i i N R R Q W W ",
"W _ { ..........o...| X.X.X.@.+.X.X.+.R f e 6 % 1 + - r D R +.-.+.O.o.+.+.E p R X.d m p %.N Q R Q R S W | @.| X. ._ X.d r = A _ g.J.gXLXLXKXKXKXKXKXGXGXGXMXfXtXtX>X+X{.>X0X,XiXiXfXgXpXgXsXdXdXrX0XwXwXrXrXK.s.@.@.@.| @.J.NXnXsXgXsXyXwX:X8X[.'.[.qXnXyXmXHXZXJXLXHXHXPXHXHXGXMXiX:XJ.f.s.f.i.|.HX# X # % % + < + . + o 5 9 N / _ { [ O.m.[.C.d.r.r.r.r.C.{.0XdXSXAXPXPXKXLXlXpX-XD.2.@...o.o.s.].#X9XbX9XS.i.g.` 2 3 W | +...( ( ` X.` _ ] _ ` | _ X.+.+.+.+.2.i.i.+.2.i.-.3 X : # .   . = o o + + + + @ @ 2 w w p 9 h j N R ",
"R E / | | | +.o...o.+.+.X.-.X.-.+._ W R A g e r 7 2 2 1 r + d 9 _ X.+.| h 3 l | i.W f.p.~ w Q j W ~ d < d ` f g g F e i _ ! g i _ &.F.5XGXGXGXKXKXKXGXGXfXdXdX0XH.M.M.J.{.:X9XwXiXsXfXgXfXfXMXZXHXHXHXHXHXPXKXHXCXiX:X<XsXmXsXnXsXsXyXuX8X{.[.G.N.G.M.{.0X8X0XmXmXsXdXNXnXZXAXAXPXPXNX9X|.Z.{ 9.u.mXgX2 % ' %.a w s f n m i .   O p R } | { [ } | @. . .2.f.s.d.+XtXuXbXbXbXmXPXKXGXpX-X&._ _ ..| | o.| o.s.i.+.2.= e a Q W ~ ] ( ( E E E _ ` ' X.X.X.| X.} +.+.+.+.w.+.i.g.= . X = + + . .   .     . .     $ + = @ 4 9 w 3 h R ",
"j S W W W ....+.+.+.X.+.X...| R S W _ +.| X.` a f _ D a e e 3 # = D E _ _ E E | s.s.w.i.i. . .{ ~ R < = g m a 7 - : : G %.) H ) ! D z.,XiXfXfXCXfXHXGXGXgXsXwX:X XM.M.G.K.:X9XwX0X>X0XtXyXdXmXZXAXZXZXHXJXHXJXHXPXPXHXNXNXBXnXyXwX8X@X[.{.H.G.J.S.M.s.d.C.@X+X+X+X=X:XwXmXdXAXAXDXSXSXvX0X:XsXMXyX}.uXk X.+.+.| d W R N j k w 7 7 = @ w R | X.` X.` ` _ ` | | | O.o.O.O.9.N.8XmXZXZXMXMX2XD._ ] `  .%. .` X.<._ 2 a F S &.p.A f F h g g h g d a k k k A d S +.+.i.9.s.y.g.m 7 # . : % % = + + # + # # # O = = = + @ + = 9 e s h ",
"s k S Q E W W / Q Q R j k j h Q | +.i.+.O.i. .%.` +._ E b t r 2 a W | X.a f d | K.f.f.M.f.g.+.+.+.| Q %.&. .f b b G a #.*.Z c H z.pXfX,X,X0XsXsXdXGXCXfXgX0X>X>X0XwX:X:X>XwXwX0X0XwXtXwXyXsXuXyXsXdXMXMXMXMXZXmXnXmXnXnXyXuX$X$X:X@X@X{.{.[.[.{.:XK.M.i.i.f.s.f.S.H.+X#XuXtX9X#X#X@X@XuX0X0X#Xu.i.s.B.=Xg.S.M.+.A @ @ o p s p 3 k d w 7 w < 5 s s k N N j k d d j | X.` ` +.C.#X9XyXmXdXgX+X&.E f A 3 d F 2 . r f i ! X.S.S.! D ` X.` ! ! H D D D ~ _ X.1 = a { [ { < 3 4 ..X.D % % X : : % + 6 g t 7 7 e e 7 7 2 o o @ 2 3 9 p ",
"< 4 5 O < s k p w d k h S R _ ..+.s.s.+.O.R +.%.b b b H ) ^ ) ) ` w.&.^ H =.H 3.3.*.&.i.f.K.f.M.f.i.&.r.f.i.2.! c.P.1.3.^.jXzXGXfX:XZ.#X9X>X:X0X=XH.0XgX0X0X:X:X8X0XsXyXnXsXyXyX0XyX0X0X8X8X8XwXwX0X9X9XwX:X+X@X9X>XtXsX>X@X#X8X|.[.[.Z.H.[.[.|.[.[.].f.f.s.i.i.i.2.9.f.f.s.i.t.M.[.9XwXqXqXqX[.M.{.:X+X{.s.g.c.+.( D h 2 d p s k d d w 6 2 2 3 i 3 7 3 2 2 2 3 3 w k R .._ ..O.-.r.s.C.f.i.| X._ m g r b % 6 1 f E S X.&.h.I.c.j.j.k.h.h.a.j.j.j.f.p. .i A X.M.s.9.a h = h 2.&.&.h.n t + X - D H H D n A D n g e 2 + # + % 1 < ",
"w d i < i h h k d j W W W | i.i.i.i.+.X.r f H %.4./.pXrX-X-XK.V.g.g.f.c.c.b.~.,XpXI.k.p.f.j.J.J.J.f.s.M.J.D.D.F.U.-XF.aX,XwX0X@X@X|.:X9X@X{.:XoX{.+X+X>X9X9X0X0XuX0XyX0XyXtXyX0X:X@X0X9X0X0XuXwX0X0X:X:X:X{.K.J.{.@X>X>X8X#X[.Z.}.[.G.G.C.[.{.@X}.].G.S.i.w.w.i.i.i.g.f.i.s.r.i.f.G.Z.].8XvXbXuXyXyXtX>X@X0.G.M.f.+.E S i d k j j N h h m e t t a f b b b n n n g i a a a g n A A S Q _ | X.+.+.X.` E ! >.- 2 r f 1 r $.1.1.z.I.!././.!.^.~.J.c.j.j.F.p.h.&.i.K.S.G.V.c.~ 3.j.3.X.2.z.` a H ` <.%.3.` ! ! ! _ Q g a t 6 2 9 w p ",
"3 w d i A R S Q Q _ { ....o.o.9.d.f.j.k.h.Y.^.=X>X>X@X8X8X XH. XoX:X{.=X>XtXsX9XiXaX6X^.I.D.j.J.J.J.C.p.2.c.-X2XaXGXGX0X+X>X}.}.#X:X@XZ.N.|.{.H.G.H.{.{.:X:X:XwX9XsXsX0XsX@X[.@X{.{.+X0XuXwXwXyXwX0X0X:X<X<X,X<X8X0X8X8X@X].G.[.G.Z.Z.S.+X9X:X:X@X[.H.S.f.i.g.g.f.s.r.r.+.+.O.+.+.+.+.s.s.0.0.:XM.9.s.|.qXN.Z.G.s.r.+.E n n k j j j s h j S ( ` ` X.&.j.f.p.X.E n M b b g b g a g f A ~ &.p.K.F.c.4.<.#.J : t Z P v v $._.(.).hXjXzXjXjXaXjXiXfXiX,X2XpXpX2XiX,X:XoXU.~.D.h.F.x.x.] #.1.) $.h.h.z.I.h.X.i.W j S 3.$.n 7 2 3 w p ",
"f S Y k R W | @.+.+.9.9.+.+.2.+.f.K.S.J.J.f.m.G.].A.C.C.C.:X0X9X>XJ.H.{.G.oXwX0XyXZXfXjXpX2X;XD.3.p.x.a.^.pX5XiXiX0XJ.M.}.#XqXwX9X9X|.m.].|.9X{.{.+X{.H.{.9X:X@X9X0XuXuX9X>X+X8X:X@X@X#X[.H.G.[.0XwXwXwXnXsXmXyX@XG.G.S.f.C.C.H.H.G.C.G.G.{.].#X#X#X+XH.G.C.f.f.s.w.X.` _ @.+.&.i.w.i.i.g.d.G.{.yXsXtX8XyX].0.t.s.O.r.+.] A F d i 7 g m ~ +.+.+.@.&.+.&.*.#.3.Y.;X^.Y.D.D.c.h.3.&.3.j.U.;X5X6X7X7X^.Q.^.(.(.T.T._.).hXjXxXxXGXGXHXHXHXHXHXHXNXZXGXZXGXGXGXGXGXHXGXGXLXGXfX6X7X^.(.P.P.P.1.6.6.7.7.P.x.x.h.~ _ ` ` h.h.*.^ a t e ",
"! | F E E _ ` <.i.2.i.f.i.f.j.F.J.{.:X:X<XiXi.~  . .&.w.d.H.9XwXsXgXiXdXMXrX0XwX0X0XtX=XwXsXfXjX7XY.1XzXzXaXiX0X:X XoX|.:X8X@X9X9XeX9X|.|.@X{.{.+X@X@X+X@X8X9X8X8X@X#X#X[.@X{.{.:XwX8X:X[.[.Z.G.G.@XyX}.BXnXyXqX0X{.V.g.f.j.Z.G.[.{.:X:X:X@X@X].Z.M.d.s.s.s.+.-.w.&. .|  .i.i.9.+.g.M.K.M.M.[.@XyX].@XH.C.+Xp T o.9...i.j.2.E n H n D ` %.3.a.h.h.z.x./.7XxXLXzXfX4X:X=XoX{.:X,X2X2XiXGXLXLXGXGXLXLXGXKXPXJXJXJXLXLXGXGXHXHXZXdXmXmXmXyXtX0X#XyXSXAXAXSXNXMXZXHXHXJXKXPXKXLXLXzXaXhXhXhX3X).(.7X(.Y.P.P.x.*.z.x.2.i.S.S.E.F.6.$.",
"a.%.' 2.2.3.4.1.2.c.S.F.F.J.{.H.H.{.>X9X>X,XiXgXpXaXjXGXMXsXiX,X5XpX2XfXMXNXNXtX0X9X:X@X>X:X0XiXiX,XiXGXMXfXfXmX9X9X0X8X9X8X@X@XwX9X|.9X:X8X@X].|.#X|.:X@X@X#X$X@X#X[.Z.Z.M.G.{.G.}. X:X X[.{.G.m.m.M.s.m.G.].@X#X[.G.S.K.{.{.0XsXsXsX0X:X#X@X].M.s.i.+.+.O...| | @.g.V.V.M.M.C.M.S.C.C.{.:X|.8XwXmX0X+X+Xs.j W 9.~ +.M.M.S.j.&.` %.h.h.h.F.P.P.P.3XzXKXKXJXJXGXfXrX0X0X0X<X,X2XiXsXfXfXZXZXfXMXMXmXyXnXyXbXNXPXHXCXMXMXZXNXNXsXdXbXyX0X:XG.Z.#X8XyX9X:X@XuXuX0XtXAXHXAXHXJXGXGXLXxXLXLXLXKXLXGXGXzXjX(.^.P.P.P.!.2.+.f.A.+X;Xc.",
"h.` c.c.f.V.D.c.c.c.J.J.J.H.@X:X9XwX>X0XwXqX0XsXsXsXiX,X5X5XjXjXhXaXzXfX=X+XH.+X@X{.@XyX9X@X:XH.M.+XuXsXtXiX0XyXuX9X9XuXuXyXnXBXyX@XyX8X}.[.+X#X8X#X].M.C.m.C.M.s.M.s.9.s.f.M.C.H.[.].G.G.G.C.M.C.m.d.f.s.f.s.i.t.s.d.[.{.8XyX0XtXuX0X8X[.M.9.0.9.s.i.s.w.9.+.e.V.H.{. XG.G.M.Z.Z.Z.Z.Z.G.].#X@X#XqXuXrXf.M.W | W W @.9.s.M.K.S.h.a.b.v.z.I.(.1XaXfXAXmXNXAXHXAXHXHXHXMXfXiXgXfXfXgXfXZXZXfXfXgXiX0X9XwXtXsXmXMXdXgXsXtXtX:X+X+X:X:X@XwX9X9X:XZ.M.M.H.+X+X0XwXsXdXsXyXyXNXHXHXHXHXGXGXJXHXHXKXJXKXLXKXKXGXjX7X6X5X5X&.&.M.{.:Xi.",
"!./.;X~.U.K.f.J.f.K.K.{.=X<X>X>X@X8X0XwXiX,XfX5X5XzX6X7X6X7X7X6XaXfXGXMX>XG.wXfXdXsXyX{.{.H.+X+Xr.{.:X[.H.E.>X9XwXwXuX9XwXnXwX8X9X0X{.].@X[.@XwX9X[.M.d.r.r.+.i.+.w.+.+.9.9.s.M.G.G.G.G.S.C.M.S.M.M.r.9.9.w.w.w.p.f.{.:X@X{.[.#XtXtX>X@XH.s.i.i.V.d.H.{.{.:X:X:X0XyX{.G.[.H.H.G.C.M.m.M.G.d.Z.@X#X[.G.:XH.S.S.i { &._ W +.s.+X=XU.K.U.~.1XkXjXaXfXMXsXsXmXtXtXdXMXAXJXKXLXGXjXfXMXGXHXGXfXfXiX0X,X>X9X+XC.].@X0XtXdXdXtX0X<X0X9X{.f.s.d.G.G.[.H.S.f.S.{.>XwXnXmXmXyXNXMXZXHXHXHXMXGXHXKXLXGXGXHXJXPXPXHXJXPXGXfXS.,XU.p.2.2.%.! ",
"aXzXaX-X;X^.~.F.~.U.:X+XoX=X:X:X,X,XgX5X5X^.^.6X6X7X7X7X7XhX6XjXzXS.J.,X5XgXgXsXsXnXdXdXgXdX0X0XM.9.r.H.J.M.d.].{.@X|.8XwX8X:X@X9X0X|.}.[.#X}.}.eX@Xs.O...+.9.i.i.w.i.s.i.f.s.r.i.M.C.S.M.C.V.M.M.m.s.s.s.i.g.M.G.:X0XwX8X:X[.G.Z.M.f.f.f.g.f.s.G.{.{.{.:XwXsXyXvX0X:X@X:X:X{.H.oXoX:XoX{.{.[.Z.Z.#X@XH.H.f...s W E j h W R S.K.=X~.~.;XaXzXzXGXGXmXsXiXsX0XtXtXsXsXgXsXZXCXfXpXgX,X0XsXsXgXiX,X=X{.f.f.[.@X9X9X0X:X:X<XwXdXmXmXsXsXtX:X:X>XsX{.{.f.f.K.0XuXmXdXyXdXwX0XtXsXZXNXNXAXHXJXKXJXJXJXHXHXHXSXAXAXbXsXK.j 2.I./.^.5XaX",
"NXmXAXGXaX6X5X-X~.~.J.=X=X,X,X,X;XI.4.x.(.(.hX7X7XhXhXaXaXfXMXnXMXjX1X1XjXjX3X2XiXiXsXfXiX,X0X=XS.o.f.#XtX0XyX9X:X8XqX8X9X[.@X+XM.s.9.s.M.Z.C.M.9.s.f.g.+.i.f.C.S.S.G.s.f.f.s.f.d.f.V.f.Z.G.G.H.].G.Z.Z.M.G.H.+X:XwXwX0XyX:X{.{.C.S.f.f.i.f.S.H.:X:X:X9XyXuXyXvXvXuXuXqXuXyXwXwXwXwXyX0X$X#XZ.Z.Z.C.s.O.O.R o d p w p i s k K.:X,XJ.F.;XgXfXfXHXZXdXwX>X@X0X{.:XtXyXwXsXZXZXZXsXiXiXgXsXMXsXdXgXiXiXrX,X:X8X9X9X+XH.{.G.[.9XMXBXSXnXNXBXBXAXBXsXrXiX0X[.M.}.[.9XtX+XsXsXyXsXyXmXNXZXZXdXZXZXMXAXAXSXAXSXmXnXuX@X:XQ F.fXgXfXMXNX",
"+X@X$X0XfXGXiXiX2X-X;X,X4X,X;X1X7X7XhX7XhXhX).).7X7X7X6XzXGXZXNXHXHXHXlXaXfXaXxXaX5X,XiX2X0X<X:XJ.o.{.wXdXsX0XeXwXvXmXNX0Xm.9.X.` S E | +. . .%.' p.:X:X{.G.G.M.f.M.C.M.C.s.G.G.G.G.[.@X9XwXwX9X{.G.Z.Z.Z.Z.@X8X8X8X9X0X>X:X+X{.+X+X{.,XiXdXsXMXsXnXvXyXuXnXwX0X}.$XuX%X#X}.8XyXuXyXbXbXuX[.C.C.g.R | | Q 3 1 w e w 3 i h W S.J.=X~.~.5XgXsXMXZXyX0X0XyXsX:X+X@X:X9XyXnXnXdXsXMXiXfXsXiXsXsXmXsXdXmXsXdX:X#X#X|.G.+X+XtXuX8XuXyXuXvXbXSXBXvXbXmXHXGXHXHXnXoXoX:X{.@X0XyXsX0XyX0X0XtX0X0X0XqXnXMXdXdXmXnXsX{.d.{.KX5 =X>XtXyX>X{.",
"+X8XyXAXHXGX5X5X5XpX2XiXaXaXaXaXjXjXaXjXhX7X7XxXjXxXzXaXaXfXsX@X$X#XSXmXAXZXfXjXzXfXiX,X-X=XoXJ.K.s.C.>X0X:X:X8XyX0X+Xf.S R j 2 + < p p i d h E ] 2.>XyX0X[.'.M.d.s.m.M.M.G.H.@X{.{.:X0XyXyXuX@X}.G.m.m.N.N.].].H.H.Z.G.G.{.{.@X@X>X0XuXnXsXyXnXyXuXyXyX0X#X9X+Xt.0.0.m.m.Z.[.H.#XH.Z.H.A.Z.Z.s.O.....l w 3 r 2 i w a h A ! ` X.c.F.5XjXzXfXfXdXyXyXyXyX>X:X0X<X0XsXyX:XK.f.J.sXMXZXMXZXfXiXtX0XtXmXNXAXSXmXnXnXwX0XK.G.G.[.}.{.{.9XuXqXqX9XnXmXAXHXGXHXPXHXsXMXiX:X+X[.>X>X0X>X:X,X>X:X9X9X:X@X+X>X9XwX[.{.mXNXZXd C.M.f.s.f.C.",
"#XbXNXHXJXfX;X5XiX5X2X;XaXgX,X5XaXgXGXfXiXgXfXsXMXCXfXMXHXAXyX+XZ.G.s.r.g.f.~.2X-X;X,X;X,XtX:XK.M.f.+.m.i.M.H.G.f.2.W i n h w 2 3 s s j  .i.K.c.2.a.{.0X$XH.Z.Z.d.m.M.Z.G.G.#X#X#X8X8X8X9X$X#X].].G.N.G.G.M.M.G.G.C.Z.M.].|.:X:X@X9X0XqXqXwXuXuX0X@X@X#X@XZ.M.f.r.i.g.M.C.f.G.l.f.O.} } ..O.o.} | E   = e e 2 e 3 a f J H b ` ^.jXU.aXLXLXGXfXyXyX0X9X@X:XtXdXiX:X[.S.S.-XpXfXgX>X0XsXsXtX>X+X,XsXsXmXAXSXSXmXBXNXsXsXtX@XG.M.M.J.m.M.{.|.wXyXnXZXZXHXHXHXAXHX0XHXNX0X+XZ.C.H.:X+XJ.+X{.H.{.{.H.+X:X:X0XuXNXBXvX[.p f.s.+.o.w.m.",
"B.#X9X9X:X{.,XiXfXaX5X,X2XtX,X>X=X,X+X+X:X>X>X9X0X:XdXyX0X0X{.s.+.X._ i.J.iXGXGXzXzXpXgXiX=X:X:X{.f.+.X.X.' ( G A b f E i W E %.g H ` g.C.H.~.6.6.7.~.@X].M.t.9.G.H.{. X{.{.Z.Z.G.H.C.C.t.t.s.m.G.[.}.G.|.{.#X8X:X:X:X:X8X:X|.@X8X9X0X0X8X9X8X8X#X$X#XZ.y.O.o.+.d.Z.Z.m.s.f.9.O.+..._ / D R W / E . + 1 r h D S S G ) $.n.1X2X5X~.aXUXJXGXZXMXyXuX0X9XwXyXyXmXdXMXMXGXKXJXKXJXnXwX0X>X:X:XyXiXdXsXtX0X[.#X[.#X@XuXyXdXnXmXnXyXnXsXwX0XwXnXBXnXyXuXtXyXfXZXAXAXNXNXDXSXnXyX+XM.C.J.H.H.{.].:X0X0X=X+X:X@XvXmXuX8Xr.T | +.+...+.s.",
"i.G.@X:X:X0X,XfXfXrX;XD.~.,X;X-X-XoXS.H.K.s.g.G.}.0XsX:XC.s.g.i.9.d.G.rXwX0XtXdXfXzXjXzXjXgX0X0X<XK.&./ _ ! f C f ' ( ! D Q +.Z.+Xg.b.J ) $.J L.Q.7X2XG.M.s.s.m.B.m.m.M.G.G.C.Z.M.C.K.M.9.i.s.G.H.H.}.}.8X8X0X9X9X0X9X0X@X9X8X8X9X9X0X9X@X#X#X#X'.A.y.+.O.| O.s.M.'.].C.g.2.` _ _ _ / _ / / R 4 = . w w g E _ E ] E ' h.D.~.~.b.!.fXGXHXGXfXsXyXnXBXNXNXSXZXmXmXAXAXZXZXsX>X>X>X:XJ.S.K.=X,XtXsXmXyX@X8X9X>X+XH.s.G.@X0XwXqXyXnXnXmXmXnXvXuXuX0X>X0X0XdXsXnXnXsXyXbXBXBXnXyXBXmXZXZXnXnXyX9X{.{.{.H.H.+X[.Z.C.f.4 j / i.t.o.O.+.",
"M.[.@X{.0X=X0XfXgXiXjXjX5X5XjXjXaXfXgX:XK.H.:X:X9XyXMX{.f.f.S.J.{.=X{.G.=X+X=XdXfXiXaXpXaXjXLXjXpX-Xj.9.| ~ ~ | @.f.| 3.3.%.f.4.) H P.^.jXzXxXcX7X-X<X[.Z.H.C.{.}.].G.H.H.M.C.G.G.M.d.s.V.H.].{.:X@X@X$X9X@X].Z.].}.Z.].#X[.8X0X0X#XA.Z.Z.[.Z.C.B.o.} +.M.f.i.O.9.0.0.} } Q Q N h S / E N < < 2 = + 2 i Q  .X.` ( <.2.c.U.;X1X~.;XfXMXHXZXiXsXdXmXNXmXMXyXyXnXdXsXsXsX0X+XH.C.S.s.i.f.J.{.K.f.+XC.{.H.H.C.M.C.K.+X0XuXyXyXyXuXuXvXBXvXnXnXuX0X9X>X9XtXsXmXnXnXmXmXmXmXnXmXmXBXNXsX0XyXmXnXwX@X{.@XM.s.i.r.| ..d d N j | X.| +.9.",
"Z.m.9.d.H.:X4XfX5XaX6XjXaX6XaXaXfXGXfXtX=X:X:X>XK.s.s.S.{.9XsXfXaXzXlXGXGXGXgXgXaXaXaXaXjXxXxXzXjXjX5XU.c.f.d.M.g.g.i.h.4.<.2.U.Y.kXhX7X!.~.1X1X1X5X4X{.{.G.:X:X9X:X{.{.H.:X+XH.{.G.H.:X@X|.8X8X8X#X{.G.C.H.[.+X{.[.G.[.{.Z.].[.].H.m.s.r.} W [ W } | 0.s.m.+.~ W W / _ N s 4 s e < . O = 3 < 2 0 = 4 p _ X.+.%.' 3.F.5X1X7X7X!.4XfXmXNXMXfXNXNXmXyX8X{.9X9X0X0X0X0X,X=XJ.J.=X,XiXiXgXgXfXfXfX0X=XK.S.f.f.j.f.M.Z.m.H.@X0XuXyXuXuXuXbXnXnXyXbXnXnXsXsX0XyXyXsXyXyXmXyXvXvXqX9X8X0XtX$X8XuX8X@X{.K.s.+.+.m 4 < w i A W W ! _ ..s.",
"9.O...+.C.0XsXiXaXzXzXjX^.~.;XJ.S.M.{.0XiXsXsXM.9.9.f.:XMXHXJXLXKXHXLXzXxX7X(.(.jXjXxXhXhXlXGXGXzXzXzXaX,XJ.G.H.oXp.p.h.v.F.(.).Q.`._.7.Q._.(.).1XpXiX:X:X9X9X@X@X:X:X9X9X{.:X8X:X0XuX0X9X:X|.#X}.|.@X@X{.[.{.{.{.{.C.s.r.f.H.C.d.s.r.9.O.+.o.o.| O.+.0.y.r.O.} / _ N o $ O + + + 2 = * % 4 4 2 2 = 5 4 E X.i.&.4.z.j.;X^.5X^.~.>XtXdXdXyXsXyXsXnXyX9X:X:XtXmXMXfXZXMXHXKXHXZXGXfXZXfXiXdXfXGXGXMXfXfXgXZXHXZXHXCXwXH.M.M.Z.G.}.8XuXvXnXmXbXSXSXAXyXnX9XwXyX9X0XyXwXuXqXvXuX8X#X@X0XqX$X0X#X].H.m.f.X.2 7 a 2 w 3 h j Q _ X.+.i.",
" . .X.O.O.+XmXgXaXaXaX5X-Xc.S.-X=X:X=XsXfXMXdX:X=X:XsXNXJXGXGXHXGXzXxXhXhXxXzXjXcXxXxXxXxXiXGXHXZXZXHXMXMXwX8X9X0X7.b.1X4XaXpXpXaXjX1XU.-X~.i.2.2.S.F.:X@X@X{.#X{.|.8X:X@X0XyX0X0X8X8XuXwXwX8X0X0X0XwXyX0XwX:X{.H.C.M.g.i.i.+.O.O.+.9.9.i.o.9.t.t.0.O.} [ [ [ x * O o $ . + % = = @ @ < = 2 2 2 + = = 3 d X.g.p.j.J.;X1X1X/.U.iXtXtXiX0XtXsXsX0XwXyXdXAXAXZXZXZXZXZXHXZXJXmXnXyXsXtXsXyXsXMXZXJXPXPXUXKXKXKXKXHXAXSXBXdXtXyX0X0XuXuX0X0X9XqXvXvXnXbXyXsXwXwXyXyXyXyXqX8X8X@X@X$X>X8XqX$X'.].{.C.s.j w e f g f D h _ W U | +.i.2.",
"| | X.X.X.K.dXdXaXjX7XhX5XfXMXsXfXiXiXiX:X9XtXsXdXdXZXHXGXHXHXHXJXGXfXaXfXfXaXgXiX~.E.E.2.i.i.M.H.tXsXG.G.>X{.+XtX;X,XiX>XgXfXdXfXfX,XS.o.f.2.%.A ! m m S ~ j +.K.0X,X0XiX,X:X{.S.H.|.#X9X@X@X@X0XqX0X8X8X9X].Z.s.s.s.s.r...} } } | +.+.w.M.d.d.9.e.s.O.W s   + + O . . . + = < 5 = 1 2 < < 5 2 - = = 5 i / f.i.i.D.=XiX1X^.E.{.:X9XtXyXdXdXsXsXyXAXAXSXsXdXdXdX0X>X{.H.C.J.+X{.,XgXfXdXsXsXdXmXmXAXSXSXAXSXmXnXuXuXyXbXyXyXBXmXSXmXyXuXyXuX$X:XuXuXqX0X9X9XtX0X9X[.H.[.@X#X@X#X@X8X#X}.}.oX0X+.p p i A e n W | _ | +.l / +.X.| ",
"' ` X.2.g.{.@XNXzXjXzXjX;XgXdXsXtXZXdXsXfX>X:X0XmXNXNXAXZXHXKXHX0X,X>XJ.iXiX0X;Xf.i.a.2.;.%.' +.3.a.f.g.+.o.g.M.r.K.=X0XC.>X:X@X>X:X+X|.@.aXfX2X,XzXKXLXGXUXLXUXHXK.K.i.o.J.tXM.+X=XS.d.Z.d.9.9.m.m.m.M.f.f.M.f.i.i.&.i.f.i.| W W | o.t.m.Z.Z.Z.B.m.m.r.} . @ @ + # # o   $ # : 1 = = 4 5 4 * < O < + 1 9 N -.+.g.c.J.=X~.F.{.{. X[.:XwXuXuXuXtXnXnXBXbXMXMXdXfXrXoXU.V.J.iXfXjXfXMXMXdX9XtXuXuXsXsXsXiXwXyXyX0XqX0X9X8X9X{.Z.G.[.#X0X8X$XuX8X8X0XyX>X8X@X:X0XyXyXwX8X:X0X0XsX0X].oXG.[.:X+Xd.@ d d d m R F ` | | _ @.p.Q _ ` ` ",
"X.+.-.-.M.r.Q ].aXjXaXaX5X=X>X:XgXMXdXtX=XC.C.#XnXmXNXAXAXAXyX[.+XtX+X,XfXsXtX=XJ.i.X. .X.X.` X.X.X.&.i.+.-.+.N l r.H.>X0X9X:X{.G.H.}.}.V.f.,XfXfX:X@XPXBXPXdX>XKXfX5X~.IXIXUXUXUX0XGXgXfX;X( q = - < s _ g.J.I.3.3.X.X.2.p.<.' F _ +.r.r.d.9.d.O.O.O./ @ = +   . + X = = % = = 1 - 1 1 < 2 2 1 @ . + = 2 i Q W +.i.S.,X;X-X:X:X|.@X:X:X8X8X@X@X#X].8X9XtXyX9X9X0X0XiXZXMXZXmXgX,XJ.{.+X>X:XH.+XH.@XwXdXNXnXnXnXuXuXqX9X9X:XH.G.G.[.[.$X8X8X$X#X#X#X@X8X9X8X0X9X:X:X@X@X[.@X>X>X[.H.:X0X:Xd.*   9 d S R E ` X.| +.+.+.X.k d | _ ",
"+.+.-.+.+.f.} O.a.c.aXaXzXgX,XiX,X{.{.f.2.s.G.G.C.d.+X+X+XC.f.M.H.S.M.i.f.+X9X+XM.K.S.j.p.g.g.i.g.f.g.] 2 N @ S R N g.C.H.+XH.H.S.M.A.U } fXyX0X@X$X'.A.VXvX$XsXdX=Xa.E.0XHXJ.5XiXIXIXDXPXPXZXfX~.(.~.~.~.D.X.*.6X~.1XjXaXaX1X/.P.>.1.7.7.b K L 1.H H ; q 6 - q 7 = = r e r 7 2 r q 6 6 q 2 = % . X .   @ 2 d N Q +.j.,X=X>X:X:X+XK.Z.[.+X[.+X{.S.d.M.[.H.+XG.C.{.tXyXtX$X>XyXmXiX:X{.d.f.C.F.J.{.0XsXmXmXsX0X9X8X8X0X@X].[.{.=X{.].|.9X8X|.|.$X@X0X0X9X0X:X9XwXwX9X0XtX0X:X0X@X0XyXdXtXf.< < @ p d E E _ X.| +.i.+.i.+.d 3 | +.",
"+.+...| ..+.....X.-XfXzXfXMXCXfXfXS.+.&.s.M.i.i.g.-.X.X...X.X.X.2.c.p.2.X.X.M.{.H.H.c.i.+.X.+.+.X.+.1 = % A 0 d E _ R -.+.+.+.X.+.s.O.< V.|.}.:X].0X:XuXuXBXuX>X+XS.i.l.a.S.I.b.F.K.+XJ.{.dXmXmX0XS.sXV.V.~.!.I.aX5XaXj.p HXfXGXfXLXxXaX7X`.L L V I P V K I Z Z ,.,.,.5.$.J C g b b b $.1.1.b r 2 1 = = = + 9 s N f.S.F.+X+X{.[.H.H.H.G.H.[.{.H.f.i.i.s.g.M.M.K.H.H.H.H.:X<X0X0X,X,X>X0X:X{.+X,X0X:X@X@X0XsXtXtXuXmXmXBXmXnXnXuXuX#X#X#X#X$X|.eX@X0XyXyXyXyX0X>X>X#X0XwXsX:X|.yXsX9XM.s.4 r e + N d E _ 2.2.@.+.i.M.i.X.2.w i.-.",
"+.-.X...X.` ` | a.F.=XiXfXZXgXiXiXfXfX=XJ.K.f.+.X.] ] ] ] ' ' ' ' ' ' ' ' ' ....2.-.` _ ` <.%._ i r r r 3 r 0 h E ] E A +.-.X.-.i.[ R p oXeXH.0X{.s.s.K.G.{.,X=XS.K.i.2.c.F.F.g.J.J.a.c.z.%.' <.] <.a.%.%.1.x.U.0XsXlXE F.iX-Xm S X.LXgX;X(.(.P.Q.,.Z L.,.Z L.).hXQ.,.L./.(.Q.Q.)._.(.aX1X2.X.2._ E ~ j i w 5 4 s i.i.i.S.Z.].[.:X8X0X:X|.8X9X>X>X+X@X:X+X=X:X>XwXyXMXtX>X:X>XtXsXmXNXAXAXAXnX8X#X{.C.s.d.C.Z.#XuXmXBXBXbXSXbXvX8X@X$X$X8X8XqX9XwX8XZ.#XtXyX>X@X@X9X8XwXyXsXyXwX:X:Xd.R k i e 4 W _ +.X...2.| ..g.S.f.i.s.@ -.-.",
"i.+.s.g.g.f.M.G.S.i.f.=XS.=XJ.+XiXMXAXJXZX:X:Xf.X.' ' ' X.X.X.X.+.X.X.X.X.' X...i.f n n g f h g r D i e - r ( X. .`  .! E X._ } s.9.M.a.J.yXAX+XJ.-XJ.D.-Xi.&.f.i.f.<X,XM.K.0XwX|.=XF.2.2.A ' 1.z.x.7.n.I.I.v.c.f.K.p.<.^.;XQ.) 6.' 3.6X5X;XUXUXzXI.3X(.7X(.7X6X/.!.).(.P.1.1.7.P.) 1.I.2.U.I.5XF.` a.+.Q S d S k | ....| X.+.d.Z.[.[.[.[.@X0XwXyXyX-XJ.+X{.{.8X9XqX,XsXMXHXJXPXAXSXBXBXyXuX>XH.{.+XS.f.i.f.{.0XyXyXvXqXvXvXuXqX8X@X$XqXqXuXuXuXyXbX8X8X@X9X9XtXBXwX0X$X#X0X}.C.S.i.Q d d S d 5 p } r.i.+.~ @.g.f.G.S.f.i.< f.M.",
"f.f.g.i.+.s.=XtXJ.i.c.X.] ' f.J.=X0X:X:X+X{.K.i.2.+.X.X.X.|  .X.X.X.X.X.@...X.` f f g t b A ! ( A A g a G X.2.2.p.g.i.&. .X.+.M.{.,Xd.f.w.{.+Xg.2.%.j.p.F.-X-XF._ E A h 4 Q MX|.{.J.v.j.z.4.2.3.h.z.a.' H F ! ` ~ D #.4.6.1.#.$.J P.6.` ' H ! X.g.,X-XS.~.4.H 1.x.7.1.) ( xXxXLXLXLXxXLXLXLXKXfX-XzXGXUXK._ n F r ( X._ _ ] +./ | r.r.s.M. X{.+XG.{.J.=X;XE.J.J.oX0XsXmXmXmXSXnXiXtX0XuXyXyXsXdXMXMXdX0X0XmXZXnXqX#X}.}.#X[.].N.Z.[.#X'.'.8X0XwXmX#X8X@X|.#X>XyXnXyXyX9X@XG.[.:X:XJ.p h / Q _ i s ..s.f.f.a.i.X.2.i.g.g.i.3 2.| ",
"} ..&.i.g.g.C.{.K.i.` ' ] 3.f.V.f.+.-.3.2.f.f.g.2.&.+.+.+.+.X.X.X.+.+.+.2.i.<.f A / F F ( _ _ %.X.E A ` ;.i.i.S.g.f.f.i.2.&.f.{.>X>X:XH.s.<XNXgX,X;X=XC.=X=XU.2XpX1X1X7X%.X.S k S c.~.~.X.X.s ! D g.F.I.^.^.^.!.^.b.v.^.F.-XS p.U.;Xn.!.(.P.^.=XHXsXdX0XfXaX<.6.1.b.P.(.!.z.aXaX~.gX-XxXUXKXaXUXGX>X5Xa J J 1X4.z.P.J a %.c. .` %.k _ E A ] l.X.h r 2.&.<.!.I././.~.~.~.~.3.3.J.J.~.S.=X{.+XtX0XtX9X0XwX@X$XuX0X#X}.#X9X9X@X8X9X9X0X$X@X#X#X].Z.B.#X@XqX#X0X@X#X#X9X+X{.{.{.{.{.J.X.S m | | +._ 4 i.f.f.g.S.@.i.i.c.c.2.X.1 ' X.",
"R ..2.i.i.f.i.f.c.c.p.p.p.2.' ] ' X.2.l.c.p.;.-.2.2.+.+.X. .` A d E ..-.+.` 1 g h | +.+.2.i.+.g.S.j.&.' X.f.J.2. .X.i.+.2.f.=XwXyXsXBXd.].,X[.,X-X~.j.D.Q @.~.oX~.2X| Q +.+XiX-XjX,X2X5XU.c.a.z.<.p.p.~ E c.D.p.+.a.h.h A b.F.a.U.J.S.,XzX3.j.iXAXPXPXm.PX,Xc.^.h.3.#.4.%.h.m U.Q Q +.A z.4.' ] F X.X.!.6.H f 3 f a ! p.gX{.iXp.f A b G <.%.~.F.A 5.` ( F.! aX7X(.!./.n.7.7.Z x.h.4.m a g 7 _ p w w j +.| / S N i.J.{.0XyXuXuX0X8X#XqXqXqX8X#X].@X@X8X8X0X0XwX8X[.].0XsXtX0X>X,XH.Q | | Q +.+.z.2 d f.S.M.S.i.K.K.K.f.K.p.a.r r ",
"- D ..X.X.X.X.@.X.S.;X,X=Xf.J.p.' ' ' X.+.| _ _ X..._ _ S W ` Q h d S R ~ m t w h +.s.2.a.l.c.j.h.2.h.#.$.) *.x.k.z.h.3.p.W =X0XwXyX9X>XK.0X0XK.z.I.c.z.;XU.c.@.i.;XJ.K.~.4X,XiX~...( E w i _ j.;X2X;X-XF.2.S.D.w.I.x.1.J e y g n ! h.&.2.n ! S k K.s.f.V.2.` A X.z.<.3.3.#.! a %.h.1.H H P.1.G b a A c.<.n.3.%.!.h.<.F.p.S 3.b.a.` p.E 2.i.i.M.+.| ! b.v.v.%.pXLXxXjX(././.7._.L 7.6.y t ; G - % 6 G y t : : g 4.g D.h J.:X@X:X:X:X[.8X8X9X8X:Xm.T yXuXqXuXuXwX9X:X0X9X0X9X+XM.K.~ X.+...2.+.' - h g.f.J.c.g.g.M.f.f.-XJ.j.%.2 ",
"= A G = 2 _ / ......+.-.p.' +.i.%.%.i.p.9.s.f.d.M.d.g.i.i.i.g.f.p.&.+.i.&.%.J J X.X.j.a.I.I.^.P.n.P.P.,.,.L $.6.P.P.h.x.a.` h k l o.G.,Xi.V.oX:XU.J.oX=X~.;XjX2XJ.f.2.S.~.D.,X,X=XS.K.K.g.c.c.f.F.2.p.c.g.+.| 2.2._ z.I.jX2Xh.3.` H ) $.H ) P.x.F f D n.' ] ) 6 7 b f ] x.( #.#.F a t b b g n.!./.!.n.$.J ,.<.b.F.h.%.! 3.b.z.2.D.-XC.<.D ~.S.< i.,X! <.!.;Xc.F.X.=XjXzXjXhXhX_.`.(.7XJ C Z C b t u C Z Z Z 8.(.!.aX5X;Xh.i.f.oXJ.K.S.:XtXyX:XK.{.{.M.9X:X[.#X#X9X+X0XsXuX@X:X{.S.i.g.i.| i.2.b #.j.~.+.2.4.( 3.2.+.-X=Xi.M.p.t ",
"2 a.h.g 7 w 2 = 4 p j X.X.X.+.X.+.&.+.r.r.C.~.~.=X+X{.H.K.K.G.M.K.K.K.S.j.p.3.3.3.3.D.~.(.(.(.!.aXhX7X).P._.(.(.(.Y.P.6.7.v.j.iXsX=Xg.S...-XJ.S.c.c.p.p.+._ | / O.+.| X.f.g.J.<XiX<XF.=XJ.Q d Q n n m ! D _ ! i.V.K.l.F.i.-.i.,X-X~.6X!.z.I.4.4.#.f e b M H G 7.x./.3.b.1Xx.4.v./.h.` ( ( G g a A F 1.) ) H $.<.z.h.;XK.~.&.U.S.~.X...g f ! A E.X.h f &.5Xc.c.~.z.~.F.F.Y.#.t $.(.7X^.hX$.$.P J Z L K ,.Q.7.L ,./.xXjX6X!.#.<.>.%.p.M.=X+XS.f.s.M.M.{.{.{.G.C.d.s.G.d.@X:X[.W +.| ~ _ %.2.2.<.F a.c.D.c.1.<.4.h.D n 4.D E c.n ; ",
"( l.3.! Q d d 1 a i w e h X.%.%.2.2.X.i.H.,XgXaXfX,X=X=X=XE.=X=X+X+X+X{.J.D.~.F.b.b.b.b.7X(.1X7X!./.x.P.).P.L.L.Q.Q.6.P.#.4.1.I.F.z.a.z.3.I.U.c.2.Q a e 7 e 3 h S / +.s.H.,XS.i.s.S.J.{.JXIXUXUXGXGXGXaX1X5XzXjXQ d.+XF.c.c./ ..a.;X=XJ.~.3.Y.!.<.h.I.x.<.z.k.%.3.h.X.` 3.v.!.h.v.` %.! x.I.n.4.k.#.3.p.+.i.k.h.h.F.l.E.~.-X~.-Xh.h a.g 2.i.Q | S = 1 h.~.~.c.3.7X7X] xX7Xn.x.6.$.$.1.6.L J c Z u 8.P.Q.6._.$.D K.4XxXLXxXcXcX7X6X7XjX5Xi.+...%.2.g.f.f.=X,X>X>X,X=XO.T R d 7 h ( | W Q E ~ | +.2.i.a.p.X.3.z.b.b.v.%.' X.| ] t ",
"p.f.a.i.+...| A d h E S k k / _ Q X.S.H.+X+XE.J.i.f.J.J.=XF.J.D.j.~.z.b.6.6.b.!.(.Q._._.).7.8.L.,.I I I R.I P I ).).(./.7X6XpXzXxXxX7XI.aXh.E 2.c.p.<.>.] F.X.ZXIXIXPXPXiX5XiXGXUX,X-XiXHXsXsXPXBXDX9X9XfXiXiXc.K.B.#Xi.R Y m  .m E m h.%.4.4.#.<.<.!.F.~ 5XU.K.f.c.m p.F.a.h f a h.I.x.` 3.X.+./ ! ' <.) H f e 2 3 k d Q A d S j.6Xh.A z.X.S.3 5 B f n j.g.z.v./.n.6Xp.h.I.!.).(.).P.L.,._.L.L.7.Q.P.x.^.x.Q.6X-X+XU.f.W G.K.pXi.| R ! 3.z.6XLXxXCXj.c.F.f._ ~ Y.b.!.%.H t $.$.4.X.@.+.X.| | W W Q S W +.i.f.S.f.g.c.F.v.p.X.h.",
"h.D.c.S.f.S.f.s.+...i.g.2.2.2.2.&.+.2.+.X.+.%.' +.c.c.a.a.2.<.a.;XjXhX_.).(._.).)._.P.)._.).,.u ,.R.I ,.hX,.L cXaX;X-XLX;XgXK.0XN @.gXiXpXI.!.-XS.G.sXoXnXNXNXNX}.8XPXNXJ.6Xp.J.S.~.c.=XyXsX8XuXVX'.A.$X|.0XsX=Xs.} '.S.U.J.5X!.!.F.a 2 A | E J.c.-X~.c.+.i.2.%.n + h.aX5X~.F h.` I.( e A _ F.g e  .3.z.4.4.z.a.<.g ) ( D h.1Xp.J.+.S 4.%.A %.e + 4.n.X.i.c.U.F.I.-XI.I.<.%.(.3X3.b *.6.%.h.x.(.1.D f m m D 4.v.<.n D 2.4.J 4.( 4XfXiXxX7Xb.<.^.7Xp.c.x.I.1XQ.7.P.I.P.P.6.>.7.n.g G A g f &.f.f.S.f.S.i.V.+.f.-X~.F.F.c.&.2.<.%.",
"x.%.+.&.~ j.j.V.i.+.+.+...| +.` ~ +.2.X.d _ i _ +.,XF.` %.~.jX-Xj.b.#.1.P.x.6.1.Q.(.(.b.z.1X(.(.^.^.7.b.!.hXxX5XLXKXjX2.' z.(.aX~.F fXsXiX=XI.h.4.j.F.g.+.a.p.p.a.2.%.&.<.<.5.2.3.z.a.f.+X+X0XBXyXuX9XsX X8X].:Xs.x y.Z.{.iX,X~.5X5XaXzX5X1XF.;XI.5X2.xX_ 7 2.g g ^.-Xp.w d S 6 f 7 2 %.3.h.S f.f.p.x.!.b.( w D z./.xX1.a 7 % 5 p zXx.7 7 k A G x.g A h.E f.k F A h S R 2.h.c.^.7X6XI.b.v.xXI.b.3.c.3.x.U.I.I.x.I.v.z.x.6.P.I.b.~.,X,Xg.a.v.4.x.P.v.v.! x.x.4.I.v.%.%.) ) ) z.%.h.h.3.2.3._ X.E E A ` h.2.4.2.3.h.z.h.!.!.x.7.7.",
"3.%.%.7 ( X.4.( n D | h X.X.` p.E g ' #.n.1.#.G 3 S GXgXUXUXKXLXxXLXLXUXGXUXxXxX) 1.P.<.H ^ G D D x.3XF.S.X.&.~ 1Xz.! b 1.H Q.~.!.<.c.K.f.S.F.b.x.z.>.P.b.7.5.2.c.p.~.>XH.C.K.+.g.f.c.,XK.=X,X{.G.J.s.g.:XwX0XeXoXp W O.{ h w p.g.X. .S _ j h +.+.i.E f ( 3.A f a ~ X.R < 3 i r h.n h.) ) 3.h.2.l.2.X.D A A ~ _ X.h.I.3.h.~.c.z.` r %.n D f 3.= n +.p Q f.i.-XS.a.2.j.-.~.~.F.c.i.X._ <.<.S #.<.%.F t ) H r 2 2 2 r e a h X.%.~.J.F.~.;X2.4.] h A a.2._ a.z.~.a.+.&.F.3.<.r 7 e f b 7 = 1 7 ( 2 g n A 4.6.6.Z 8.7.6.Q.n.v.P./.!.",
"v.( F <.E ~.n.<.<.H f G n c.,X{.pX&.! H D ( F.L.6.#.aXaXE.E.1X1X6X;XJ.iX;XzXaXz.I.!.7.1.$.7.4.5XGXdXsX:X=XF.I.7.$.x.P.v.) 1.Q./.(.Y.` m `  .%.%.4.h.3.%.%.3.` x.~ ! ! r.Z.8XnXM.f.<XJ.i.~ p.2.p.-XD.F.-Xf.M.NXnX:XQ | W S.2.a.I.5X1Xv.3.X.4.b.z.j.' v.(.) D %.] 1 | r./ w < 2 n 7 2 ^.#.G g g f D a b z.6.!.v.D ` x.b.P.G b g E 3.F.v.b.<.4.b.D h j 2 + 3 w i g w ! _ ! S ! E E 2.;X1X~.n.a.v.] ] ' X.<.#.' ! h.h.z.%.3.z.a.i.@.X.2.f.g.f.c.J.=X=X=XK.K.K.J.S.U.a.e x./.Y.7.- 6 Z u b ; X ; H ; 6 g 1.6.J L.,.Q.Q.7X7X7X7XaXaX] ",
"n ^.h.<Xg.W f.i.2.~ j.` h.z.~ ~ K.F.<.z.6.1.) ' ;X( v.4.' G ] #.b.' 3.` | U.S h.%.1.#.h.I.7Xc.fXJXyXAXAXAX&.&.%.z.n.c.U.;XD.~ ~.c.^.!.b.~.I.Y.^.~.!.c.F.n.g F h.v.c.;X:X:XH.oXd p N A A A ;X;X-XD.f.D.p.g.i.T p w.oXM.{.J.j.2._ 3.F.~.!.!.E.l.2.2.2.i A *.I.6X( a | {.+.+.h | X.R 3.6 n 2 %.` h.h.x.#.( a g g ! 4.3.%.F ! ) 4.n ! c.i.f.j.j.!.!.I.a.I.b.] ! g F ` ! ` E X.X.E E ~ E E E ~ ` @.W E S R E n D p +.M.M.O.{.+.g.M.H.+XH.J.C.K.f.M.=X:X=Xf.a.3.%.! f b.aXaXaX>.6.L L Z Z Z t t b C Z H #.7X(.`.Q.(.7X1X6XfXGX5X2.5X2.",
"6XD ` ~._ p f.1XA 2.g.~.c.E P.v.A ! h.z.!.%.D t 2 f A H #.<.6.P.n.1.h.4.%.a ! ` I.v.<.c.' ] p.S.>XG.dXPXtX~.6XI.&.p.g.=XF.b.b.z.A h z.4.<.h.c.F._ _ | W %.' A a p.a.a.c.i.i.a.~.I.aX^.~.5X2XU.~.<XS.-X;X,XgXmXpX+.r.{.,X>X=X,X5X;XU.c.D.~.F.D n n h h.&.U._ ` D / r.O.s.9.i.+.i.W g 3.h.A jXJ.~.E X.2._ ! X.F.4.a.4.c.n.h.h.<.n.c.l.f.a.F.J.J.J.:XJ.K.J.j.a.&.i.J.c.f.g.j.S.f.&.| R R Q R Q Q W W o.o.X.H g 2 r k j g.-X,XtX,X,XH.f.s.i.&.X.+.i.f.-X;Xb.n.(.).).aXxXzXxXcX).,.L.L.>.K L K L J $./.7XhX7X).(.g xXxXLXJ.K.3.-Xc.` ",
"~.%.= 3 a.~.j E F A F.a.~.c.F.p.U.S.-X!.4.( ] $.L >.x.b.6X7Xr A G ) ) g ' ` #.' z.D 1 % 1 : x.h.j.p.h ;./ ] r 6 % 1 a ` A G C b ) ! h.I.p.U.,Xh.5X6X2X5X6XI.I.2.j.p.3 i 7 7 j O.S.j.j.5X=XJ.c.| E K.S.J.=XiX0XiXM.H.yXyXwX0X:X,Xi.~.S.c.S.c.!.z.` v.f.~.&.c.S.| =XJ.S.&.a.c.c.E.c.>.b #.3.iX=XwXyX{.+.S.F.c.f.K.U.=XJ.S.i.2.h.c.i.&.@.+.i.f.j.f.f.F.F.a.%.%.a.p.p.K.F.U.~.=Xi.i.g.f.f.f.g.i.2.X.] _ X.! J $.J Z ) %.I.h.x.i h j.K.p.J.jX6X7XY.^.5XpXzXLXUXLXUXLXzXX.F.S.W D 1.).P.(.Q.8.> Z c J L P.g b G (.6.t !.5Xh.~.7XF._ ;X",
"fX~.7 0 S i.j c.%.%.%.F F.-X,XK.;.E.E.%.3.*.h.a.%.3.I.G n g 7 A h.H ) v./.v.4.h.^.z.4.Q.P.$.6 r 6 g ) D ! ' 4./.(.P.7X7X6X6XU.jX6XI.z.] 3.&.F.~.;XF.2.2.<._ a.~.D.I.F.,X~.<X,X4X~.;XF.S.j.i.D.U.;Xh.F.z.p.S.0XiXK.0X0XtX0XsX=X+.j.I.b.h.c.K.~.7X(.!.b.1X^.I.n.P.6.7X(.(.L.L.L.Q.,.L.,.>.P.n.z.S.K.S.a.a.<.h.v.%.X.a.f.a.` x.I.^.h.<.G A 1.^.^.6XjX~.2X1X(.(.hXhXv.x.3.a.p.F.S.2.z.3.+.N i.2.s ' _ %.%.#./.(./.6.P.P.I.!.P.P./.Y.x.h.p.h.h.z.4.6XjXaXaX>XfX/ a w _ U.=X-X;X!.Y.P.^.7.P.(.6.L._._.,.L.,.,.(.cXcX^.( jXb.aXz.3.F.X.",
"i.f < f = D a.! a.n h.3X%.Q S W ~ X.+.2.2.e e e D n D m X.4.2.z.%.m D %.b.v.;Xx.2.2.a.x.3.4.P.n.!.x.x.' ( 1.3.z.2.E.5X,X;XS.Q W l.D.F.-X;XE.D.~.l.!.p. .m a.X.f.F.S.J.[.tX>X2XI.I.E.c.J.;XpXzX1X-X;XoXU.J.MX:XU.+XfXdX0XC.M.Q h.).7X).(.(.7X7X).P.7.6.c $._.`.`.`.`._.`.`.`.`._.Q.).).).hX7XhX7X^.1X^.1X(.6XhXhXaXjXzX!.p.2.4.6 J ) 1.<.$.b 4.r g UXUXUX-X5X~.2.5X-X^./.n.z.v.z.1X^.~.~.;X^.!.z.<.~.a.h.F A e A D ' %.h.I.b.4.!.I.` !.b.P.7.4.a.c.f.fXfX1X7.1.$.P.3.h.h.x.I.x.#.` ! b H 6.7X%.x.1.P.7.#.I.v.h.h.b._ E p.h.2.S.p.",
"S !.A t 2 b h.a.#.a./ J.F.c.I.H ] A ] 4.n.!.F.3.!.z.2.<.<.%. .a.a.%.h._ e w D a.f.@.p.K.f.U.&.a.U.%.e f 2 g A D F.;XU.;Xf.` a.b.F.l.F.i.K.G.H.=X,XJ.F.F.^.6Xp.-XJ.~.p.i.C.W { m Q 2.R _ E E 2.%.a.g.c.J.-XiXfX;X+.O.Q | w.W 2.I.hXcXcXcXcXxXLXUXhX7.H y M (.cXcXcXcXcXUXcXxXUXxXUXUXKXKXLXLXzXjXxXzX2X!.r 2 a  .| i.S ^.7X6.7.n.6.Q.P.).(.7XaX1X5Xj.;X~.E.;XaXF.F.F.=X2.j.-X1Xv.n.] ' F ( 4.1.4.z.%.~ D.` ` <.4.v.^.!.I.3.!.h.4.%.#.1.4.3 3 ] %.D.1Xi.K.l.l.z.b.2.&.c.-Xp.j.D.b.v.h.h.h.3.(.3X6Xb.h.I.jX1Xa.3.1X1X~.j.U.(.^.c.g.",
"D.l.w #.] f g S 4 2 v.&.Y j 7 a 7 1.>.A t G A A 2 w d m c.i.g.h a.E 3.x.<.;X_ ;X;Xj.` 1 f ` F.,XS.F.i.E.a.F.5XJ.h.` a.X.X.` d h k _ j.&.j.Q f.O.-.F.oX=Xj.&.K.~.-XU.2.( ` h.F.2.F.f.l.~.S.E.5XgX~.~.~.F.F.2X-X,XM.MXPXMXfXiXf.~.7XcXcXLXxXaXfXKXJXLXKXKXUXiXzXaXUXUXLXGX6XxXUXaXxX1X5X!.aX7Xb.h.hXzXUXpXLXjXpXU.%.z.b.c.U.-X2XjX;XpXpXrXJ.+.5Xc.;X-X;Xc.~.%.! f A #.' ( ` v.X.h.h.z.x.I.<.<.z.<.' ' 5.<.4.' D g ^ %.I.3.4.I.I.!.4.>.J 1.x.4.b.^.J.,X+.i A n a 2 7 6 y q C y - t y ) ' D 1.1.' A ~.l.F.f.f.g.F.a.i.j.S.i.c.c.Q ,X",
"W h 7 | = r A f ! e D X.z.b.~.2Xe c.D.I.F.a.z.v.` F.c.X.R a.h.4.<.g a e t g d w s -X2XI.n r ! h c.h.h.h.F.Y.I.a.F.X.' h.2.F.F.K.K.D.F.~.c.D.2.5X;X;XF.F.c.2.E.E.J.F.~.,X=X-X+X=X{.S.~.S.| k k f.=XiX=X+.i.i.w.p >XmXmXNX:Xs.,X>X~.4.*.!.1XU.2XzXa.%.a. .I.7X(.1Xz.2.F.E %.P.7XhXcXcXcXhXhXhX/.!.7XI.v.7X!.b.&.&.c.3.f.U.U.D.c.i.p.2.J.;XF.~.~.c.J.a.D.F.2XpXD.^.1Xk.4.^.7Xz.#.6.5.v.^.^.I.v.jXF.z.z.%.h.4.b.x.P.I.x.(.!.x.g E 2.#.x.z.J | h R h.4.Q.] X.b.4.b.v.4.! b.^.x.D h.4.n.<.( ` <.%.b.z.aX(.!.;Xh r A E ` a.a.2.&.f.=Xi.",
"+ : ! 2.A ! 4.a.v.1XF.U.i A g f %.6X7Xv.x.h.) <.7.<.v.c.W 2.%.x.r I.%.D 2 f i < 4 S ~ p.m a ! ~.t / g.f.,Xg.<X;XX.X. .2.R c.aXiXfX-X=XjX~.,XX.;XiX-Xj.c.f.F.F.=XK.=XS.,X,X,XJ.O.d.i.| R E c.c.S F ! 3.I.-XiX,X1Xd.yX|.|.9Xh - 2 A x.h.1.%.p.h.h.2.Y.*.H %.v.D x.(.7X7X7Xx.7X(./.(.jXI.$.b.!.4.' z.p.F.4.%.3.3.3.h.X.v.h.` ~.-X,X;XiXE.5X;X;Xc.S.F.v.~.aXgX=X~.~.^.2.D S X.F.2XaXaX7Xz.F D a i 9 7 3.7X(.(.v.z.z.I.!.3.h.z.~.F.%.! ' ( b.F.3.%.2.] W.:._ 2.3.2.c.i.) ] #.#.^ %.x.) P.%.h.2.h.a.%.X.` &.i.| D A a 3 2 2 1 = = # # ",
"6.h.h.~.aXI.v.c.p.s.i.p.F G b t 2 2 g 4.3.h.n n 7 b e 2 2 m 3.G a 4.F E # w = 4 w +.i.p.+ I.n ( P.4.g h s g A ( E &.h.I.2X2.X.n S Q g g g S +.J.J.S.iX~.2.` ..f.H.d.+.E m E X.X.S.=X-X-XK.;X-XiXaX5X~.J.;XtXsXsXU R W ;.! J 7.!.(.! h.I.6Xp.D.Y.;X^.I.^.b.1XD.I.zX2X^.I.3.%.4.h.z.c.F.x.4.^.v.1XF.p.2.X.` ! p.h.a.z.I.3.v.^.^.a.f.c.J.D.c.~ m X. .p.2.c.S.gX,XJ.2.p.p.D.-Xp. . .! g D I.4.h.z.z.] 2 = 1 n ! ' E A S 2.2.` 2.a.3.4.! 7 r i f i z.a e b n.I.x.(.z.v.b.>.H b G r q t y n.P.7X5.h.b.I.1X^.1Xh.b.(.x.b.^.jX7X^.4.1.7.",
"! 3.j.-X&.%.2.a.b._ +.4.z.z.%.4.b.A 2 1 g %.h.4.' ` h.3.h.&._ <.D a A ( p X.W j +.i.+X3 E ^.^.x.7 S h.F.2.a.^.7XxXxX3.F.UX~.c.j.U.-X-X;X;X-XfXiX~.LXaX4.z.x.^.S.K.<X,XfXpX2Xc.~.pXU.i.p.a.p.S.2.2.g.f.S.tX0XH.:X .Y.P.z.6.$.6.(.~ a ] ) ` ^.^.2.b n H H H v.a e r 7 ( jX5X5X~.1XpXjXfX5X-Xp.a.E z.i.c.f.R p.J.W  .~ D.I.U.c.h.3.j.b.h.pX1X;X;X6XF.I.;X;XJ.X.+.i.c.i.' ` 3.I.2X1X(.v.x.3.3.` ` 3.1Xz.%.c.h p.e e 2 - = e ; r 1.x.] 4.G ' 3.3.c.2.&.c.3.2.F.F.F.F.c.p.F.z.3.h.I.k.x.7.1.! D 4.2.c.S.c.f.c.S.~.F.;Xc.p r w ~ D 3.b ",
"!.4.<.4.F.-X-X-X(.~.(.z.z.z.h.3.5.] ] X.v.^.X.a.v.z.p.-.S.:XfXm %.1.n 3 +Xr.s.o.9.o.} f.d f j.j. .+.i.X.S.g.+.-.<.3.z.a.` A g R i.S.J.,XS.3.2.c.p.m n &.Q / g.yXAXyX@XS.g.@.+.,XiXE.J.;X,X=XJ.F.U.D.J.;XM.E.W g.p.Y.$.1.I.x.P.%.d n g a a 6 = D b ) H I.h.x.6.7XxXjXxX~.-X;XaX~.aX,XJ.F.h.F.aX2.a.-X~.I.h.' 2.2.S.%.b.b.I.v.X.Q F.D.F.c.-XaXxXaX6X^.v.-XaXD.c.F.~. .3.3.&.%.z.~.A + ( z.l.c.S.2. .p.X.S %.f <.#.J #.J G b F ! d E a.p.aXF.c.a.g.a.2.b.4.a.~.2.c.k %.h.^.D.~ ` 2.p.~ E 2.3.c.f.fXF.,XJ.=X,XaXGXGX;XJ.-XF.;Xa.b.4.",
"F.F.~.^.-XS.f.-X-XF.X.F.!.v.+.p. .c.2.X.X.Q h t 7 d s.].IXNXHXJ.` a w ` #XH.{.i.[ 9.m.{.| g.J.@.&.F.;XxX#.` 3.p.F.F.U.fX5X~.;X5X2.2.F.c.+X,X=XiX5XU.1X` h.b.!.2.F.v.F.:X0XJ.=X=X-XS.f.~.J.E.l.a.F.F.a._ A E n.~.LX(.P.( ^.aXiX2X(.4.I.I.P.P.(.7X7X(.hX^.1.F.p.D.F.+.w._ m h a g ! E D f ` A ! ' %.h.z.v.(.<.h.z.v.4.!.! F ' ~.5XzXp.f.fXf.S.J.i.r.r.i.J.F.-XzX^.^.;X3.3.` ] 3.J.S.2.S 2 i.c.U.-Xc.c.f.~.z.x.F.l.p.g.i.a.h.D.j.F.+.i.+.9...o.j 7 A D 7 g n 7 X.A 2 a s k W ~ ~ ! | 2.c.f.S E j S j ,X..f.+.+.i.X.E R ~ k E E D.F.",
";X1Xh.&.c.F.&.X. .i.,X,XfXfXi.2.<.` R _ E S D h _ Q r.d.G.tX[.+.;X%.a.5 9X@XnX@X%X'.qXAXj A -.S.~.K.S.z.3.c.;XJ.K.,X+.i.S.=XiX=XJ.f.K.H.tX0X9XG.M.o.9.9.9.s.i.+.c.2.N i.D.F.c.2.+.E ` E D S 2.X.E ~.J.;Xc.E W X.2.j.D.pX;Xp.^.aXp.p.6Xc.%.( F ( e x.^.(.1X;Xa.a.U.iXrXgXKXUXlX;Xc.5X^.1X^.1X;XI.F.F.z.^ #.` g ( e e D ( ! g n 6 % - e ( 4.1.a t 6 r r 1 w p 7 N -Xf.U.pX1X;X^.c.f.=XF.Q i 7 3 1 2 g k W 2.~ h +.%.2.S.h 3 - = 3 5 3 +.{.dX:XgXj ~ 3.' b.v.z.%.<.#.4.v.b.!.1.z.~.F.c.c.a.2.p.~.v.z.E c.D.2.j...i.g.+.g.c.I.~.1X5X",
"a D g A D _ i.p.S.c.f.g.+._ Q D f g d h h p._ ! D k ;X=XQ 7 -.i.~.A j +.k k s.[.wX@Xt.M.3 r h k d R  .` +.a.~ &.%.X.i.j.W j Q +.s.f.9.K.~ 2.2.2.2.%.! h.3.%.<.I.b.1X2XU.z.5XaX-Xc.-XD.I.1XxXlX~.i.p.R W | e i ` %.3.j.c.~.j.-X-X-X .E _ D ] #.' ' ( 2.h.3.(.A ! g D f  .+.@.-X5XaX;XzXLXfXfX;X=X-X4X;XF.;X(.5XzX5X1Xn.(.!.1X7X7XP.*.G #.z.1X(.^.(.!./.1XD.F.i.i.@.S.~ 3._ ` a.S.i.i.g.~ E A 4.a.2.a.c._ g d b r n y ) P.x.!.4.<.( z.-XJ.+.J.J.U._ &.4.^.b.F.F.F.3.c.j.p.S.S A Q a.f.c.i.X.R A m d d f.X.f.i.,XK.K.f.+._ _ X.n a ",
"v.a.F.U.a.2.2.&.%.2.<.%.' F X.! %.d 3.2.F ' 2.h.x.%.) D 6 X 1 g < ` U >XdX,X,XiX0XdXtX,X( H D ..h.%.z.4.^.b.#.G g b.-Xv.^.] A F a.v.2.F E A h h _ 3.` %.h.3.` b.a.&.U.3.2.=XfXzXiXpXU.=X=X=Xf.i.9.W j R f g 4.1X^.y n A g t w e 7 1 2 e A ' 6.' #.G D c.x.xXUXUXLXUXLX2XpX6XU.;X5X5X~.-Xi.~ m d S S ( E a.1X-XX.3.~.( _ m ! E c.&.J.aX~.F.g.d ~.c.F.S.i._ X.i.X.W V.w.+.s.f.2.E n j d E D f r = 2 @ E E 2 e i n f 3.] ' x.c.h.z.D.c.+.2.F.+. .a.g. .<.z.^.F ! i.i.W ` ` 2.i.X.+.| Q W j g.X.F.S.J.+.+.i...Q _ S.=XS.f.i.g.~.F.F.",
"i.W E n ( X.F.S.~.3.2.X.E ! A ! D m n r b G e d e A r g r t 2 a h ( ..G.r.i...M.F.J._ a.( ( | S ! ] b.1X;X1X^./.z.A &.J.c.v.F.xX1Xc.j.h.;XfX;XzXaXpXaXaXjX7X,X~.F.v.D.K.rXW S.Q p d 2.g.@.+.| i.~ d ! ` D b g t t C b ) $.<.v.b.;X1XjXjXLXaX2X1X^.^.5X,XiX,X=X0XfX=X+.Q W i.f.i.c.g.=X4XiXjXgXpXiXzXpXaXU.&.X.2.&.U.jXLXLXzXI.2.S.S.S.S.S.a.p.~ d S 2.g.j.c.i.p.i...k g.f.&.=X;XF.c.F.~.c.z.c.<.) a.X.a.^.h.] ( n E ] ( ` _ A E E F.2.c.v.v.E m ~ _ D %.I.4.` F.c.I.c.F.a.2.+.2.F.J.S.F.S.c.l.+.X.2.U.c.c.X.Q s R g.S.g.J.2.g.c.",
"+.p.a.%.X.p.2.f.&.` +.p.2.X.%.D n g %.` ' %.R X.E / ' ` n A ] <.J J n D D ' U.2.2.m g ( = 2 = * @ @ = % < 5 W f.@.J.c.~.c.F.X.%.3.p.+.n 2.g.V.j.+.Q  .X.^.LX-XiXiX;Xg.j.&._ p.-XI.-X1X;XE f f g G J #.G b C (.cX(./.^.hX/.6.#.b.z.1.) <.D 3.6.x.a #.x.~.J.D.2XaXaXaXaXzXUXKXaXpX;XiX-X;X;XaXzXLXUXLXLXGXGX~.9.&.&.~ X.p.p.i.c.F.+.J.J.i.F.,X,X{.:XM.o.E ' ` +.+.+.g.c.a.i.J.sX:X@X0XM.&.E ! ! _ ~  .&.3.&.D g e ) f z.z.<.2.] ` 3 e f a ! ' <.a.+._ 3.Y.Y.1.e X . # % 2 1 1 i - = = < +     . + 1 = - 3 w a ! ~ 7 3 7 h Q X._ _ ",
"w i e g f S W R l i h d 5 p S E X.X.+.| 2.+.S.K.i.X.i.Q F.U.,X7Xb.) H A H 6 q q t C t C >.) g 5 e >.Z C t >.y b t 1.g g _ | f.~.i.F.c.X.+.| i.&.%.2.~.~.~.2.I.5X{.M.g.j.p.2.%.%.D F.1XaX1XUX3X4.) J x.1.) #.$.) ` t g _ 3.hXP.!.#.%.!.v.I.! P.H x.(.(.5X2X,X,X,X=XpXfXGXKXKXLXjXiXoX:XS.{.J.+.+.9.W W Q Q ~.fX~.;Xa.I.2.%.i G 7 2 2 + 1 5 4 w p 4 l j ~.K.f.l _ f.&.d 2.R Q G.H.Z.A.t.M.k / g._ _ ! F F D A X.F.U.Q E `  .X.( S n ` i.R R +.+..._ oXJ.&.,X&.2.m 3.E g f ` h.%.x.x.z.z.3.!.(.Q.1.H J A ! D ( f D ! ! %.<.! r 2 7 ",
"_ k h k d e a p p i w w w j i.g.c.g.K.F.,X5Xc.2.+.f.+.~ s k h ` 4.z.7.x.G $.C ,.,.c b b $.>.= + < g A C H 1.1.n 3.%.(.I.c.f.J.J.F._ E w ~.&.Q h ` U.~.D.h. .D p.9.i.2.2.,XpX,Xc.~.F.h.h.^.;X^.jX1XhX7XhX1XY./.4.x.6.P.I.!./.Y.D.F.U.c.U.U.J.fXCXiXJ.H.+XG.iXfX+XK.H.K.S.O.d.t.{.wX+X=Xi.R j R Q l d m k ~ R h j.j.F.2Xc.+.&.p.K.6X2XX.h f H ] 2.a.J.U.a.a.i.S.U.F.2.S.f.+.i.+X+XM.M.Z.LXX.g.Q k S D n ] ( r d t 1 - # = e r h <.3.2.E a X.i 3 S 2.W 3 1 n a r r g F f N ( g n _ _ X.<.h.a.2.<.( 5.p.a.2.n.D.J.K.S.c.c.2.X.S k S ",
"=X{.=XiXiX=XK.K.f.g.f.X.` E X.~ 2.aXjXaXjX5Xp.c./ M.~.J.;X~.zX5X=X;XI.%.<.) C Z u c q 6 ) d + O x pX=Xz./.I.1.! %.! s ~ i.j.F.` %.2.!.!.#.J y ` W -X5XD._ X.S.=X-XF.] X.W +.f.-X=XE.,X3.<.;.2.3.%.3.v.6XI.hXxX7XaX2XU.-X` F p.F.E +.a.<.2.J.i.K.s./ 4 O.h a 7 w p h 4 = - 2 + o . @ 1 n 5.5.' ! ] z.h.4.<.' %.2._ ;X2.X.F.J.S.S._ i.p.h.2.a.2. .| &.p.S.f.K.+.A A s | K.i.f.9.f.G.eX Xm.H.f.m D.3.%.] D D ` ] S 2.h.X.p.p.( 2._ i.c.S F n _ g A ' g c.4 w 3 r 3 3 w e s d h E j Q N Q R W } | ..| i.M.M.M.H.H.J.H.J.=XH.S.G.G.K.",
"iXiXfXHXMXMXK.=XtXsXdX=Xi.2.X.+.R S r E g ( a.-X;X_ S | X.W i.+.i.c.4.1Xz.<.<.q ; r q b $.6.2 . %. .g.<.I.!./.<.4.z.b.z.F.F.&.p.j.w.O.s.f.f.f.;X~.d f X.' n R N R h a i F A W E E m m k p E D h g F ~.;X2X^.%.( ! 2.c.j.f.-X,Xd.@.K.J.i.f.K.j.i.,XiXzXiX~.i.KXjX;X-X7XxXaX6X5XaXaXLXLX~.k j | X.+.g.+.2XfXfXfXiX+.g.{ w.| +.W i.f.K.i.2. .%.p.F.a. .%.X.2.+.2XF.+.i.MXgXf.W c.F.J.i.{.uXyX<Xz.G J J q 6 t t A ( ! E i.,XsXiXfXHXHX=XK.F.g.4X,X=XW E p o 5 o o + = z p j } 9.s.f.S.+X{.:X:XH.{.:X:X:X:X:X:X>X0X0XtX9XsXmX:XsXMXfX",
"KXIXKXJXMXZXfXiX>X9X:XK.~.K.,XU.F.jXaX;X~.z.j.~.j.a.c.D.U.5X;X,X{.J.,XS.j.2.n.] y r ; t b ; + @ D Q -XGX,XU.D.h.4.p.F.p.F.` ( z.) J 4.x.z.<.<.E I.z.(.x.a E E ! D D A n g g e - - ~ ` A g r g C J 3 2 + % 2 b.= e 1 2 2 r w 7 < 1 Q l < 3 4 w 2 4 7 Q a a.p.p s p W X.f.f.K.H.r.j W i d p 4 l p 4 5 < 4 2 3 4 k ..S.+.S.MX,XG.s.s.U s.J.M.J.MXGX;X;XaX=XJ.J.+.@._ h Q d w k i i ! ' A f t y c L ,.,.K >.x.).aXaX5X;X-XJ.=X,XiX0X:XK.i.i.+.+.W W i.@ O @ @ + . * w R { o.M.K.H.@X:X:X>X9XtX0XwXyXyXtX0X0X0X{.>XiXiX0XyXSXmXAXPXKX",
"GXKXHXdXuXMXHXJ.+X0X>X4X~.f...c.g._ 2.3.X._ Q f.p.pXzXI.%.R Q E +.+.2.` ` &.<.t q 6 - 8 H $./.(.b.b.G t b g A ' F ( a.2.X.D D %.F E a 2 r E 7 2 2 7 2 r A 7X( x.h.x.I.v.I.x.I.(.xX6X7X1XjXjX1X6XLX^.!./.!.z.P.6X!.b./.!.Q././.7.g r b ` a b.E.aX0X,XLXj.h D.c.i.IXJ.fXc.R k 4 4 w p r 2 0 w 2 0 2 r r 3 3 3 7 3 3 1 < 4 % @ = @ 4 4 O O +.+.o.r.o.{ R j E p 4 l p 7 4 < h 3.~.1XzXLX5X^.n.P.7.z.b.x.P.b.n.a.S.=X-X,XtXiXS.9.i.| _ A h A E E S W k + @ @ = = @ * 4 | | o.f.+X9X0X0X{.{.[.0XsXsXsXsXsXtX0X0X+X=X,XiX0X:X[.NXPXPXKX",
"NXAXmXtX0XdXdXAXoXK.0XsX;Xz.+.W W | _ / _ +.X.+.X.X.+.+.W p.~.aX5Xl.d A S d f ) y 6 - 8 ^ S.U.S.K.U.5X(.P.1X7XY.h.h.4.] 3.F.U.-X6Xb.I.xX7Xq C v.<.#.<.4.1.1.z.xXh.X.F.~ A J.I.F.&.2.j.1X^.-Xa.p.p.,X5X5X-X=X5X;XF.c.p.+.i.f.i.g.i.~.;XlXlXD.X.@.j k 4 R Q W R j Q U k i w w 1 w p 4 2 d w d i i w 9 4 3 2 = @ O O o + O i p 1 w d i i 3 = 2 1 = < = = 1 e a w i A _ r.s.0XMXfXfXgXiXtX0XtXtX=XS.S.g._ A E _ X.` _ ` X.-.X._ f a f h R R Q | S @ < 1 * + < @ * - p } O.+.d.}.%XqX0XJ.K.G.{.uXyXdXsXsXsXwX>X:X:X>X0XdX0X0XNXNXSXAX",
"mXtXuXyXmXmXsXyXZXMX@XtX,Xg.W E _ ..i.2.2.2.M.G.f.| j k j i h n i i k h j S G G b q 2 c ^.~.S.| i.J.J.;X;X~.aXjXKXfX,XU.J.j.X.X.p.~.v.1.$.b y a A %.3.<.h.a.a.2.f.S.g.~.gX=X=X,X+X,X:X,XU.j.i.U.J.=XK.i.g.f.J.d.:XCXgX;XS.g.R a h f s < 4 p w 3 S | g.S.S.-.W j l d d 9 p p 4 < < 4 5 o                 $ o O @ < 2 3 5 3 i S W S j j _ _ ! E E D D n h A E W +.r.d.G.@X@X>X0XyX0X9X9X0XqXwX9X+XH.G.C.f.i.w.f.+.&.` +.+.i.| W S E h S | +.X.o + 3 5 1 = = O 3 w = W o.+.O.s.B.M.{.{.+X>X8XwXsXsXsXsXsXwXwX0X:X{.:X0XsXdXyX8XmXmX",
"yX0X#XyXAXdXyX@XS.yXyXyXtXc.B d f g e 7 2 5 1 = = = = = 1 = - w 3 w w i g d F G g q 7 7XLXfXiXM.W oXfXKXLXLX,Xc.l.c.iX5XE.-X,X;X;XJ.-X5Xc.4.c.c.X.1X~.5XJ.5XgX=X=Xf.| S.,X+Xf.G.S.s...E h a h j S E X.k m R k { 2.W Q f.aXfX~.7.f q 2 i 7 w a E 2.K.a.=XMXfX~.a.X.S g +               o + @ + + + @ = 1 1 - = = 2 2 2 r w e Q ~ E _ c.F.U.J.H.S.f.i.+.` ` _ | @.+.s.M.G.G.[.{.{.{.:X0XwXqXwXyX9X{.G.{.+XC.S.{.yXdX{.M.G.f.+.+.&._ W | @.9.Q = e e e 3 2 w 3 7 h i ` O.+.| | +.s.f.[.0X8XqX8XyXyXtXyX8X8X8X9XwX9XH.H.:XwX9X].+X9X",
"8X#X%XuXuXyX@XG.>X@XuXdXZXJ.i 2 3 e i 3 1 2 2 1 r w 2 r r 3 r e t g f r w 3 1 5 1 @ = a Q { Q R j W =X{.J.H.C.f.i.f.-X,XJ.=X:X<X0X:XS.J.S.j | s / k Q Q 2.} | o.R p < = @ @ < < @ @ 5 5 p ` l.E.= o   o o . < @ @ = + @ p U U Q 4 h 4.F 2 r ! z.~.gXLXIXIXIXIXUXGX;X7.9             O + + # + + % = 1 1 = = = @ = 5 2 - 2 e X.S.zXGXGXfX0X0X@XG.f.| | X.X..._ _ _ +.9.M.C.[.>X,X:X>X:X0X0X$X$X}.}.@X0XsX>X@X[.}.#X'.Z.V.s.M.i.i.&.i.+.s.+.Q ( E N i 3 = i a s N A k o.| _ _ _ ..i.C.m.Z.'.{.{.9X0X0X0X9XwXyXwX9X9X[.Z.[.H.+X:X:X",
"$X9XvX8X#X[.G.wXtX0X0X9X+Xg.w = % 2 + # + < 1 2 2 3 2 : = 1 = - - 2 r - + = + = 1 - 7 a - + @ X : % @ = < 4 = 1 2 i 4 2 < p < @ @ < < @ . o o o O * = w w 1 @   $ . 1 o # X + # # + + + o o o $ o o       o o o o o O   o o   @ 1 3 a i A %.D.2XfXKXPXIXIXIXIXIXIXIXKXxX@       . = 7 2 t 7 r b ; y 6 2 1 1 - - = 2 g 2 2 r z.-X,XrX0X0XiX:XM.S._ X.S _ _ _ ~ _ } | | ..+.y.y.s.M.m.Z.Z.Z.Z.G.#X@X9X0XsXmXyXyXqX$XM.f.+.+.i.f.o.9.M.S..._ h 3 @ w i . o < 2 2 7 X.W W _ _ _ _ _ | o.+.d.Z.Z.[.{.{.J.{.:X0X8XqXuX0X@X[.{.>X:X:X:X",
"uXBXbXZ.8X:XmXMXJXMX0Xf.+.2.G y b b y y t y 2 r t q t y y t y y y b C C $.>.L H H J Z Z t t 6 e r - 2 1 = @ + 2 a f n f q : + : + * - = - 2 ; 3 r r r a g f = 1 2 = 2 r e e f n g F g G A 2 O O O o .   $ + @ + O O o o @ @ % t a ! D E p.U.pXfXLXPXHXPXIXIXIXIXIXIXPXLXf.  $ $ = A $.Z J $.L J H J J $.J C C K J J Z H C >.1XjX1X1X1X7X1Xl._ j.i _ E d ! ] |  .| | | .._ ../ _ X.O.r.m.Z.G.H.[.uXuX0X8X8XqXvXvX%X[.f.+.-.i.f.M.o.M.o.5 = A E ` w 2 r S F D J A s j  ./ | ...._ _ _ ..+.t.m.Z.=X,X:X:X:X9X8X$X}.}.}.{.tXsXsXwX9X",
"nXBX$X@XH.#X$XyXyX+XX.] ] ) C C Z H >.>.>.>.,.8.,.L b >.1.$.>.L L 6.6.1.J C C >.$.6.Z L.>.7.) 6.7.J C >.g f 2 A a a n n f #.G t 6 6 t t y C 6 t f H n ) b b u <.>.t t C f #.$.1.1.( ` b.>.>.d = 2 + o O O O @ = = * + . 1 3 i E ! &.| i.S.=X,XsXMXZXAXDXPXPXIXPXDXPXDXmX>X  o = f #.1.H $.$.1.J J J H Z >.$.$.J $.J C J J n.jXxXcXcX).z.3.a.c.+.h g.` D ` _ / ` ] _  .X.+.| ! ( ] ` | +.+.r.d.[.yX8X[.+X#XuX9X#Xm.9.X.A Q | i.2.R Q N @ h D 2 <.X._ F r ` j.X._ g.i.f.E E / ` _ _ | | | | ..9.0.9.r.s.m.Z.Z.C.Z.[.+X:X9XyXnXnXvX",
"vXqX].f.g...O...| E A S X.F.jXxX7XP.5.H b C C C Z t 6 t b J >.H H J 6.n.I.7X7X1X~.pX1X(.Q.P.!.1.1.1.Q.(.(./.n.P./.z.v.1.^.7X1X7X7X(.).hX7.P.6.] *.x.7.t r b H 1.1.$.$.P.1X!.1X2X7XpXLXLXc.aXlXE g 2 2 - - + = 7 r = 1 + @ d R o.i.s.s.C.m.{.wX0XiXwXyXBXDXPXPXDXNXAXHXdXtX* @ 3 4.(.(.hXP.6.7.(.cXcX7XP.Q.L.7.>./.7X7XxXxXzXGXJXHX,Xj.k W W f.f.j K.3.+.! ` ' X._ _ | ..| | S ( ' ` ' _ _ | X.O.O.+.s.M.f.f.s.i.r...W _ 2.9.s.K.D.S r A ] ' t d E _ p.r i Q i.X.2.9 f._ d ! _ `  .X.` X.X._ .._ _ X...+.s.M.[.G.[.$XuXyX0X8XqXuX",
"}.A.+.+.j S Q X.2.c.2.#.x.b.7XxXzXxXLX6X7XcXUXcX).cXcX!.Q.hXP.(.(./.7X3.n 3.h.1XU.U.~.F.!.4./.jXxX1X!.z.x.#.<.!.v.P.x./.1.#.1.) J G H 7.) $.n.4.P.1X3X3XjXxXxXUXUXUXjXxXcX7X4.x.F 7XaXJ.2X5Xa.J.X.F $.C H ; = D D F h o @ 4 R | o.9.t.[.[.@XsX0X{.{.:X0XyXnX0X:XnXCXHXtXtXs ( h.v.4.I.I.5X(.P.4.P.7X7XaXLXLXb.2.U.aXaXaX6XtXm.r.2.2.g _ h h w _ A E g _ E A R A A E S j E `  .X.X.+.&.i.i.f.f.C.M.C.C.M.M.i.s.+...+.-.E h | d.Q W -X!.1.6.!.).h.h J. .2.5 | E F.c.j S.2._ ] ` ! _ ] _ ` @.&.X.] F ] `  .| @.o.9.m.@X:XZ.[.[.9X9X",
"+.g.+.O...+.9.d.<XfX5Xb.n.$.!.~.F.zXF.6XU.a.jXjX6X7XaX(.z.(.^.h.v.<.b.b.Y.I.1.) $.H D 2.h.x.6X1X^.5XaX7X/.hXhXcXxXb.v.hX7X7X7X7XhX7XxXxX7XP.(.%.%.F.aX2X;XpXaXfXaX6XpX-X2X-X5XpXJ.S.J.F.F.a.-X%.<.G /.6X7.' g e d _ ` = @ @ < p p 4 U s.M.G.{.=XS.S.f.s.g.i.r.{.NXSX9XsXiXE v.1X1X1XI.!.^.aX(.7XaXaXxXaXgXpX_ v.~.c.-Xg.-XJ.a.z.z.z.5.>.J ) H G G f y r 6 q q 2 - 1 = = - 2 2 2 i h Q ~ |  .| @.+.+.+.+.+.k 5 1 - 2 y C ( 2.a.&.X.2.4.$.1.b.P.<.a.,X&. ._ Q | c.X.| S.c.2._ X.X.X._ E _ W X.X.! _ ` ' ' ] _ | | X.X.X.+.+.2.2.2.",
"i.2._ R Q S Q W R / J.aX).Q.I.p.f.p.-X;XxX~.j.gXjXjXLXaX1X7XhX7X5.(.6X7X7X3X(.hXjXxXxX/.I.^.5XzX1X;XiXJ.;X~.!.5XxXGXfX2XLX^.1X^.p.F.2XiX,XS.~.%.I.j.~ _ g.~.j.K.c.c.=XJ.aXaXiXGXfXfX,X~.-Xc.p a.H ) v.' <.b.z.5.h 7 2 5 = = < = @ < @ j @.9.i.f.f.K.c.i.%.2.f.H.@X].[.0X,X5XxXaXj.F E 6XaXzXjXjXpXj.W k Q 2.z.' ! E &.J.-X;XiXgXiXiX5X5X(.!.P.P.n.<.' Z b b b b C b C A n f f g t r r q 3 7 7 6 2 2 i f h f ( X.' >.7.!.!.F.!.!.!.1X7X5XaXaXjX7X$.#.h.h.` <._ 2.g.+.K.X.a.3.%.' X.3.' ` ( <.h.h.! n ! ! ! D X.2.h.c.2.2.2.a.z.f.",
"o O + + + : - 6 r g a f n ) ^.aXb.3.^.!.) - = + 4 &.D.~.c.c.I.h.z.D ! ^.jXLXjX6X;XjX;X6XxXxX^.5XxXaX-XgX-XaX,X~.! +.S.-X,XfX,X=X5XaXS.J.c.i.g G <.E.5X5XD.S.=X,XK.j.=Xj.=X-X=XS.g.G.R j S S.M.f.3.P.x.b.-Xj.F.z.` ( f G H r 1 5 1 4 2 < 4 s.M.S.:X0X,X0X4X5X,X,XM.H.:X:X~.-X,X5XJ.iXzXLXLXzXGXLXjXw.m 1 + 1 #.P.1X1XX.xXaXdXNXHXHXHXCXGXfXGX,X1X4X5X-Xx.6.7.6.6.5.5.6.x.4.1.6.7.6.5.4.5.5.<.5.z.z.h.S.~.4X,X,X-X^./.^.;X5XaXaXzXaXaXaXfXjXzXxX7X7X(.Q.(.Q.7.6.^.J.+X,XiXD.3.%.z.a.c.J.~.a.c.~.~.2.z.I.z.2.a.m p 2 4 w 4 @ O o o ",
"; ; 6 u y c y C V Z V K K K <.U.D.LXzX1XP.2 2 r m j.K.GXgXfXfXjXzXzXaX;X5X-X4X-XgXgX0XiX2X;X,XaXc.Q ` h _ F.J.~.aXaX,X-X-XK.J.J.+Xs.p.2.2._ X.h.E R +.a.&._ 2.S.=X&.X.g.2.i.s.K.| E c.| ~ p.| J.=X^.!.jXjXpX^.<.g %._ A q C y r 1 = 4 @ 5 R G.:X0XMXHXMXtX:X@XM.M.j.V.S.J.H.J.=X>X:XiXJ.S.K.M.W 4 1 7 r 2 : 3 1.aX5XpXU.iXZXAXPXPXHXMXMXdXMXfXGXGXMXiX;X(.(.1X(.;X6X5X5X5X7X(.!.!.^.1X5X5X5X5X2X5XiXgXMXMXZXGXfXfXaXlXfXGXGXfXfXGXGXGXGXGXGXGXGXjX6XaX7X1X(.P.7.8.7.n.1.1.6.>.] ` 2.' #.#.( ! #.<.a.&.A e 2 = @ + O O X + * : = ",
"7.x.7.Q./.(.7X)./.n.7.,.,.L.$._ p.F.F.f g y b g t 7 w h p R | f.S.gXK.=X,Xf.<XK.S.S.h j +.S.K.J.,XfXtX,X;XS.~.S.c.F.g.f.F.i.iX{.G.9.O._ D h X.J.-X~.~.<.G b a n ` 3.2.h.a.&.m S J.1Xh.-X-Xw.H.o.:X;X2X=X:X,X;Xz.h.sXMX,Xh.( 1.b b f 2 * d < o.].8XqXnXnX0X{.K.M.f.f.g.g.g.g.f.,XiXJ.=X:X0XgXlXiX6X1X) >.#.J 6.] 5XfX~.%.b.>XHXAXAXDXCXMXMXsXMXyXsXdXsX,X;X1X,XfXGXHXHXHXHXHXHXZXHXHXMXMXHXAXAXHXHXHXNXNXBXNXNXMXMXMXMXZXNXsXsXNXMXfXfXfXZXJXPXPXHXGXHXHXZXGX5X6XP.6.n.I.I.b.z.4.5.<.#.' <.z.!.5.>.A J H H G C y y y g f f A J 5.",
",X,XiXfXMXAXPXPXLXLXLXGXfXaX-X~.~.=X~.!.#.(.x.k.4.!.;Xc.=X=X=XJ.=XK.,XgXS.+.g.~ 2.z.b.4._ X.f.f.g.i.i.U.=X-.D.c.-X+./ +./ | { H.M.0XS.fXLXxX;Xa.A d F b J ( %.<.%.v.a.a.n.F.a.a.X.p.p.i.i.g.V.d.{ s.s.{.:Xi.W f.2.+.0X,X2.h.D.a.7.J 2 r p k W M.M.G.G.G.S.V.f.f.f.a.a.z.X.A 2.S.i.V.f.{.=X=X=X=X5XaXxXxX6XxX1.4.!.iX5X;X;XfXMXHXHXPXHXHXZXmXyXnXwX@XwX0X;X,X>X,XyXnXmXmXmXMXGXGXZXNXmXvXyXnXmXmXPXHXNXnXwX9X9XnXNXNXmXsXbXyXwXyXsX0X,XiXgXMXsXmXdXsXiXdXNXMXMXsX1Xz.(.;X,X;X=X~.~.E.c.F.F.J.F.I.!.I.1X/.^.~.!.#.#.7.h.3.a.a.c.~.",
">X>XuX0XvXbXmXSXPXJXJXHXDXmXK.f.H.K.-Xz.] n.*.6XaXxXaX;X4XF.=X=Xf.S.f.i.c.E Q a.I.5.' ( W a.H.J.{.:XiXF.S.i.,XfX=X5X-XiX5X5X~.M.X._ 2.c.c.a.J.,X,X~.^.7X^.;X~.-X-X~.~.J.c.S.f.i.F.v.a.H.f.2.W Q Q | | E.N W r.| 2.i.9.W 2.~.2XU.x.P.' e r h | O.s.s.+.2.i.i.i.i.f.-Xg.F.!.n._ | S.J.S.{ S.;X~.gXgX,XF.2XU.( z.F.-XF.J.i.i.MXKXHXHXNXGXZXMXMXmX9X8X9XwXiX,X,X,X>XsXwX9X9XyXfXMXMXfXdXNXyXyXyXyXyXNXMXmXnXsX0XtX9XwXwX0XdXyXyXyXsXmXgXfXfXiX0X0X8X9X0X,XwXwX8XwXMXiX;X-X=X=X{.+X>X,X;X~.~.E.J.F.F.J.~.:X,XtXwX0X,X!.I.!.!.!.!.=X-X",
"iX,XyXyXNXmXdXZXMXMXHXNXBXmX-X! S.U.pXU.! ^.I.U.K.K.J.<X=XJ.g.R | =XJ.2.S 2.~.F.p.c.~.U.f.S.s.:X:XM.o.9.+.+.X.d R | f.F.F.v.D.X.( ] ! <.X.2.@.R U Q g.g.J.-X,XF.c.a.c.c.2.2.S.S.g.w.f.S.g. ._ <.] ! ' 2.c.5X=X:XJ.M.e.{.=X{.J.i.! 7X;Xa.' ~ i.+.+..._  .+.+.-.+.g.<.<.X.5.( A h e h F a.c.S.+.c.,XiXJ.p.3.` D  .h.&. .2.F.HXJXHXHXAXMXMXBXvXnX9X9X8X8X0X4XiX0XtX9X@X9X:X0XsXsXnXsX0X:XtXsXmXMXfXsX:X9XyXyXdX0X9X:X{.:X:X0XuX0X9X0XMXHXMXdXsX:X8X8X{.,X{.8X:X0X9X,X,X-X-X@X9X>X0XtXiX,X,X~.=XJ.F.J.=X0X:X0XyXmXgX,X4X;X;X~.;X-X;X",
"4XtXdXmXmXZXMXMXMXmXtXdXnXyXD.] H E n k %.^.I.F.=X-X;XJ.g.F.D.n.F F e B A F ( ( F E h h e w W X.+.i.C.K.=X=X=XK.J.S.S.j ~ h.v.!.6.) >.( <.D 2.a._ E m ~ w.+.f.U.<._ H <.c.=Xf.c.F r n ! 2.+.z.b.b.v.' E _ c.X.+.-.i.C.S.i.+.+XsXoXrX XIX=XQ i.i.| | W W / +.i.i.2._ p.-XK.iX0X=XJ.f.J.i.V.S.c.i.i.+.g.~.5X2X2XI.h.] J F p.AXPXPXAXNXmXsXwXqX0XwXuXmXZXMXsXiX>X:X|. X{.:X:X0X>X+X:X:X0XwXiXdXsXsXwXnXyXsXmXsXsXtX>X{.{.+X{.:X0X0X9XwXsX0X:X@X0X#X@X:XH.C.{.:X:X0X0X>XJ.,X,XiXgXiXiX0X,X,X,X0XiX,X5X=XsXdXdXdXMXfXsXsXiX,X,X,X,X,X",
"iXZXMXmXNXMXGXGXMXmXNXNXNXmX~.<.H J G  .p.V.U.S.g.+.@.+.f.K.oXS.S.H.J.S.,XgXF.~.~.<.4.a.S.J.K.iX:XdX0X{.K.:X=X=XJ.S.K.=XD.~.( ) z.#.<.' 5.' g C J >.<.2.X.F.E S 4.(.6.$.' n.z.a.^.7X/.I.D a.j.i.K.a.2X,X,XJ.-XD.+.2.R ..M.>X:Xf.G.J.H.9.@.c.` g.2.| | ..O.+.` E <.a.c.;XJ.w.W f.C.i.=X0X<X;XJ.f.j.i.S.U.=XoX&.n f G A #.-XJXHXHXHXZXmXsXnXwXqXvXyXmXNXdXdXwX:X[.G.G.{.{.8X#X{.+X=X0XsX0X0X9X:X:X0XyXsXtXsXMXyX@X:X,X0X0X9X:X0XyXyX#XZ.m.m.m.G.0X{.f.K.s.d.M.[.:X0XwXgXfXfXfXiXdXMXdXiXgXMXfXfXgXiXrXMXMXdXdXfXMXMXMXfXgXaXiX5X5X",
"fXMXZXMXZXAXCXsX9XdXnXmXNXyX,XaX1X(.x.%.D 2.=XK.i.f.F.+.c.S.~.i.S.+.f.w...[ ,X;XF.c.2.S A S j R | o.9.f.O.R +.f.S.l.a.i.i.p.E b.I.1X!.A A ! >.<.#.<.h.c.i.h.1X^.b.4.X.z.#.E f.-Xf.<X,XK.~ m F.p.p.3. . . ._ X.2.J.J.=XsXyX8Xs.&.z.#.f d p.1X4.X.| 2.-.i.s.f.J.5X!.b.b.<.l.=X,X-X3.a.;.' E _ _ D.S.c.c.| ~ %.1.#.v.;X;X~.{.'.uXJXZXNXnXyX9XwXyXvXwXyXyX0X,X{.[.[. XH.H.H.[.G.G.{.{.:X>X>X:X XoXtXsXyXsXsXNXsXyX0X0XiXiXsX9X@X0XuX0X@X[.[.Z.H.{.C.{.>XH.[.+X:X0XyXwXwXdXfXMXMXdXdXsXfXMXgXsXiXtXsX0X,XsXsXdXsXdXmXNXMXdXfXfXjXaXiX",
"fXsXMXsXMXdXsXwXsX0XuXwX0X8X=XJ <.oX^.$.J H _ E R X.c.~.c.a.X.a.c.c.a.~.;X-Xf.( ] h.z.aX-XF.F.S.2.c.H.E.=Xf._ ~ f.n.n.c.E.c.a.A A _ 4.p.4.F.%.<.%.F D S R m i.p.~ &.i.f.f.=X{.{.,XO.S S ! 3.X.p i g &._ ! ~ z.X.&.=X{.} } 9.S.F.2.X.2._ 2.S.-XJ...+.W i.9.i.f.D.J.U.K.f.i.+.i.i.| +.r.M.J.z.X._ R S A d n A J ] 3.p.' ( s.BXqXDXBXMX0X9X9XqXyXvXnXqXwX9X:X{.G.G.G.H.C.M.Z.H.G.{.S.M.f.M.d.M.M.G.oX$X:X0XyXnXmXvXyX0X0X0X0X0X8X8X@X#XZ.].M.C.S.:X[.Z.+X0XuXqX8X$XwX0X0X0X0XsXyXyXsXMXdXMXfXiX0X:X,XiX>XsXyXsXmXmXNXNXfXgXGXGXfXfX",
"tXwXwX0X0XdXsXfX9X#X#X@X@X#XH.1X!.P.n.x.!.b.n.2.c.c.2.-._ z.2Xi.| ..Q +.i.2.i.i.S.F.F.S.S.c.-.9.C.f.S.+XJ.J.=XF.K.0XH.G.:XH.sX0X~.^.c.2.E E ' 5.z.x.P.b.!.I.4.a.h.2.W d d h E S l { X.E ! %.g.2.p.a.S.~.,X+.W / 2.2.g.+.S.i.i.S.~.F.J.K.f.9.} G.f./ ` s U r.O.} | ..X.../ X.<.4.3.5.<.) J ( a.~.5X~.~.~.^.;X~.n./.Q.5.~.:XVXXX.XqX0XuXyXqX$XwXqX9X9X:X|.[.H.C.M.M.S.H.g.s.d.M.s.f.i.i.r.i.s.d.d.d.N.G.H.{.8X@XqXwX9XwX0XyXwX9X'.[.[.'.Z.C.S.S.C.].|.@X@XqXqX$X}.:X9X9X@X>XwX0XyXsXdXsXdXrXdXrXdXsX<X+X>X:X>XtXtXsXsXdXfXGXMXdXiX",
"sXwX:X:X{.S.+.i.H.:X8X$X$X$Xr.m H >.b.2XS.~.F.~.-XF.F.c.X.<.#.z.b.W.h.h.<.;.E E E W 9.K.d.+X| W ..r.s.s.W W i.U.f.f.J.f.K.K.=Xf.F.1X,X=X5X2XrXgX,XU.5XaXi.X.X.&.2.~.;X,XiX-X;X^.-X{.J.K.g.p.f.i...>XK.i.g.S.F.~.p.E _ X.d h R 4 7 s W ~ &.| W R m +.W M.:XG.M.M.K.+.i.c.E.-X=XS.F.F.U.-X^.X.f.f.F.;X;X2XJ.w.+. .A G A g U XXXXXX.X}.wX8X9XeXqX$X@X|.|. X}.G.{.G.G.f.g.f.s.s.s.s.i.i.i.i.i.i.i.M.C.M.f.s.d.M.G.|.9X0X0X0X0XwXyX[.N.].m.m.C.f.M.d.].#X[.@X[.].|.[.@X>X:X>X:X9XqXqXtX9X>X>XwXsXdXMXsX0X:X,X:X:X:X:XwXdXfXfXsXsXsX0X",
"+X:X9Xm.{.:XJ.H.9X[.0XBXBXSX>Xn.J ` %.a.,X,X=X=X=XJ.K.f.g.X.;X;XU.S.c.f.-X<X~.F.c.+.S.H.r.y.yXZXsX>XJ.,XM.i.f.J.S.i.c.+.2.a.j.2.%.&.2.f.+.X.S Q S k W S.{.~.J.S.F.S.oXs. XN.r.K.i.H.sXJ.+.g.g.S.l.S.c.+.f.g.i.W d E E A ~ 2.2.h.4.3.e F A j 7 7 4 4 p +.{.H.=XJ.M.{.f.M.G.|.V.M.K.g.~.~.p.` 2.| R U.{.=XoX=Xc.2. .%.F b.q.XX*X'.'.t.s.s.s.m.m.m.s.s.t.9.O.O.9.+.i.+.-.9.+.9.+.| | +.+.@.X.X.+.+.+.9.+.i.s.M.H.}.G.C.r.9.s.9.0.0.t.N.N.[.[.H.G.Z.].8X:X{.Z.].9X:X>X{.,X>X,X9XqX9X>X+X=X<XwX0X<XsX0X:XS.C.{.9X:X:X:X:X=XJ.{. X{.:X",
"f.f.M.J.>XK.J.f.H.0X9XeX8X$X>XF.n.F.F.F.D.~.^.+.i.E @.F.c.f.j.F.;Xj.K.f.S.].H.G.M.G.M.S.G.C.M.K.+.k Q Q Q | 2.N A E ] ) ' 5.z.5.] _ +.g.K.K.X.` d E h Q h p d ' F d h e S p Q _ 4 ~ j | w A E d f d w r w ! ] ( d h / E ~ Q Q E _ +.E g 2 2 # + = 3 W Z.[.@X].{.0XMXfXaXF.p.F.c.a.a.2.4.%.~.F.S.D.-Xi.j.m i.fXaXaXaXc.f.M.m.9.r.9.+.+.+...| | | | | ....X.+.X.X.@.+.i.p.X.X.X._ ` _ ` | ..| | ..| ..| _ | +.d.r.9.o.+.&.+...+.r.t.m.'.$X@X0XJ.H.{.$X$X9X9XyX9XyXsX0XiXtXnXqX%X8X@X0X=X,X0X{.+X=XoXJ.D.f.f.m.M.M.K.M.g.+.+.9.s.i.",
"&.&.2.a.i.f.S.D.b.J.[.].#X[.Z.M.S.S.=XK.w.S.<X2X~.c.F.S.g.i.%.%.%.&.2.a.F.g.S.5XiX0X:X@XG.+X[.M.Z.G.f.J.=XJ.J.=X+XK.J.v.( ( %.3.b.z.| | .._ 2.z.~.;X>XJ.{.=X;XF.] ( D G B 3.l.+.a.i.D.E.~.F.f.J.E.{.oXf.~ +.f.k 1 = < = @ < 1 2 1 1 r n F G G G ] X.9.0.9.t. X}.].+X9.f.i.S.E.;X~.~.~.;X-XF.F.S.f.D.c.S.S.M.f.V.H.S.s.s.9.+.o.+.X._ | |  ...| |  .+.w.2.2.i.i.+.i...| _ _ _ W _ | X.X.+.i.i.+.| | _ _ E ! Q R W / Q _ X.+.+...0.t.N.}.#X#X:X+X+X[.Z.[.9XsXNXMXnXsX>X:X@X|.}.%X}.#X[.:X:X:XJ.S.i.+.2.2.i.+.o._ _ W E ~ _ _ X.X.+.",
"&.3.p.X.' _ +.2.5.p.K.S.K.K.H.:XH.r.r.+.+.-.+.i.2.S.J.a.g.D.=X=XJ.=XJ.-XE.K.+.-.O.@X{.8X9X].Z.t.M.Z.{.wXG.0XM.9.Z.o.Q -.c.S.S.F.j.c.| i.K.K.J.K.S.H. XC.9.s.w...j W 4 d S S W R A S S d < < < 5 5 @ @ @ @ @ < = = * e f A D ( X.<.2.z.n.n.b.~.^.+.p 4 5 p l l j R | O.+.9.s.o.C.G.G.s.M.{.:X=X:Xf.i.S.f.i.i.a.l.i.r.M.K.r.~ W Q Q E E _ ~ | | | ( _ +.+.X.2.2.X.` _ E E W ` / X.+.+.+.+.9.r.r.i.-.X.X.( ( _ ! _ _ _ _ _ | -.g.C. X}.}.$XqX0X0XyXuXvXmXnXmXMXMXsXwX{.M.s.t.N.A.B.N.].#X8X0X{.{.G.C.M.i.i.s.g.-.+.+.X.' X.` ` +.X.",
"f.c.f.f.3.g.f.p.<.4.&.p.2.p.g.s.G.=XS.c.F.~.F.K.H.s.d.M.o.s.s.9.s.Z.M.C.o.d.9.O.O.| } R U l l j U R } 9.t.t.9.9.9.Q j Q ~ 2.| ..+.o.+.[ l 4 5 4 k p l j p h i.{.=XsX+X=X-X,XiXgXgXaX-Xz.! w 3 p 9 s d g a e t t f H 1.7.z.v.b.I.z.h.h.F.F.c.f.i.| _ ( ( <.%.( ( W W W j Q j U [ } } G.M.s.M.M.d.G.{.M.f.f.i.c.S.J.{.].d.+.i.s.r.O.| _ +.+.&.&.X.] _  ._ ! / E E E ( ' ( ` ` ..+.X.+.+.+.2.+.@.X.| W ] ( ! ( ( ! E E ] _ _ | +.+.t.Z.'.].[.$XqXvXvXvXuXwX@X}.Z.}.].G.f.f.C.d.Z.@X|.}.].Z.[.].}.}.}.[.H.G.M.H.S.f.g.i.f.g.f.g.f.a.",
"X.&.i.s.M.f.J.f.i.X.%.+.&.+.+.R } 9.s.K.p.+.| } [ 9.9.r.9.9.@.w.J.| W W U R [ W / S k E h j d p 9 i 3 9 p s l s w @ + + = ; g g i i p d g a t r 0 q t g t y C G ' ( ( #.#.#.<.a.D.J.c.z.H t a ;.-.a.5.$.>.<.$.,.,.7.7.n./.;X5XiX,XgX,X5X,X;XJ.<X,X,XiX;X,X2X^.Q.b.7.z.5.C y h A S N j R [ [ [ } | / / X.2.2.R k z l U U ..+.+.i.i.i.X.X...| _ ` E F F G G E E Q Q E W _ _ _ W ` W W _ _ _ _ ` X.+...X.' X.` X.X.;.+.X.X.+.-.&.9.t.s.d.[.}.}.}.%X%XqXqXwXeX].A.'.G.M.M.f.s.s.s.M.G.G.M.f.s.S.Z.C.M.Z.C.G.[.M.M.f.i.i.i.p.i.g.i.+.",
"c.p.p.2.i.i.+.f.d.2.<.X.i.a.-.-.g.+.p.g.2.f.J.S.d.+. .( ( F J C b G h F ( S { | ..X.| ` ..| -.O.O._ E A F ~ E H 6 - = : y C J b H H F C c t r 6 3 1 = % @ * = = 1 2 7 e G ) ' %.` @. .d ( 5.4.b.j.z.x.!.;X6X3X1X7X~.5X,XgX5XtXyXnXNXuX0X9XtX{.M.]. X0X0XwX8XdXaX~.2X-X~.b.1.y r r g Q ~ | O.m.M.f.2.+.%.3.4.' h m p.S.f.+.+.f.g.i.+.&.+...&.2.&.2.%.<.] ' p.p.p.w.&.+.+.2.+.| +.| ` +.+...+.-.2.2.+.<.%.%.` ` _ +.X. .X.+.X.| i.d.m.d.m.Z.].}.}.}.}.}.}.|.}.'.A.H.H.S.G.G.H.K.M.G.G.K.g.2.i.f.f.S.i.S.S.f.f.f.p.g.i.i.i.X.+.2.a.",
"g.i.i.g.p.i.2.+.+.&.%.X.X. .<.2.i.2.a.p.p.i.i.2.X.4.#.1.5.>.J L J >.A f J F _ 9.+.E E F ! E ~ W E E H C C C f t u u y u > > - : % & : - 2 2 6 2 2 2 = = : = ; 2 2 7 2 2 q 2 < 2 2 q C <.6.n.v.I.x.b.F.G.[.0X9X0XsXiXsX8XqXwX@XmX@X X@X@X8X|.|.{.C.s.{.:X|.}.yX5XfXiXgXgXgXiX(.J c u 7 r s W | W s d E ` ! ! D t 1 D  .+.+.X.W +.i.+.X.E X.X.+.` ` ( ] X.X.i.s.s.M.d.i.-.+.+.+.+.X.+.X.i.&.2.&.&.+.X./ E E F E ! ! E E W | .._ | ..+.9.9.i.s.N.}.[.[.N.N.M.d.M.d.d.r.i.M.V.M.Z.C.s.f.S.K.f.2.+.2.g.S.H.M.d.i.+.&.i.+.+.2.;.2.&.+.",
"( ' ] %.g.f.i.i.&.&.4.] ] ] ( ( ` ( ! J ( ! ! ] <.' >.5.<.>.>.6.<.1.%.C C f F E / _ ] F G E ' 3.z.!.n.b.n.P.7.L.Z u K K ,.,.Z y q q u y c C b g y t t t q q u g C b q g b y y C J ] 1.6.6.n.P.P.P.U.oX].}.#X[.'.'.#X8X%X$X].N.].s.+.+.-.s.f.s.i.C.K.Z.M.|.@X:XJ.H.H.:XeXnXwXtXaXP.>.$.t - % < 4 r 2 3 3 r A y 6 ; : 2 F G ( ( W | ..%.&.+.X.X._ ` %.<.<.2.2.w.w.i.s.s.2.i.+.X.| | X.` X.| X.+.w...| +.+.+.-.X.' ` ' X.` | +.+.+.9.9.9.i.s.+.s.s.m.s.t.9.r.9.+.r.s.i.C.f.s.g.i.i.i.g.f.i.2.2.<.;.2.-.| O.| +.-.+.+.+.+.X.' X.' ) ",
"2.4.2.g.i.i.g.i.2.X.<.<.%.' %.<.2.i.2.' ' ] ' ' ( ] >.$.>.<.4.n.>.J b G P.5.5.c.J.~.-X~.~.F.,XfXdXgXfXGXGXGXzX7X(.).).).aXzXzXlX(.W.,.P K K L L K K Z Z J H K J J J c Z J J #.1.<.] >.,.P.7X7X(.7.L ~.0X$X%X'.d.9...+.o.| o.o.O....._ ' +.i.Z.:X|.,X{.H.s.9.M.g.i.t.s.B.A.m.Z.e.+.i.z.5.J u q e f B F A H C y y q q - 6 G G E E _ ` | ~ ~ _ ( D ] ' ] ' ` ` ....9.9.9...| ..@.@.` ~ ~ ! _ _ | | @...| | _ Q / ` _ _ | | _ X...X.W | | | | _ ..| O.O.+.o.O.o...| ..+.+.+.+.+.2.&.+.+.+.@.X.X.-.2.-.-.+.+.g.C.S.f.g.i.f.g.f.f.i.g.",
"X.X.+.O.o.+...+.X.X.+.2.<.2.p.g.i.f.f.F.F.F.a.a.4.6.$.J >.*.$.) H C % 1.v.-X;X0X0XyX0XiX,X,XiXsXNXNXHXMXHXHXJXLXLXxXxXxXzXGXPXPXZXJXxX)._.Q.Q.P.L.,.L P I ,.I L K L P P P L <.G $.J ,./.5XfXHX:XaX/.E.sXeX}.#XZ.M.+.W Q Q R _ ..2.g.f.K.J.M.s.9.| i.f.f.i.X.+.` +.2.s.9.s.r.2.2.z.E.J.E.c.<.) C A E ( #.H C V c y ; q 1 f ( ! E E ! ( ( ( ( J J ] ` ! E E _ +.+.r.y.9.r.+.+...| | _ E F E F _ _ | | ` | ` _ E / _ W _ Q _ E E W W / _ _ ` E | ..+.} | | o.+.-.i.| +.| +.+.+.r.o.9.+.+.+.o...+.+.+.r.r.s.M.G.[.H.G.Z.[.:X#X[.G.s.",
"H.:X=X{.M.s.i.9.9.i.f.i.+.X.s.f.c.F.F.U.a.k.1.Z c y y C H C q 2 - - 1 4.f.H.{.@X].A.@XtX0XwXwX9XtXtXwXsXsXsXMXfXlXGXzXzXGXHXNXsXmXAXHXGXLXLXLXxXzXxXxX(.L.,.I I ,.7.7.I I K Z P P >.Q.;XrXqXvXBXqXnXHXwX].m.B.u.u.B.d.d.s.m.G.G.N.d.m.m.Z.s.i._ f n D F G ) D H ! !  .~ W X.X.&.w.w.s.i.0.W <.1.) ) J 1.>.>.] J C c t q ; t H ! ' <.3.2.X. .` ` X.X.X._ ~ ! W W W W R W Q W W | | X.X.` ~ _ _ _ _ W E W  . .` X._ ~ _ X. .`  . .| _ | | X.+. ...9.+.r.9.9.| W +.i.i.i.f.S.f.K.H.{.K.S.s.9.....| +.+.i.V.d.m.G.G.{.@X+X{.H.G.{.[.",
"o.{ [ ..o.@.@.9.@.+.9.+.X.i.f.f.K.S.S.&.) Z V V K L 7.).lXLXUXUX).; $.7.c.G.M.C.G.[.#X8X>X{.].].{.]. X XH.].{.0XfXCXHXwXMXsX0X8X8XwXfXfXfXfXGXCXzXzXzXzXaXlXhXhXxXxXxXhXhX).L.I P >.1XiX,X8XvXbXvXSX'.AXHXHXHXsXK.w.~ R W } } W / / / ` 2.l.f.p.&.n b g b C C b H ] ' ` ` X. .( A A D D ( <.4.5.H ) z.F.!.!.!.1.J C V c y q t g f g t q r 7 e g d d d s w 4 2 4 z p a S s 5 w p h h h n p p i m Q j l 7 7 4 p m R Q ! ! ! ~ _ | +.X.+..._ ~ | X.+.+.+.+.+.+.O...| W ..| ..+.+.s.9.+.+.......| | | +.9.s.s.r.s.d.s.9...| | | | o.",
"w 7 2 4 5 % # = 2 1 w r f E R k k t b J L ,.L.jXxXzXJXAXMXSXVXeXD.g x.F.g.s.c.S.H.K.M.m.H.G.M.g.f.i.d.M.M.M.Z.Z.m.:XyX{ ,X0X8X X#X}.@X@X>X:X:XwX5XfXGXGXNXNXU.KXHXzXzXzX5XaXcX`.,.>.F.,X8XwXqXqXSXSXDX].qXAXNXwX|.M.2.X.| r.M.F.^.4XiXfXfXgXfXv.H H C C C H H y q 2 3 e k S ! J c c Z Z $.<.#.#.$.c.tXiX5X4X;X;XI.P.8.,.I ,.>.,.,.>.>.L V ; - + + $ O . o # + + @ : % @ < % + + O o . . o . . . o       $ . o o # . . : r t g f n S E _ X.2.i.2.d.a.a.2.2.2.X.} Q Q R k s p d l k h k s l j j E E R Q W E Q A f g N F D d s l 1 ",
"1 2 5 = * = = = + + @ + o o     r Q.7XhXzXLXGXHXdXnXBXnXqX8X@Xp.f b.F.~.=X=XK.c.S.G.:X:X{.H.S.g.g.i.f.f.f.f.S.f.S.C.J.l ` J.:X:X@X@X@X:X>X9X:X=XU.J.K.H.+X0X%.| GXfXGXMXHXsXlXjXhX!.~.=X0X8X$X@X|.[.nXu.qXd.9.X.h A { s.i.G.=XtXtXyXNXSXPXNXMX2X7X/.(.Q.x.7.z.x.z.4.6.z.>.' >.>.>.>.8.5.>.6.$.H ) D.{.=XoX{.J.=XiX6XaX/.8.8.,.8.8.L.x.P.P.L.7.>.>.J C q q y g y q - : : - : = = : - = : : = : + ; + + + % : + : ; y Z J $.<.>.$.6.x.z.x.x.b.I.-X;X;X5X5X2X5XiXtX;XJ.K.d.i._ E h i = < < 7 a A ' 2.h.h.z.v.~.I.^.5XiXMXNXSXnXf.4 ",
"p i e e e 0 r e w 2 - = : + * 4XfXMXMXMXsX0XwXmXNXsXsXyX:XN.` r <.,X-X,X,XiX,XJ.S.{.:X@X{.{.>XS.h.a.p.a.2.2.+.+.g.s.d.H.F.E.:X@XyX9X9X>X{. X{.~.-X-XJ.S.J.J.b.2.,X,X:X:X0X].yXmXfX5XF.~.:X8XqX$X$X:X@X%XXXtX-XK.h.3._ _ / } +.f.H.}.8X8XqXqXvXMXaXnXsXdXsXwXwXMX,X;X^.!./././.(.7XiXwX8XtXtXI.Z v H 3.2.i.@.9.g.M.oXgXpX/.Q.P.P.P.(.^.^.7X7X7X7X(.!.!.!.b.P.z.5.5.5.>.C C >.$.>.>.>.>.,.,.>.L >.>.K K C u > > u Z 6.7.7.P.7.7.8.P.Q.P./.(.1X5X5XgXgX5XaXiXpXdXmXdXdXMXdXsX:XK.i.A g G ( >.6.n.n.b.1XaXjXaXGXGXaXGXZXsX X0.o.T p ",
"R ] X.2.F.z.b.a.a.h.( 6 : ( J.>X<X=XH.0X:XoXoXoX XG.M.9.W n g C =XnXtXiXZXdXgXfX=X:X:X+X{.{.+X=Xc.2.3.a.z.c.g.2.&.i.d.K.S.C.[.@X$XqX>X{.H.{.J.F.p.F.S.S.=XS.c.S.{.=X=X:X=X:X8X%X9XdX{.C.+X0XqX8X#X}.&X#XVXN.a ~ | h r e S S / | d.@XH.Z.9XyXnXAXMXNXsXtXsXsXiXsX:X0X;X1X6X5XaXaXMXHXNXPXPXmXh.K Z C ! W W ~ ! i.X.@.f.-X;X;X3X(.3X3X;X=X{.,XtX>XiXiX,XfXoXf.2._ 2.a.b.7.6.1.4.b.n.P.x.n.P.x.n.x.7.7.7.,.,.,.L.z.b.^.-X-X;X5X;X(.1X1X5XiXfXfXfXfXgXMXsXsXsXtXyXnXwXwXmXnX|.:XV.&.5.z.z.(.aXGXzXfXfXGXKXiXj HXMXNXrX:XG.9.+.w p l ",
"c.b.b.!.~.J.U.~.~.F.!.8.H D.G.s.X.2.-.9.g.i.w.X.` h w 3 g A F ) S.8XMXGXsXHXGXMXGX,X=X:X9X9X@X0X,Xc.a.z.c.c.a.2.3.a.i.+.i.f.f.M.Z.[.8X=XJ.V.i.2.c.g.c.S.J.H.V.J.>X0X0X0X0X0X|.}.%XwXM.G.H.#XeX$X$X$XeX%X'.eX+.2 3 3 w p l ! 2.H.>XsXdX9X:X[.H.{.H.H.0XwXwXtX0X>X>X,XpXaXjXpXjXjXzXzXGXGXHX5X~.;X/.(.z.] g ; r g D &.&.&.&.%. . .`  .g.p.i.s.M.d.S.J.f...W Q ~ | w.j.j.h.7.1.b.F.~.-X=X=X,X=X-X~.~.~.^.^.!.I.^.J.S.K.H.M.f.S.=XgXfXgXiX0X<X<XsXMXZXZXMXNXmXnXdX0X{.V.i.s.9.&.H I.U.-X<X XM.M.].{.V.s.M.M.w.M.{.g.{ | S 1 2 a W l.",
"iXiX,XiX4X4XiX;X=X,X=X,X&.D R S ~ D E E A n a + # @ 3 p j | 2.%.4.F.mXGXMXCXGXfXGXfXfXtX:X:X9X@X:XJ.c.2.g.2.<.<.<.' <.2.2.l.l.M.d.s.}.H.-X~.S.S.l.a.i.f.S.G.f.G.].@X:X8X8X8X8X@X'. X9.M.{.}.}.qX9X0X0XeX%X&X'.X.r r w p h | C.{.uX9XnX:X:XH.f.+.w.+.f.M. XG.].>X0X+XiXsXCXjX7X6X6XpXiXpXjXaXdXAXMXZXfXgX/.Z 3 = = = = % % % < 1 3 w a d d n n m R h S h g w w h l k R #.6.6.I.F.{.H.Z.M.9.m.M.J.F.H.].G.J.:X:XJ.g.{ | _ W W | w.{.gX,X=XJ.oX<X:X:X0XrXnXeX}.d.i.E D Q h p k m @.9.M.m.9.+.| ..&.&. .| E H D E m i = = ( F.;XiXiX",
"0XwXsXyX,XJ.J.:X:X0X:X:XK._ E A j 3 + @ @ O . . o o 9 9 R E ! F <.f.8XwXMXyXnXAXGXfXHXHXnXmXnXnXyXNXfX=Xg.2.g.p.4.#.) H ` +.i.f.f.f.i.g.2.C.J.S.c.c.j.i.f.p.M.Z.G.N.].{.@XwXqX%X|.@.W f.Z.|.8X8X@X$X%X$X8XqX*X'.# r p s f j i.M.|.N.H.'.}.M.+.2.l.f...` ;.J.9XwX=X{.>X5X3X/.7XiXiXtXyXNXLXJXBXSXPXHXPXNXAXE.g e 6 e 2 - - - : + + + + @ @ = 1 - < < @ + + + # X : 2 % D %.z.S.M.s.B.B.M.m.t.r.i.+.d.d.m.Z.B.s.9.+.| Q h k d d D ` g.f.X.D E D ! ^ E ^ W Y k 7 7 5 5 4 2 < = < < 5 7 w 9 p p 4 1 1 2 p w 3 1 1 3 r g X.U.0X0XdX,X",
":X:X|.}.{.@X9X:X8X9X9X0XwXJ.g.` d 2 1 * o o o . O o < p m / 2.2.<.f.{.oXyX0XqXBXdXMXMXNXBXyXnXvXvXyXnXmXZX=Xi.-.2.%.' ] ] ] ' X.X.` &.p.c.S.f.c.J.=XJ.M.S.M.M.G.].M.M.N.G.m.d.m.+.E _ f.G.@XeX8X:X@X$X|.@X%XXX.X4 = 2 i S d -.G.s.0.r.r.f.i.S.J.{.K.J.E.;X>X:XJ.=X,X,XI.4./.1X,XwXAXMXnXNXbXDXIXIXPXBXBX'.8X0 7 t y u y y c c y u u r e r r r r q r u y b C H J Z y ; q t n o.w.9.+.+.0.m.'.G.M.f.G.G.K.M.M.+.~ Q j d r r 4 4 4 2 2 2 4 p 2 1 1 1 1 1 5 4 4 2 5 5 5 2 2 3 0 r i d h k l w 4 5 = = = 2 3 w i A ] ' 5.c.J.f.+X:X{.",
"{.|.N.N.|.8X}.].}.%X$X|.@X:XK.j.` E A i 3 O o + # # o 5 w R X.2.] 2.C.{.@X$X$X9X0XMXfXZXMXAXmXBXBXvXqX9XmXZX=Xf.+.+.2.%.' ] X.+.-.-.2.%.&.&.<.<.i.f.S.S.C.M.K.G.[.G.N.Z.Z.G.p.g n F i.S.:X8XqXqX@X:X%XqX8X$X#XB.<X% 2 d R E X.H.{.K.H.+XH.S.j.j.F.~.5XiX,XiX,X2X;X2X~.1X4.n.K.@XBXsXZ..X%X&XVXVXBXSXbX%X'.Z.1 r b Z >.>.>.$.>.,.>.>.] J K K J L $.J $.>.5.z.z.h.4.n.5.b y : 7 2 3 1 4 A W s.f.+.%.&.%.H f ) ' p.b.<.( G y e 0 2 2 < = = = 1 5 2 2 3 p p p i s p e e a g a B F ] ' ` R N f f g e g B J J ' <.2.a.b.U.iXfXsX9X}.{.",
"r.M.Z.}.C.Z.Z.].|.@X@X}.].G.J.~.v.4.>.1.J % O + = % # + 3 p R 2.] %.2.f.Z.}.}.uXsXsXwXNXBXNXmXSXNXNXNXmXnXtX>X=Xc.p.2.2.3.i.i.g.i.i.a.X.X.X.] ` X.+.2.i.g.p.f.f.M.G.}.[.}.M.D b g i.f.K.{.0X$XeX8X8XqX%X$X$XqXq.sX% 2 e Q Q Q G.9XNXsXyX0X~.~.^.~.!.7XaXaX,XaX5X^.1X5X-X=X>X@X$X9Xf.w.d.N.N.Z.[.|.[.[.qXG.R 6 b H 6.F.I.J.D.F.F.~.<X~.x.>.>.) 6.b.z.n.~.;X,X>X:X=XF.F.c.n.C t y y i k D _ / ( >.7.!.Q.Q.(.(.^.-X~.F.b.7.] H G f r q 2 2 2 3 3 w r r i a i p d j S ! ] ' <.<.3.4.5.5.1.<.<.<.:.>.<.1.4.h.v.F.F.;X=X,XwX9X:X@X8XZ.",
"C.s.N.].G.m.'.'.'.G.].Z.Z.J.:XJ.-XF.x.*.c y 1 + 6 : + O @ 3 i g H H ) 2.S.}.}.].Z.H.:X0XyXmXAXMXMXMXmXBXNXmXfXsX5X5XF.E.a.i.| +.+.....+.+...X.| _ _ | X.&.2.-.i.s.Z.Z.Z.s.R 6 q a f.G.C.{.8X8X8X8X8X8X%XqX9X#Xu.Z.@ 2 d h W j J.@XyXsXaXzXaXzXpXjXhX7X1XaXaXzX6X1X6XpX=X9X8XqX[.C.' ) ( <.f.f.p.w.S.M.M.2.= 6 f v.=XJ.{.>X,X,XtXtX>XtX,X-X~.-X;X-X;X;XE.>X0XnXtXtXiX5X~.F.-X' Z Z Z J #.<.p.^.~.(.,X5XgXGXCXMXGXGXGXGXGXzXaXa.' J C C y e e r g a g y y y b G ` +.2.a.a.c.c.a.f.h.1.4.5.a.z.h.h.v.v.~.~.-X=X0X:X,X9X:X|.8X$X$X[.",
"#X%X}.#X9XuX%X%X#X#X'.'.'.].+X{.[.c.P.L J Z 7 + 2 1 + . @ = 2 d e C C ( i.d.N.Z.G.M.M.Z.@X8X0XtXyXvXBXSXBXSXMXGXlXaXgXgX=XJ.f.M.S.S.+X{.{.G.M.C.S.g.-.X...i.X...+.s.d.s.X.t q y f s.:X{.G.:X@X@X:X@X$X#X#X.X}..XU < 2 s h A N _ {.>XsX=X<X~.2X^.U.^.I.^.5XpXfXiXpXpXaXiXuX#X}.].` H H G A S S D h g = O o 2 r z.J.:X=X+X+X+X>X:X{.@X8X:XyX,XtX,X,X0X:X@X{.:X0X0X0XgXfX5X~.F.!.L.L L L ,.P.4.F.S.i.o.V.}.8X8X0XsX9X9X{.>XfXNXHXF.<.>.] J Z J C C C G H ) ) #.2.g.f.S.S.K.K.K.S.F.F.z.b.!.D.c.S.J.J.U.:X+XH.Z.9.G.].'.}.}.vXeXqX$X",
"$X$X%XqXvXqXqX$X$X'.Z.N.'.@XeX8X|.{.=X3.6.#.1 = 2 - +     = 2 h E ( H C F ' i.f.f.G.M.M.[.@X}.>XsXsXAXPXDXAXGXGXGXHXfXF.,X,X,XwX,X4XdXtX:X0X:X@X:X:X+XC.M.G.M.d.9.O.+.| ^ = r b G f.M.H.[.@X:X@X@X:X8X#X}.].u.XX5 = 2 e A E S A 2.i.=X=X:X0XiX5X5X>XgXiX-X5XzXzXiXgXiXgX0X8X}.h 6 2 = + + @ 2 - = : + + = 2 +.U. X XH.{.H.H.H.G.]. X{.H.}.@X{.>X@X0X@X X@X9X8X0X0XiXiX,X;X^./.Q.P.).Q.Q.(.!.H n ! e. X8XvXwX9X0X,XtX9X8X|.}.eXwX,Xc.p.+.| ! J ) ) 5.4.l.a.2.j.j.p.p.g.K.J.C.{.=X=X~.=X,X:X:X=X{.:X:X:X].9X|.}.$X}.$X%X%X|.|.%X|.",
"|.[.#X%X9X$X8XqX#X].A.'.'.}.[.@X@X|.:XU.h.7 < 1 : - + $   o 4 4 k ( >.$.C J ` &.i.i.f.f.s.s.G.@X:X:XwXnXBXNXGXfXZXZXMXaX,X,X0X0X:X:X0X>X=X,X:X9X>X{.:X,X=XS.S.f.f.M.f.` t 7 t Z ' C.M.M.{.:X:X{.@X@X8XwX#XN.0.u.@ 1 1 w ( E ` S F a.i.=XsXd.:X-XiX0XwXsXfXgXGX-XfXiX0XtX,X8XO.e r 7 7 7 2 = 7 r r q 2 2 2 H S.f.M.N.[.{.M.s.M.C.m.s.J.H.G.[.+X{.G.G.G.{.8X|.#X@X{.tXfXzX>X=X~.U.pXiX~.(./.7X/.P.] t n Q 9.oX:X:X:X<XH.M.9.W { @.o.Q R R p.<.$.1.3.%.p.j.h.1.6.6.n.I.Y.F.c.J.C.K.F.J.=X:X:X=X=XK.G.[.{.@XM.8X|.}.A.|.'.].'.Z.Z.'.",
"$X8X%X9X$X@X@X0X9X0X$X$X#X}.Z.].Z.].].f.2.# . 2 - 2 @         < 3 i ! #.G H ( i.s.f.f.M.d.s.f.M.[.{.{.+XuXyXiXfXMXNXmXtX0XS.f.V.].|.dXiXiXgX>X{.M.G.wX{.G.C.S.p.c.f.p.&.D h g C <.C.V.S.H.@X{.>X8X$X$X@X].d.9.p 1 - 2 2 t :.<.G G ( X.C.0X8X0XiXMX:X@X0XwX0XiXfX,XtXsXiX:Xi.a 6 r r 6 2 ; ; 7 r a e 7 1 A 3.+.X.+.9.i.M.m.r.9...| 9.s.f.j f.d.M.m.M.M.{.#X[.}.8X8X{.0XdX:X=X;X;X,XiXsXgXiXiX;X5X^.J g t e f Q R Y j h k h m m j U R Q +.a.1.5.z.z.4.h.j.v.P.P./.P.n.!.I.J.J.{.{.J.J.J.{. XH.K. X|.}.A.].'.m.m.t.m.B.Z.t.s.s.Z.Z.",
"MXNXmXsXiX0X0XsXwXqXqXqXqX$X|.[.m.].|.:X=X.   2 6 6 +   o o o $ @ w e H ) H F %.i.s.M.S.s.f.s.9.i.f.J.H.:X0X0XrXsXnXnXnXnXJ.F.=XS.i._ s.H.H.S.C.r.B.[.:X0X+Xr.i.g.f.S.f.i.&.+._ M.H.K.S.G.+X{.:X|.|.$X}.m.r.| % r q r q q G <.' F G 3.M.t.:X{.:X:X@X9XyX0X,XtX,X:X0X0XwXS.A t q q r q 6 2 7 r q e t r % g D _ D n h j Q W _ ` /  ._ { ..+...+.m.m.N.G.Z.B.m.Z.Z.Z.].G.H.>XtXtX>X=X,XtXwXNXMXdXwXtX~.h.>.C t 7 2 3 2 ; : = + = 3 4 4 ! h.h.4.z.b.b.n.b.~.F.-X-X=XU.-X;X,X=X{.+X=XK.K.{.].N.M.G.Z.G.N.N.B.B.'.B.B.m.m.N.G.H.=XyXdX",
"HXHXPXGXfXfXfXgX0XsXuXwXqX@X|.}.#X@X{.:X:Xa.. : 6 6 . . X + # . . = e e t g D F %.i.i.i.i.f.i.i.i.2.2.2.d.M.M.J.:XqXBX0XHXU fX=Xg.X.h Q W | | f.{.:X0X>XG.S.f.a.z.=X0X0X,X=XH.S.S.S.K.f.C.{.:X@X@X|.oX@X@Xf.2 1 - 6 t Z H H G #.( ( %.+.9.G.M.H.:X>X:X0X0X,X=XiX:X{.{.J.X.y y t u t t r q q t r t r q - - ; - t g b g g g g g f g A Q _ i.f.f.S.m.d.M.M.C.B.Z.Z.G.G.f.i.G.|.|.}.[.{.[.[.|.@X9XsX8XqX,XF.3.4.] G C G y t t r 4 z k i *.a.D.c.K.F.~.J.K.J.=XJ.=XJ. X{.{.{.:X+XK.M.i.S.G. X@XG.G.d.9.s.m.H.Z.H.~.-X;XiXfXGXZXMXHXHX",
"ZXyXZXGXGXxXzXLXGXZXNXSXZXMXdXtX$X#X[.}.8XU.. ; 6 - % 2 = % + : @ + + 3 i a d D F ( ' +.3.i.i.2.3.3.<.2.2.r.f.f.C.}.9X0X{.fX,XK.p.` a = W ..` 9.{.,XJ.G.U.-X^.(.7X^.<X:X=X+X,X<X;X=X~.F.F.K.{.|.}.{.G.M.9.~ 1 ; - 2 t H $.>.4.%.#.) D r.9.R d.d.M.[.8X9X0X0X<X:X:X].G.2.C c c y v v c c c c c c V V V V c y u q ; 6 q y y y b C G H ! X.+.s.f.f.s.G.M.f.d.d.m.M.d.r.-.<XsXyX:XC.s.s.m.d.M.G.N.Z.A.}.9X,X;XE.F.c.F.z.:.J H b a i l Y a.p.J.{.:XJ.J.J.J.G.{.{.U.=XG.[.[.H.{.{.+XJ.S.C.M.G.Z.G.K.G.+X=XtXwX4XaX).(.aXyXNXuXAXZXfXGX",
"NX:X:X<X4XaXzXGXHXHXAXNXMX,X>X+X[.C.d.G.Z.{.1 : e - q ; - ; % % * + 5 2 = e s A ! _ <.' %.' #.%.2.2.j.j.f.i.f.f.M.s.9.g.+.+.i.+.+.h 5 S _ X.3.a.J.F.-XaXjXcXhXhXcXhX7X5X^.I.h.x.z.~.1Xn.$.7.k.J.:X{.s.| _ 2 6 % q 6 2 b H 5.<.1.! %.A Q W Q R S j S ~ +.V.f.i.j.V.e._ H Z c V c c V V V V Z P L ,.P K L Z J J J J C V u q t u u g b h n b m ~ W j U Q W W N S a i d i.yXnXdXwXtX<XF.f.i.+.o.+.9.r.r.[.|.8X@XtX<X0X:X4Xc.1.] Q k l h 2.p.f.{.:X:X:X=X+X:X>X{.{.S.+X[.].}.N.G.Z.G.[.[.'.Z.m.f.f.g.2.X.2.d.+X,X1X^.+XM.m.C.@XSXSXPX",
"i.+...+.-XiXsXdXNXNXNXsX{.J.K.K.i.r.+.+.i.s.i.E A g b q u > > - : 2 2 2 2 2 w d D X.p.2.2.' ' 2.&.X. .+.2.p.M.i.9.9.+.@._ | _ p < s h _ %.x.;X7X(.jXxXaXjXzXKXKXUXxXLXUXLXhX).).L.L.Q.).hXjXxXzX5X=XK.p.k.y 6 - 7 q 6 C ) <.1.1.H ` J n g f h A A h m m m S S E R A E z.n.8.,.I L I ,.I L ,.8.8.,.,.6.Q.7.x.x.b.1.#.H J C J L $.4.a.z.z.c.c.K.c.2._ E A w h d d g E S.G.yX$XtXtX>X=X~.c.%.' ) ) ) ( ( ` r.d.G.J.H.@X9XJ.%.%.% x S Q X.i.{.{. X|.:X@X@X{.#X:X#X@X|.|.[.M.G.H.A.N.M.s.C.H.F.c.-.+.2.+.-.X.-.g.<.' | X.X.X.+.s.H.M.",
"i.J.iXGXfXHXJXHXZXSXtXf._ E _ W ~ ` ` &.f.S.S.g.i.p.%.' H C y c u > u 6 q r r w h Q +.g.g.+.<.%.%.2.X.X.| ` ..X.| _ _ | | | X._ 9 s _ <.x.7XjXxXxX6XaXaXzXPXPXKXUXUXKXKXLXxXcXhX_.`.`.hXcXxXGXGXGXfXfX,Xc.G q : ; u ; q C $.%.h.2.G J S S S h d a a s g a g d B F 2.U.,X5X1X!.P.!./.^.7X;X;X,Xp.P.n.P.4.F.U.J.J.z.<.] ! E | f.M.m.m.B.N.vXuX9X:X{.f.i.2.&.+. .g.f.g.:X0X,X,X,X-X/.6.8.,.>.8.8.,.I I L L ,.1.z.4.a.M.M.+.! 3 % @ w X.2.w.9.M.].].}.}.}.[. X].}.}.}.H.G.{.H.f.K.f.p.2.+.i.f.i.f.i.i.&.X.X.+.l.^.( A S _ ;.X.+.+.+.",
"2.-.f.C.+.i.f.S.S.g.2.] ( ( ( ( ! ( ( ' 2.f.S.S.S.S.f.&.+.X.] ( H H C C b y y e r A ! X.2.2.&.2.i.+...{ | _ |  .` ` 2.+.| | +.i.@._ _ v.I.pXCXzXaXaXaXzXHXJXKXKXUXUXUXIXUXLXxXcXcXcXhXhXxXxXGXLXzXLXGXGXfX;Xp.n r > q ; q $.<.c.g.X.` R Q O.M.s.s.+.+...( ( X.l.F.~.~.=X;X2X;X5X,X,X,XiXgXsXsXiX~.F.J.S.{.M.S.[.J.F.S._ A = 2 s h N _ } r.@X%XtX8X{.:X{.J.J.J.J.>XiXZXJXHXKXLXUXxXcXhX)._.hX).hX).`._._.).Q.Q.Q.P.P.7.5.H 2 7 r F | i.i.9.9.s.B.Z.Z.].[.$X#X[.}.[.H.S.{.{.H.{.S.f.S.i.s.r.i.i.i.+... .+.-.i.;X( e = @ = * < 9 E ",
"p k N S _ ..X.2.X.E w r g f g y n n ) ) ] X.+.f.g.2.+.+.X.@.+.+.+.w.2.2.' ) H Z A A !  .+.+.-.O.| | | | ..| ~ | +.| | +.i.s.s.f.g.+.2.J.=XsXdXfXfXfXsXtXtXdXNXBXsXZXAXBXJXPXIXUXUXUXUXKXKXKXLXKXLXKXLXGXLXHXZX>Xf.] t 1 - 2 b ] a.p.&.2.X.M.#X#X'.A.A.'.Z.G.{.=X,X,X;X,XiXaXaX5XiXpXiX5XgXdXMXHXLXgX2.f.{.H.{.N.d.C.=Xc.F 2 4 p 9 9 N s R } 0.uXuXsXsXsXfXaXzXLXLXLXLXLXUXLXLXUXUXUXUXLXUXUXUXLXxXxXxXcXxXLXLXHXzXxXhX7X(.n.7.4.] _ | +.i.g.Z.M.C.H.{.[.{.[.Z.G.f.r.+.-.i.r.-.i.f.K.g...X.| E S W _ | X...+...D A s i 5 w w 3 4 ",
"p p i h h g e 1 d * @   . 2 A D H b H ) ` X. .X.+.+.X.X.+.i.f.f.f.S.K.K.K.S.p.2.i.+.O.+.+...| } } Q Q W { +.i.s.i.i.i.i.s.m.m.y.9.X.S.J.{.tXyXaXtXdXyXH.S.S.S.[.H.:X0XsXHXJXdXSXmXAXDXPXPXJXHXKXKXJXHXJXJXAXSXZXZXgX=X&.g ; q t b b G ! ` M.#X.X'.'.'.A.'.'.%XeXqXuXuX:X9XsXfXfXfXgXiXfXHXZXmXNXNX+XX.a.f.f.f.j.K.{.{.=Xc.J a d N S s _ 2.S.=X,XgXzXGXUXLXUXLXxXUXUXLXLXLXUXUXUXUXKXIXGXUXUXPXIXHXJXKXKXAX#XB.'.bXJXLXZXfXfX2X5X^.2.;.` ..| ..i.i.9.M.9.U l 3 = * O = < w k _ | _ Q h s i e d d l N j j s k R | F n a r r i g s ",
"t t g h / _  ./ i . < = + # .   + d ] X.` ` X.X.X.X.E +.M.=X{.0X,X0XiXsX9X:X{.H.].{.G.i...W { W { | +.i.M.f.V.M. XH.G.K.C.M.y.9.k Y K.=X{.G.J.J.J.i.+.X.+.+.i.d.M.C.Z.:X@X9X[.[.].+X@XtX8X0XsXZXzX,XsXdXsXyX>XtXtX8XqX9XJ._ b y v u y y b 9.%X%X%X.XA.]..X}.}..X#X$X}.|.}.'.#X8X9X=X=X,X>X:X:XH.f.p.D.-X2X2X5X7X7X6X~.aX,XD.3.W +.| i.H.:XwXdXGXGXLXUXUXUXUXUXLXxXxXUXKXLXUXHXMXPXZXHXMXHXHXZXmXnXBXMXnXnXvXBXVXDXnXtXiXtXiXsXsXiX1XQ.x.6.>.' >.%._ _ h w - = - ; 6 g _ %.3.2.F n g h l l j T R j m U j Q | i.3.%.<.` G C C b g ",
"4.1.1.] ` s.m.R +   2 @ 1 2 2 1 @ : = @ 2 g g 2 6 b 3.Y.rXfXgXaXfXzXjXfXfXsXrX,X4XtXtX>X{.C.M.d.f.K.H.H.{.{.:X{.{.@X:X{.H.[.0Xl T 9.K.{.{.H.F.{.J.M.i.-.| ` ` +.i.-.i.C.@X:XH.M.M.K.S.H.H.K.J.J.J.c.M.f.f.s.g.s.s.C.d.C.M.S.2.] H C c y y r.}.%X.X#X}.'.}.&X#X'.u.t.u.B.#X%X%X}.'.g.f.s.+._ d 4 4 S h.P.1X;XiXfXfXiX-XF.-.S g h ~ r.d.M.f.f.f.a.c.-XzX0XIXLXIXUXIXKXKXJXJXJXJXZXmXBXNXsXmXyXyX0XtX9X8X:X@X[.H.#X:X0XgXaXfXgXiX0X5X1X(.(.!.P.P.z.h.z.3.#.) ( ' X.4.v.F.J.oX,X,XJ.p.@.R k k S ~ | X.2.i.p.a.p.3.a.h.7.x.7.z.z.b.b.",
"jXpX1XF.a.M.r.9 . # = - = + : + - % 1 2 = t b J 7.6XLXUXIXIXUXUXUXUXUXUXUXKXLXGXGXLXGXfXsXiXrX0X:X:X>X0X0XiXsXsX+X+X{.:X|.Z.[.C.O.t.{.:X}.H.+X+XC.p.+.` ~ ~ _ ` | +.p.f.f.i.f.M.f.oXJ.J.J.S.f.g.2.+.` ..` X.' X.` ` _ X.X.X.2.X.` F n b D d.N.'.}.A.'.$X$X%X.X&X.X.X}.#X$X&X%X}.N.f.2.+.| N O O o p t 6.6.1.z.I.F.z.' C b r 2 2 1 1 2 2 - 2 7 G >.4.K. XBXHXJXPXHXPXHXMX0XMX0X:X+X+X=X+X|.}.@X#X8X$X#X$X%X$X9XyXvXnXAXZXGXGXZXgXaX7X1X1X1X;X,XaXaX-X^.!.7.1.>.>.1.4.D.=XiXsX:X{.K.i.X...` ' X.2.l.C.M.G.K.E.~.4X;X;X^.5X6XiXfXaX",
"MXHXdX>X=X+.i - : 1 r r r r 2 - + = = X r $.7.^.jXKXIXIXIXIXIXUXUXIXIXUXIXIXIXUXKXUXKXGXMXfXsXyX:X{.>X:X:X0XsXfXMXsXtXZ.B.s.r.O.M.r.H.G.}.].M.s.X.` _ _ X.2.g.g.i.i.i.i.9.+.i.i.f.M.f.i.s.g.2.X.+.+.X.` ` ] ' ` ` ..` ] ( ] _ ` ` ` _ ! E ..s.B.t.| o.B.'..X&X*XqXvX%X}.A.B.m.t.M.r.2.2._ A O o o r #.,.,.L ,.,.,.L K C V y u y t q u q q t t y A G 3.i.2.i.p.2.2.+.2.+.i.M.V.M.f.M.S.H.|.}.[.'.'.'.#X}.$XqX%X%X$XqXBXAXHXJXPXGXfXaXfXfXgXiXgXiXgXfXfXaX6X;X(.Q.7.8.,.7.h.p.i.i.+.d.f.i.i.f.M.C.C.[.'.}.[.H.-XfXMXdXdXsXZXHXZXmX",
"mXBXNXyX:Xp.y q 2 2 2 3 2 ; 2 : = : - - 3.v.F.iXMXSXDXSXZXZXHXHXHXMXZXZXMXAXmX0X>X+X{.[.[.G.'.M.s.+.r.s.M.m.d.Z.[.:X9X#X@X#XZ.Z.].C.s.d.M.s.i.X.X.X.%.2.+.i.i.i.i.i.i.i.+.+.o.+.+.| ..| | ` ] ( ( ] _ _ ( ( _ _ | _ _ _ ` _ _ _ | _ | _ | _ o.t.m.c.f.i.A.}..X%X%X%X'.'.'.'.u.d.f.-.f.X.S s @ O o D 1.6.>.8.8.>.,.6.7.$.>.,.,.>.>.L L ,.P.7XhXxXxXxX7X4.$.' ' ' ( H H J G ! _ ! ) X.+.+.+.o.Z.9.+.r.+.r.t.B.u.s.s.i.i.r.s.s.s.J.,XiXCXsX:XK.S.~.=X0X0XsXSXBXMXsXgX1X(./.P.P.!.F.c.c.f.j.j.c.c.f.K.H.{.Z.M.M.M.H.9X8XyXmX0X:XdXSX",
"tXyXNXdX=Xn 6 q q ; 2 6 2 6 6 6 6 6 c H j.J.J.fXHXMXsXgXiXiX,X,X=XH.[.{. X:X:X}.S.H.M.M.s.B.m.d.i.+.| ....+.+.+.+.+.G.@X[.#XqXmXbX8X9X{.+.2.' a.F.J.~.D.f.f.f.M.d.s.f.i.i.s.+.+.+.| _ _ ! ( J J J ( ( %.2.2.p.i.+.+.X.X. .` | | | W / Q W | 9.M.C.G.S.d.9.t.N..X}.A.B.B.q.0.O.y.+.+.+.R S d < O s x.P.!.^.;X1X4XlXKXPXIXIXIXUXUXUXLXLXLXIXIXUXUXIXUXIXUXzXaX6X6X6X!.F.P.4.b.P.x.n.b.z.3.3.2.2.i.i.<.<.p.C.C.C.i.' G b b A _ ' ] <.p.S.=X=Xf.i.i.i.g.i.i.s.C.G. X:XsXMXHXfX6X-X^.v.H 4.h.n.7.1.7.L.7.7.!.;X2XU.J.J.{.sXZXKXj.=X+X",
"+X,XtX:Xc.F H G H H C b b b G C b C ) 1.F.F.~.gXfX,XD.S.S.f.f.i.+...| o.o.9.d.s.r.0.9.9.9.r.r.W 2 7 r r i a r 4 d E | +.9.i.s.m.{.}.].i./ F n.5XfXsXMXGXfXdXtXqXyXZXiXG.0X0X:X:X@X{.G.C.J.H.j.g.i.i.f.S.S.K.C.M.9.9.+.X.....| o...| ..+.i.f.K.d.d.{.[.'.r.M.B.u.'.N.t.s.0.t.'.Z.s.i.+./ N j 4 4 a.g.S.D.=X@X>XyXqXVXVXvXbXPXIXPXHXHXPXIXIXIXPXIXIXIXIXPXPXJXGXGXGXZXZXfXfXGXMXfXZXGXGXfXHXKXHXJXGXGXGXZXnXyX0X;X^./.!.P.Q.b.>.$.H G E ] _ X.+.2.+.g.2. .X.X.&.p.g.s.d.Z.{.{.K.F.) 1.$.Z L 8.8.L._._.).hXaXjXGXmXMXsXtX0XnXAXHXsX",
"ZXiXgXfX~.z.4.4.1.<.1.$.$.$.#.#.1.7.P.(.2X,X+XHXzXxX1X4.F o o     p | j O   o < = @ - + % # 2 2.n.5.z.<.' ( A a e a N S W | ..| | +.{ Q ] ] iXlXHXIXHXHXAXyX8X8XAXIXM.N.t.yXtX:X:XmXSXAXAXnX0X8X0XtX0X,X:X,X,X=XJ.J.S.g.i.+.+.+.+.i.f.K.J.J.,X,X:X:XnX%XC.d.t.r.0.0.9.9.m.}.'.0.W R s R j h W T 0.0.0.M.G.G.M.M.t.B.].G.Z.H.H.oXH.@Xs.|.}.mXNXDXNXSXSXSXBXNXHXmXNXmXmXSXmXmXmXBXSXDXDXSXDXDXbXPXIXIXPXPXPXPXHXLXLXLXKXPXPXIXPXGX~.5.] G G D R A A E | ....+.+.2.i.i.w.i.s.f.4.J >.K L ,.L.(.7X7XaXlXJXPXAXSXDXDXSXbXyXuXqXyXZXGX",
"ZXGXGXKXlXxXzXgXaX^.F.!.(.^.5XiXjXjXxXfXbX.X*XVXPXPXiXJ.1                 o @ < : - ; t :.5XIXIXIXIXJXfXZXiX=Xc.<.] ( E A A G b A S h J H ~.fXgXNXHXwXmX0XqXnXNXNX[.9X[.M.m.>XmXmXPXAXsX0X8X9XyXmXmXiXfXMXMXMXiX,X<X,X,XiX;Xj.S.z.7.h.F.iXiXiXdXsXMXnX9X8X}.Z.m.m.m.A.N.M.l 4 5 < = = = 4 @ 3 9 p p l p U [ W _ W W W W W W | |  .o.w.s.s.s.M.{.0XsXsXnXbXmXmXyXyXwXdXsXdXvXbXBXBXBXBXBXvXuX$X9XNXAXPXPXPXPXPXJXAXAXDXnXvXvXBXHXCXCX4XE.c.S.f.i.2.+.+.X.W R 9 4 k S _ ! G C L L.Q._._.).hXxXHXHXSXSXBXDXSXmXBXBXBXBXmXqXvXyXvXmX",
"8X0X9XqXyXmXNXBXPXPXHXjXUXHXPXnXHXjXjXGXqX.X*XqXsXdXdXfX@               + = 3 s ( <.a.c.>XnXBXDXDXFXIXPXPXNXMXgXfX,Xa.G y C n ( A G A H 7.aXGXHXMXAXdXMX9XqXmXrXM.s.Z.{.M.uXAX0XNXyXyXwX9X8X9X8X8X:X,X:XJ.V.f.f.S.,XwXdXsXJ.f.U.x.8.n.~.MXHXPXPXPXHXNXNXyXnXqX#Xm.B.0.s.4 5 5 3 9 i h R Q A e C t t C Z J y y a i p s h N Q Q R S A S E E _ | +.i.H.:X9X@XwX0X0XwX0X9X9XuXyXyXuXwXvXbXvXvXuXuXuXnXmXNXmXNXAXBXmXuXuXqX$X$XuXvXmXZXZXMXfXiX,X,X~.~.F.D.l.X.E l s ( ( J J 8.Q.`.hX7XjXLXHXJXPXAXmXSXmXmXmXgXMXnXqXuXvXuXuXqXqXqX#X",
"$X8X9X9X9XyXyXtXtXqXuXdXMXHXNXtXsX;X;Xj.S.].@X0X:XsXMXKXW             = < 3 i X.S.S.~.{.8X|.#X$XbXBXmXSXDXDXPXPXPXPXHXv.Z ( X.' ( ! H #.1XfXPXJXPXyX>XG.Z.B.t.t.Z.@XtXwXAXNXvXqXBXBXuXqXqX8X|.].B.9.o.O.O...i.H.tXHXnXsXG.+.a.6.6.x./.iXHXAXPXAXNXPXnXJXPXPXqX}.d.0.s.p < 4 p p l j Q S R ( F /.zXLXGXzXxX7XhXzXf.h < < * @ @ < 4 l N W / W W +.+...o.o.9.&.2.f.{.@X8XwXwXsXsXwX>X9XqX$X8X9X8XuXqXnXnXBXmXBXBXNXyXyX0XyXvXuXvXvXnXsXAXMXZXMXZXfX5X;X;X~.~.F.F.v.-X5XaXzXLXGXzXfXfXmXnXAXPXPXAXSXZXmXnXnXdXwXeX%X8X8X9X8XqX%X%X$X",
"uX8XqXqX%XwXyXyXwXqXqX%X}.uX8X:XsXJ.a.3.2.+.9.+.g.V.K.J.k             w d B E K.-X,XH.G.m.s.N.}.$XvXqXBXDXDXPXPXPXPXAXKX5X] >.1.) 1.' (.iXMXNXHXnXnX:XZ.[.:XuXmXDXDXNXnXyX}.#X$XZ.'.}.qXVXqX].N.M.C.G.M.G.C.H.8XuX0XoXj.4 _ 4.7.6.1X-XgXHXPXAXMXAXHXHXMXHXBXqXeX}.V.o.< i p p s N S S f t C F F.@XqXBXPXIXAXPXIXHXG.s 5 < @ @ @ O O O o o o x p j Q R Q Q E ~  .X.i.f.S.V.@X8XwXyXwXwX@X|.|.$XqX0XwXyXnXnXnXmXmXmXdXbXuXqXvXbXnXMXBXNXMXMXNXZXZXGXlXiX-XiXgX5X-X5XsX0X8X8X0XsXiXyXAXZXMXdXMXHXAXmXZXmXuX$X%X#X%X8X9X0XyXuX%XqXuX",
"bXmXqX9X$XyX>X,XtXiX0X0X8Xd.f.M.H.f.X.] _ +.| E E F ( _ @           o s F S f.=XfXdXwXZ.s.f.s.9.t.A.uXvX}.vXqXvXDXPXIXDXIX6XK Z >.J /.aXsXsX@X|.$X{.8XuXNXPXIXPXDXVXVX[.}.bXbXvX}.Z.}.}.}..X|.mXSXsX0XyX0XwXwXqX8XG.g.o k <.6.8.!.^.iXsXNXPXAXNXSXBXHXSXbXVXVXVXqX|.5 s p w 9 l k S W Q S D ] J.H.m.q.A..X*XSXJXNXsX} 4 @ O o o o o o O o o o o o o o o @ < < 4 g A E ~ | 9.d.}.|.Z.}.}.|.eX#X#XZ.Z.Z.[.:X:XtX0X0X8XqXqXuXqXqXyXsXmXsXMXdXsXmXsXyX>X0XfXMXsXtX+Xf.K.g.X.<.X.%.&.M. XvXsXyXtXfXZXfXgXrXdXdXsXtXuXwXyXnXnXBXBXmXmX",
"uXqXqX%X$X9XuXyXsXqX$X].d.i.+._ _ ' <.' &.g.g.2.X.' ) `             @ s _ ` +.M.<XsXdXiX:XqXyX:Xd.r.t.A.}.}.#X}.|.|.tXbXDXAX7XQ._.Q.5XgXnX0X8X|.G.[.9XNXAXBXBXBXbXbXnXdXwXvXeX}.N.m.m.t.t.#XSXPXPXHXyXwXyXyX9X8X Xp.o @ ` ) 6.b.5X<XyXmXvXHXHXMXyXBXSXBXbXqXbXvXeXo.z 4 4 p k T } W 9.} Q -.+.G.Z.'.}..XXX$XvXbXBXNX[.T < O O O o o o + o o o o o o o o o o @ 2 r g b C %.f.oX{.+X@X@X@X@X{.}.Z.M.M.M.m.M.{.@X9X8X$XeX8XqXqXwXwX0XsXsX>X{.@X:XwXH.G.{.{.G.H.#Xd...` ` ! J H H J ( _ ~ ..r.9.9.s.S.[.:X8XqXwXyXsXmXbXBXmXBXbXmXyX",
"nXyXuXbXuXvXyXuX9X|.Z.t.| _ ( ] ' 4.2.i.X.+.| | X.X.%.S   $   o O   @ R 2.2.M.d.#XmXfXaX0X'.M.G.d.9.o.| o.o.s.f.f.f.H.%X.X'.,X6Xv.1X,X@X8X#XZ.[.@XyXmXNXvXqX}.}.}.%XmX+Xm.Z.B.B.N.G.0X].@XmXPXDXHXMXnXmXyX{.H.N.G.$ % N ] ) 1.~.iX,XyXmXmXsXMXmXuXyXvXbXVXvX%XN.].p 4 s j R T R [ } o.t.} +.9.m.M.N.N.'.u.'.%XqXBXSX9XZ.p @ O O O o o o o o o o o o o o o O = 2 2 e ! H ) p.V.K.{.:X{.G.=X:XZ.N.M.s.s.f.C.G.[.@X@X#X@X@XqXeXeX8X|.|.{.M.d.i.9.+./ W >XdXSXmXbXZ.| X.] ! D F G G G G G G H J ! _ +.s.d.m.].$X8X8X0XuXvXvXBXnXBXmX",
"0XyX9X:X[.[.{.{.M.0.s.O.| / ;.) ] %.+.2.+.i.i.X.X.%.D # + O o O o     W X.g.J.{.m.'.|.{.g.M.g...+.+.` ( _ +.+...+.s.d.N.q.N.>XfX1X3.K.C.Z.tXSXPXIXPXPXNXBXvXvXqX%X%XN.N.t.t.u.N.Z.m.m.M.G.@X:X8X:X8X:X].d.w.w.w.< . r A 1.6.z.D.{.:XwXqXuX9X0X0XwXvXqX$XqX$X X}.j p U T T [ R [ } o.[ r.O.d.d.m.d.s.0.0.u.u.t.&XBXuXAXiXO.< @ + O O O # o o o o o o o = ; 2 q 2 2 6 6 6 2 3 a d j W _ @.+.w.i.i.+.p.i.S.S.M.H.{.[.{.@X@X@X}.}.].N.Z.V.J.F.2.X.3 d =XqX$X$X}.m.+.S r 2 # + < 2 2 2 7 a A G C G H H ( ` +.i.9.o.0.9.s.[.|.qX9X9XsX",
"+.i.9.+.2.2.+._ | | / ....| @.' #.a.2.i.l < o   o + % : = @ @ o o .   -.2.g.:X9XZ.0.0.t.@X#XH.[.{.H.C.M.f.i.f.[.:XwX{.i.9.t.H.J.I.E f.Z.|.yXAXPXIXIXIXAXAXDXbX}.qX}.#X8X}.].'.Z.N.m.s.s.m.G.H.}.M.f.f.f.i.i.D % 1 e y >.Q.P.4.f.K.M.B.B.$X8X|.|.eX}.N.t.N.'.G.} z s T R R [ [ [ [ } [ 9.t.m.N.m.d.s.s.s.t.s.t.u.}.BXSXAXH.i = + @ O O + = 2 t A ) H ) ) H C g b y u u q 6 2 1 : - 2 = = = < e n F _ `  .X.&.i.e.s.s.f.V.C.H.G.M.i.+._ A f r 2 r ~ +.w.9.s.+.| ` ( G C u 6 q 6 6 6 ; 6 3 1 2 b C Z H H J ! ! ! ! ! ( ! _ | +.+.+.",
"_ | @. .` ` _ E _ _ | ..i.i.| E w O       . o o . O = - 1 - 1 + = +   _ S.S.0XBXPXNX0X+X].'.N.9.9.0.m.#X8X0X[.M.M.s.i.2.-.-.&.2.3.n ! M.V.].$XqXvXyXnXmXmX%X$X'.u.B.0.0.0.m.Z.G.].M.M.S.M.f.f.M.f.%.`  .%.1 2 t C C H 7.(.!.b.i.+.@.+.0.0.s.M.].Z.s.s.d.m.d.[ z p p T [ [ } [ T o.[ Q O.t.'.'.0.9.t.9.t.t.d.M.B.u.}.SXyX@X| 5 = + = :.>.>.7.n.n.n.^.5X;X;X!.!.b.x.7.5.] G b t q q q r q 6 6 2 2 1 1 - = = - = - < 1 2 2 w 4 2 < = 3 0 r g J >.z.3.3.;.] h.4.z.6X1XQ.7.,.L J Z Z c u u q q r q 6 2 q g C G J H H H H J ( ( ! _ ~ ",
"d S E _ ` | | _ R p < $ o o $ . o # o . O O . @ + @ = 2 6 2 + : % + O S c.J.#XqX#XqX|.H.Q Q E ~ | g.@XuXqX#X}.s.i.&.+.+.+.+.! G J c t G ` +.r.t.N.[.8X%X$X}.B.t.u.u.s.s.i.9.9.i.s.s.g.i.+.-.+.+.X.! e 7 6 2 g J c C P.3X6X1X~.E.S.j.2.O.o.+.i.9.0.t.t.s.s.[ 4 p i l U R [ } o.} [ } [ m.A.'.'.B.B.d.B.t.B.s.s.t.B.B.'.8XyXC.s < @ 4.I.!.^.,XdXPXPXPXNXfXfXsXfX5X;X(.(./.b.7.>.J $.J J J ) ) #.] ] ] ( ) G G A C C C G G F ' 2.c.5.z.b.z.n.P./.^.;X5X6X6XaXjXzXfXzXjX7X).Q.(.Q.L.>.L L K Z V c y r 2 = : : - 2 2 w r 7 7 2 1 7 i ",
"$ o . o   .     . . . . X + ; 6 q q q q q u u u ; : ; ; 6 ; > > 6 - + 2  .c.O.+.o.9.].}.C.;._ _ ..C.}.}.&X%X#XZ.g.-.i.+.$.) F F F f S S E ' +.+.i.Z.#X$X$X.X.X}.}.}.'.M.m.s.d.d.M.].M.f.` D m 7 - : = q G H C P I C P.;X6X1X;X=X:X:X}.{.M.f.9.+.r.d.s.s.U z 4 4 s l k Q [ [ [ o.9.o.T Z.'.u.'..X'.N.B.B.d.t.r.s.s.Z.A.%XnX:X} 4 5 h.!.zXpXfXHXPXAXAXPXPXJXMXMXfXGXzXaXfXfX5X^.n.!.P.P.b.P.b./.!.!.P.7.7.x./.!.!.!.b.~.^.=X<XgXiXgXfX5X5X1X6XaXaXzXfXfXzXlXzXGXzXzXxXzXxXhX7X).(.L.7.,.,.>.>.$.L K Z y u q q 6 2 - + + # . o .   ",
"2 = % : : = = 2 2 q u y y C Z Z C C C u J V V I K V , , , , v u q 6 2 q 2 f 2.&.f.M.t.}.$X+XH.[.C.| 9.s.Z.|.}.G.M.g.p.<.C G E _ _ e E g.X.+.+.X.X.r.r.i.s.B.[.].Z.}.#X#X].Z.M.s.d.S.f.E % % + X - u V Z >.,.C L.L.L C ,.-X6X-X5X=X+X:X|.#X}.[.G.d.9.o.< 5 4 9 p 4 s l T U [ T T o.o.Q d.m.u.B.B.B.B.t.9.9.t.t.s.d.B.Z.}.nX#Xd.p 5 J.fXMXGXMXMXJXAXPXAXAXAXAXMXsXMXdXGXZXsX,X1X1X(.2XpXaXzXjXfXfXaXaX6XaXaXaXgXZXZXGXMXMXfXMXMXBXAXHXGXMXGXGXHXZXGXGXGXKXKXLXJXJXHXHXGXGXzXGXaXaXaX7X/.7.7.n.x.7.5.5.5.:.#.' ' J H C y u u r q q ",
"5.5.) Z J ] ) ' ' 5.n.F.~.~.5XaXfXzXxXxXaX7X(.(._.(.Q.Q.Q.V , u , u u > q ; 6 ) +.+.+.0.t.M.}.[.G.f.+.@.+.+.i.i.X.r r F H ] ' i.' J ] ( ] | &.%.' X.X.+.+.9.9.M.$X9X}.Z.M.i.i.X.~ n 6 g : 2 q C c y L P ,.L v L.L._._.P K 6.Y.=X=XS.H.#X$X}.@XZ.s.j < @ 4 4 4 p p z p k U U l U R W | t.m.B.s.0.t.t.m.m.d.d.m.s.s.s.t.[.vX%X{.k 5 oXMXJXPXIXHXZXZXZXHXPXDXAXZXMXMXBXnX0XyXsX,X~.-X,XiXdXsXmXNXNXNXAXZXNXmXmXmXNXNXBXBXPXHXNXBXyXnXyXMXAXZXmXNXnXyX9XdXMXMXfXdXZXAXHXJXHXMXZXHXJXHXMXiX(.x.I.~.^.-X~.F.!.b.z.b.c.b.b.7.6.5.7.6.6.",
",X;Xa.4.v.v.h.c.c.J.=X,X0XwXyXBXBXDXPXPXJXKXPXPXPXUXGXzXzXxX)._., V c V V u ; ; e ! ) ` ` ^ | +.2.&.2.i.+.` _ N f g ) $.J H 5.5.H J $.H J b 2 ; 2 3 .._ +.i.M.].G. X0.X.` %.<.5.>.K 6 q q y Z >.Q./.Q.).)._.).).).).)._._.L.>.) 1.h.S.M.@X}.H.| @ O @ @ < 5 4 4 s s p W } T k U S ] f.m.s.Z.M.t.t.m.B.s.B.m.M.M.s.s.f.M.#X'.N.T 4 <XwXAXuXbXIXIXKXGXGXAXPXPXZXZXmXwXyXqX@X9X,X-X=X:X:XsXnXuXyXNXMXGXlXfXZXdXuXuXuXuXBXNXHXnXnXnX0X9XsXwXMXsXuXuXyXyXsXsX0XtXiXsXiXyXwX0XsX,X0XsXyXnXdX5X^.;X-X=X=X=X=X-X~.F.F.J.J.J.U.U.~.5X;XiX",
"uXsXiX;X~.!.!.F.^.E.-X,X:XsXyXuXvXdXZXAXHXHXAXSXSXPXPXJXKXLXzXxXxXxXhX(.7.J C u ; 6 ; 6 H H A D H ( X._ X.%.2.2.4.#.<.$.L $.5.7.8.5.#.1.K C c q 2 - @ r ( 2.2.i.+.E ] 7.P.n.P.P.Q.(.).7X6X7X7XaXLXGXxXxXaXjXGXGXLXxXhX).hXaXLX6X$.> g _ ` E 7 @ O @ @ * * * 4 9 p s p s l Q j R -.M.Z.m.B.m.M.s.s.t.t.t.u.A.A.'.Z.M.M.Z.'.}.[.o.4  XHXIXVXVXvXIXPXPXHXHXNXGXMXNXNXsXwX:X9X0XwXtX,XtX>XwXyX0X9XsXnXMXMXMX0XMXdXyXyXsXwXMXdXsXyXuX0X0X8X@X:X>XyXwX0XyXyXsXfXMXMXsXwX@X:X8X,X=XwX:X:XwXnXgX;X-X=X{.+X@X,X4X4X;X;X~.H.S.D.F.E.:X>XwX",
"yXfXfXtXsXtXiX,X2X2X,XiX0XtXsXNXmXyXMXZXMXMXNXBXBXNXHXMXAXHXKXHXUXJXJXLXaX(.,.P c u q - % 2 q C H g g A ) ) $.#.<.>.8.,.7.Q.(./.).aXaX).Q.,.J C C y q 6 6 G F F ( >.,.L.Q.(.7XxXLXKXUXJXKXHXKXZXDXDXDXmXAXSXDXBXDXPXJXHXJXAXIXPXLXxX) ; q r e - @ * @ * 5 < 5 9 s p s p f G J <.M.'.m.B.B.m.m.s.t.B.B.N.N.N.'.'.[.H.M.B.u.u.#Xd.z t.wXPXFXFXVXPXIXPXHXMXMXdXMXnXvXqX0X0XyXmXfXiXsX>X0X@X[.{.<X:X0X0X0X>X0X9XtXyXsXdXsX0XwXwXwXnXfXsX9X@X{.+X:X0X8X9X9X8XsXdXmX0XuX0X8X$X:X{.@X+X@X>X:X>X;X-X,X>XtX0XsXiXiX,X;X:X:X:X=X=X>X:X,X9X",
"MXZXgXfXfXdXsXiX;X,X,X5XsXsXdXdXZXMXGXAXBXyXyXmXmXNXMXMXsXmXdXdXGXHXHXLXKXLX7XL.L.L K V > ; : - > 2 t C J I V L I I L.Q.hXhXxXzXzXzXGXzXzXxX).7.I ,.) Z Z J $.I ,.L.7XxXLXKXPXIXIXIXPXKXJXHXPXPXDXNXmX8XyXnXBXNXNXHXAXNXDXbXDXBX:X0XOXJ b A ~ 2 @ O @ @ < 5 5 4 9 p h D / | s.9.C.Z.].[.Z.A.N.m.B.B.u.t.B.N.Z.m.m.m.B.0.u.u.}.Z.l z eX.X*X*XFXSXPXPXDXDXmXMXsXyXeX8XuXvXmXmXmXdXrX:X{.].G.{.{.:X@X+X{.=X>X,XsXwXwXsXsX0XyXsXsXdXdXsX8X>X:X=X:X@X9XdXtX0X9XtX|.|. X8X:X{.{.S.M.{.{.:X0X0X:XJ.iXsXfXgXgXdXsXsXiXpXfXaX5XiX=XsXmXZX",
"sXmXMXMXZXfXfXfXiX5X5XaXfXMXMXmXMXHXMXsXnXnXNXSXSXmXNXsX0X|.uXsX0XdXsXHXgXfXxX7XhX_.Q.7.>.C % 6 > ; C L L.L.,.8.Q.hX).hXhXxXaXGXHXJX:XJXPXKXLXxX).L.8.,.L I ,.Q.(.6XGXLXLXUXLXLXKXLXLXxXxXGXLXAXDXPXNXnX8XqX@X9X8XyXMXsX9X9XqXqXwX Xf.#.( _ m % @ @ + @ 5 5 4 9 p i j R ..+.9.r.d.[.@X9X:XS.S.g.r.t.t.t.t.t.B.N.Z.Z.B.t.A.[.}.Z.R x H.[.q.BXDXBXIXHXHXAXZXMXsXwX0XuXqXwXyXmXyXtX:X+X[.G.G.H.G.[.}.[.H.:X,X0XsX0X{.:XtXiXyXmXmXdXnXyX8X0X0XsXsX9X>X$X0X0X[.m.m.m.M.M.[.:X+XH.f.d.G.{.>XsXsXgXfXMXMXsXdXmXdXfXfXfXfXsXgXiXiXdXMXMX",
"sXyXAXZXNXMXMXzXGXzXaXlXdXMXsXMXMXMXdXtXvXmXsXyXyXBXyXuX@X0XwX@X[.].$XBXnXuXZX,X6X6X7XQ.L.L ; - - , Z ,.L.L.(.aXzXjXxXxXxXzXGXGXHXPXSXPXPXHXHXNX7XQ.L.,.,.7./.7XaXaXfXfXKXKXLXzXzXLXzXLXzXKXMXmXNXBXNX0X:X{.:X@XwXG.H.M.o.9.N.|. XN.i.D ! l 4 + * @ + < * = 4 s k s k T 9.r.9.s.+.M.G.:X>X,X4X,X,X:X:X[.].].[.}.}.].Z.[.}.$XqX$X[ = o.u.q.XX*XVXVXBXSXnXnXsXyXwXwXwXuXnXnXsX0X>X{.{.H.G.H.S.@X+XG.Z.{.{.oX>XG.[.].G.H.8XqXsXnXNXnXyXqX0X0X0XiX0XtX8X0X9X@X#X].G.J.K.G.m.H.H.>XuXuXyXyXuXtXsXdXsXdXmX0XyXsXsXMXfXiXtXiX0X:X0XtXsX",
"sXsXmXsXmXsXfXfXMXfXfXgX0XdXwXsXdXdXdXsX8X8X9X:X|.8X@X@X#X#X{.+X+XZ.}.}.%X%XqXyX,XaXaX/.P.Z > ; t J _.).1XhX5XGXaXaXzXzX4XLXHXAXMXHXHXPXHXMXsXiXjXhXL.,.Q.).aXzXaXpXF.dXZXHXHXHXHXHXKXGXMXwX0X$X}.].Z.d.s.r.f.M.M.s.f.C.M.G.s.+.W | n 7 @ o = # O < = < < = = 5 i k i Q ..+.9.+.| i.M.G.G.:X0XwX0X,X0XsX9XZ.N.'.A.N.'.'.8XqXvXuXr.| @XB.'..Xq.'.FX%XVXBXMXqX0XyXsXnXnXyXwX8X|.[.K.G.G.H.G.C.d.s.G.G.J.M.d.s.M.s.d.M.M.M.].[.@X9XyXvXuXyX0X0X9X0XwX8X8X'.'.A.M.d.C.S.{.G.#X{.8XqXqX}.$X9X:X0XtX0XwXyXyXnXmXdXfXdXdXsX<X0X0X>XtXsX",
"@X>X:XwXdXfXfXfXMXMXtXdXsX0X0X:XK.K.H.[.:X$X#X|.%X@X8XuXyXyXyXwX0X9XvX$X%X$X$X0XsXaXaX(.P.$.v q C 7X(.6XfXGXUXGXiXfXfXdXdXHXyXwXmXmXNX9XMXCXGXxXjX1XQ./.hX7XlXgXgXsXnXsXMXdX0XwXnXgXiX4X+X{.M.t.0.r.i.i.-.+.| +...2.2.M.i.+._ Q h w + . = + 1 = = @ = 1 2 2 3 5 0 e i d E -.+.i.-.g.S.s.s.m.G.[.{.>XiXsX0X Xd.m.m.s.s.B.B.}.$X8Xm.M.:XK.t.t.XX&X.Xq.q..XvXvXeXqXqXqXwX9X9X9X|.{.H.K.S.M.M.f.s.s.d.s.s.i.i.s.9.s.s.s.f.M.M.C.M.G.}. X$X0XtXyX0XwXwXyX$XZ.[.'.M.M.S.K.C.[.8X@X}.|.%X.X$X@X:X>X:X:X#X0X9XsXsXsXiXrXfXdXdXsX0X>X:X{.",
">X>X,X0X<X,X0X0X:X9X9XwXwX0X:Xd.M.f.C.{.9X9XyXbXbXvXuXyXuXBXNXvX|.[.'.{.|.8XyXmXjX5X7X/.P.6.- f Q.6XjXaXSXyXfXfXfXfXNX@X@X0X8X8XqXvXeX$XmXMXfXHXjX5.(.hXzX6XaXfXfXZXuX:X:XtX{.=XsXtXsXMXsXmX9X[.d.| E ] +.2.2.+.-...+.W _ D E S o o O o < - = = ; - ; ; q r y g f g y e F a.2.f.s.M.M.M.9.w.+.9.+.d.G.:X:X:XG.d.t.r.9.0.9.A.}.}.N.Y G.:X}.}.%XXXXXXXXX.X'.'.'.'.}.}.'.Z.Z.N.N.N.M.S.V.m.d.g.r.s.w.i.w.i.i.9.+.+.+.-.r.s.s.i.i.i.f.N.}.@X@X@X|.@X|.}.B.u.A.B.m.M.s.i.s.'.{.{.[.}.}. X|.>XtX,X:X<X9X9X@X>X+X{.>XiX0XsXdXrX<X{.:X:X",
"G.{.#X{.G.S.g.9.M.G.K.G.J.{.J.{.J.~.oX:X0X9XBXNXNXAXNXvXqX$X'.%XeX%X$X}.[.9X$XvXsX,XpX7X(.J q J 1X/.aXGXPXnXfXjXfXsX:X{.{.@X@X|.].N.m.M.G.].@X0Xf.n.7XpXfXaXiXsX0XwXtX,XH.:XsXsX0X>X+X:X0XyXnX$X|.S.f.3.2..._ _ _ ` / _ / W _ q - = = = : ; ; 6 6 q q u u c C H C H G C C $.p.f.s.0.e.d.s.s.i.+.+.+.i.{.8X8X>XZ.d.9.| o.9.N.'.[.M.l 9.d.]. X}.u.B..Xu.B.9.9.s.r.+.+.o.@.| ..| | | ..| ..X.&.&.+.+.X.| | ` X...X.| X.@.@.+.@.+.w.M.V.M.M.r.o.+.o.| o.r.t.B.Z.#X@X{.{.{.:XwXwX8X{.@XyXsXwX:X,XsXtX9XuX0X0X0X:X,X0X8X:X,X0XoXf.g.M."
};
